; generated by PrusaSlicer 2.0.0+win64 on 2020-12-07 at 16:58:24

; 

; external perimeters extrusion width = 0.45mm
; perimeters extrusion width = 0.45mm
; infill extrusion width = 0.45mm
; solid infill extrusion width = 0.45mm
; top infill extrusion width = 0.40mm
; first layer extrusion width = 0.47mm

M73 P0 R83
M73 Q0 S84
M201 X1000 Y1000 Z1000 E5000 ; sets maximum accelerations, mm/sec^2
M203 X200 Y200 Z12 E120 ; sets maximum feedrates, mm/sec
M204 P1250 R1250 T1250 ; sets acceleration (P, T) and retract acceleration (R), mm/sec^2
M205 X8.00 Y8.00 Z0.40 E1.50 ; sets the jerk limits, mm/sec
M205 S0 T0 ; sets the minimum extruding and travel feed rate, mm/sec
M107
G90 ; use absolute coordinates
M83 ; extruder relative mode
M104 S215 ; set extruder temp
M140 S60 ; set bed temp
M190 S60 ; wait for bed temp
M109 S215 ; wait for extruder temp
G28 W ; home all without mesh bed level
G80 ; mesh bed leveling
G1 Y-3.0 F1000.0 ; go outside print area
G92 E0.0
G1 X60.0 E9.0 F1000.0 ; intro line
M73 Q0 S84
M73 P0 R83
G1 X100.0 E12.5 F1000.0 ; intro line
G92 E0.0
M221 S95
M900 K30 ; Filament gcode
G21 ; set units to millimeters
G90 ; use absolute coordinates
M83 ; use relative distances for extrusion
;BEFORE_LAYER_CHANGE
G92 E0.0
;0.2


G1 E-0.80000 F2100.00000
G1 Z0.600 F10800.000
;AFTER_LAYER_CHANGE
;0.2
G1 X73.269 Y77.816
G1 Z0.200
G1 E0.80000 F2100.00000
M204 S1000
G1 F900
G1 X74.446 Y76.954 E0.05183
G1 X75.073 Y76.647 E0.02479
G1 X76.103 Y76.312 E0.03845
G1 X77.480 Y76.151 E0.04924
G1 X172.504 Y76.151 E3.37447
G1 X173.776 Y76.283 E0.04541
G1 X174.924 Y76.645 E0.04275
G1 X175.690 Y77.034 E0.03051
G1 X176.673 Y77.761 E0.04340
G1 X177.519 Y78.702 E0.04496
G1 X178.138 Y79.756 E0.04340
G1 X178.552 Y80.964 E0.04534
G1 X178.688 Y81.827 E0.03103
G1 X178.688 Y127.917 E1.63674
G1 X178.409 Y129.286 E0.04963
G1 X177.825 Y130.564 E0.04989
G1 X177.190 Y131.437 E0.03832
G1 X176.721 Y131.923 E0.02400
G1 X175.554 Y132.775 E0.05131
G1 X174.927 Y133.083 E0.02479
G1 X173.897 Y133.417 E0.03845
G1 X172.520 Y133.578 E0.04924
G1 X77.449 Y133.578 E3.37617
G1 X76.743 Y133.530 E0.02511
G1 X75.680 Y133.304 E0.03858
G1 X74.376 Y132.736 E0.05054
G1 X73.767 Y132.330 E0.02596
G1 X72.952 Y131.596 E0.03897
G1 X72.089 Y130.419 E0.05183
G1 X71.782 Y129.792 E0.02479
G1 X71.448 Y128.766 E0.03832
G1 X71.287 Y127.403 E0.04872
G1 X71.289 Y82.265 E1.60293
G1 X71.401 Y81.187 E0.03851
G1 X71.563 Y80.534 E0.02387
G1 X72.133 Y79.234 E0.05041
G1 X72.537 Y78.629 E0.02583
G1 X73.229 Y77.861 E0.03671
G1 F8640
G1 X74.446 Y76.954 E-0.35056
G1 X75.073 Y76.647 E-0.16117
G1 X76.095 Y76.314 E-0.24827
G1 E-0.04000 F2100.00000
G1 Z0.800 F10800.000
G1 X77.218 Y124.243
G1 Z0.200
G1 E0.80000 F2100.00000
G1 F900
G1 X77.594 Y124.231 E0.01335
G1 X78.000 Y124.269 E0.01448
G1 X78.397 Y124.360 E0.01448
G1 X78.750 Y124.490 E0.01335
G1 X79.139 Y124.692 E0.01558
G1 X79.448 Y124.908 E0.01335
G1 X79.750 Y125.181 E0.01447
G1 X80.014 Y125.491 E0.01448
G1 X80.219 Y125.806 E0.01334
G1 X80.411 Y126.201 E0.01558
G1 X80.530 Y126.558 E0.01336
G1 X80.609 Y126.957 E0.01447
G1 X80.636 Y127.365 E0.01449
G1 X80.609 Y127.772 E0.01449
G1 X80.530 Y128.171 E0.01447
G1 X80.411 Y128.528 E0.01336
G1 X80.219 Y128.923 E0.01558
G1 X80.014 Y129.238 E0.01334
G1 X79.750 Y129.548 E0.01448
G1 X79.447 Y129.822 E0.01449
G1 X79.112 Y130.053 E0.01446
G1 X78.778 Y130.227 E0.01336
G1 X78.366 Y130.376 E0.01558
G1 X78.000 Y130.460 E0.01334
G1 X77.593 Y130.499 E0.01449
G1 X77.186 Y130.484 E0.01447
G1 X76.816 Y130.424 E0.01332
G1 X76.425 Y130.310 E0.01446
G1 X76.052 Y130.146 E0.01449
G1 X75.730 Y129.951 E0.01334
G1 X75.385 Y129.679 E0.01560
G1 X75.103 Y129.385 E0.01450
G1 X74.878 Y129.084 E0.01332
G1 X74.677 Y128.729 E0.01447
G1 X74.524 Y128.351 E0.01449
G1 X74.429 Y127.988 E0.01334
G1 X74.370 Y127.553 E0.01558
G1 X74.370 Y127.177 E0.01336
G1 X74.421 Y126.773 E0.01446
G1 X74.524 Y126.378 E0.01449
G1 X74.677 Y126.000 E0.01448
G1 X74.861 Y125.673 E0.01335
G1 X75.123 Y125.320 E0.01558
G1 X75.385 Y125.050 E0.01336
G1 X75.703 Y124.795 E0.01447
G1 X76.052 Y124.584 E0.01449
G1 X76.425 Y124.419 E0.01447
G1 X76.785 Y124.312 E0.01335
G1 X77.159 Y124.252 E0.01345
G1 X77.375 Y123.901 F10800.000
G1 F8640
G1 X77.594 Y124.231 E-0.10056
G1 X78.000 Y124.269 E-0.09413
G1 X78.397 Y124.360 E-0.09414
G1 X78.750 Y124.490 E-0.08680
G1 X79.139 Y124.692 E-0.10130
G1 X79.448 Y124.908 E-0.08683
G1 X79.750 Y125.181 E-0.09410
G1 X80.014 Y125.491 E-0.09417
G1 X80.033 Y125.520 E-0.00797
G1 E-0.04000 F2100.00000
G1 Z0.800 F10800.000
G1 X77.593 Y85.499
G1 Z0.200
G1 E0.80000 F2100.00000
G1 F900
G1 X77.186 Y85.484 E0.01447
G1 X76.816 Y85.424 E0.01333
G1 X76.425 Y85.310 E0.01446
G1 X76.051 Y85.146 E0.01449
G1 X75.730 Y84.951 E0.01334
G1 X75.385 Y84.680 E0.01560
G1 X75.102 Y84.385 E0.01450
G1 X74.878 Y84.084 E0.01333
G1 X74.677 Y83.730 E0.01447
G1 X74.524 Y83.352 E0.01449
G1 X74.428 Y82.988 E0.01335
G1 X74.370 Y82.553 E0.01558
G1 X74.370 Y82.177 E0.01336
G1 X74.421 Y81.773 E0.01446
G1 X74.523 Y81.378 E0.01449
G1 X74.677 Y81.000 E0.01448
G1 X74.861 Y80.672 E0.01335
G1 X75.123 Y80.320 E0.01558
G1 X75.385 Y80.050 E0.01336
G1 X75.702 Y79.795 E0.01447
G1 X76.051 Y79.583 E0.01449
G1 X76.424 Y79.419 E0.01447
G1 X76.785 Y79.312 E0.01336
G1 X77.218 Y79.242 E0.01558
G1 X77.594 Y79.230 E0.01336
G1 X78.000 Y79.269 E0.01448
G1 X78.397 Y79.360 E0.01448
G1 X78.750 Y79.490 E0.01335
G1 X79.139 Y79.692 E0.01558
G1 X79.448 Y79.907 E0.01336
G1 X79.750 Y80.181 E0.01447
G1 X80.015 Y80.491 E0.01448
G1 X80.220 Y80.806 E0.01335
G1 X80.411 Y81.201 E0.01558
G1 X80.530 Y81.558 E0.01336
G1 X80.609 Y81.957 E0.01447
G1 X80.636 Y82.365 E0.01449
G1 X80.609 Y82.772 E0.01449
G1 X80.530 Y83.171 E0.01447
G1 X80.411 Y83.529 E0.01336
G1 X80.220 Y83.923 E0.01558
G1 X80.015 Y84.238 E0.01335
G1 X79.750 Y84.549 E0.01448
G1 X79.447 Y84.822 E0.01449
G1 X79.112 Y85.054 E0.01446
G1 X78.779 Y85.228 E0.01337
G1 X78.366 Y85.377 E0.01558
G1 X78.000 Y85.460 E0.01334
G1 X77.653 Y85.493 E0.01236
G1 X77.403 Y85.851 F10800.000
G1 F8640
G1 X77.186 Y85.484 E-0.10781
G1 X76.816 Y85.424 E-0.08666
G1 X76.425 Y85.310 E-0.09404
G1 X76.051 Y85.146 E-0.09422
G1 X75.730 Y84.951 E-0.08675
G1 X75.385 Y84.680 E-0.10141
G1 X75.102 Y84.385 E-0.09428
G1 X74.878 Y84.084 E-0.08666
G1 X74.860 Y84.053 E-0.00815
G1 E-0.04000 F2100.00000
G1 Z0.800 F10800.000
G1 X130.027 Y100.340
G1 Z0.200
G1 E0.80000 F2100.00000
G1 F900
G1 X130.351 Y100.109 E0.01412
G1 X130.604 Y99.856 E0.01270
G1 X130.820 Y99.546 E0.01343
G1 X131.037 Y99.856 E0.01343
G1 X131.304 Y100.123 E0.01340
G1 X131.614 Y100.340 E0.01343
G1 X131.304 Y100.556 E0.01343
G1 X131.037 Y100.823 E0.01340
G1 X130.820 Y101.133 E0.01343
G1 X130.604 Y100.823 E0.01343
G1 X130.337 Y100.556 E0.01340
G1 X130.076 Y100.374 E0.01130
G1 F8640
G1 X130.351 Y100.109 E-0.08812
G1 X130.604 Y99.856 E-0.08257
G1 X130.820 Y99.546 E-0.08734
G1 X131.037 Y99.856 E-0.08734
G1 X131.304 Y100.123 E-0.08713
G1 X131.614 Y100.340 E-0.08733
G1 X131.304 Y100.556 E-0.08734
G1 X131.037 Y100.823 E-0.08712
G1 X130.874 Y101.056 E-0.06571
G1 E-0.04000 F2100.00000
G1 Z0.800 F10800.000
G1 X133.777 Y100.340
G1 Z0.200
G1 E0.80000 F2100.00000
G1 F900
G1 X134.101 Y100.109 E0.01412
G1 X134.354 Y99.856 E0.01270
G1 X134.570 Y99.546 E0.01343
G1 X134.787 Y99.856 E0.01343
G1 X135.054 Y100.123 E0.01340
G1 X135.364 Y100.340 E0.01343
G1 X135.054 Y100.556 E0.01343
G1 X134.787 Y100.823 E0.01340
G1 X134.570 Y101.133 E0.01343
G1 X134.354 Y100.823 E0.01343
G1 X134.087 Y100.556 E0.01340
G1 X133.826 Y100.374 E0.01130
G1 F8640
G1 X134.101 Y100.109 E-0.08812
G1 X134.354 Y99.856 E-0.08257
G1 X134.570 Y99.546 E-0.08734
G1 X134.787 Y99.856 E-0.08734
G1 X135.054 Y100.123 E-0.08713
G1 X135.364 Y100.340 E-0.08733
G1 X135.054 Y100.556 E-0.08734
G1 X134.787 Y100.823 E-0.08712
G1 X134.624 Y101.056 E-0.06571
G1 E-0.04000 F2100.00000
G1 Z0.800 F10800.000
G1 X137.527 Y100.340
G1 Z0.200
G1 E0.80000 F2100.00000
G1 F900
G1 X137.851 Y100.109 E0.01412
G1 X138.104 Y99.856 E0.01270
G1 X138.320 Y99.546 E0.01343
G1 X138.537 Y99.856 E0.01343
G1 X138.804 Y100.123 E0.01340
G1 X139.114 Y100.340 E0.01343
G1 X138.804 Y100.556 E0.01343
G1 X138.537 Y100.823 E0.01340
G1 X138.320 Y101.133 E0.01343
G1 X138.104 Y100.823 E0.01343
G1 X137.837 Y100.556 E0.01340
G1 X137.576 Y100.374 E0.01130
G1 F8640
G1 X137.851 Y100.109 E-0.08812
G1 X138.104 Y99.856 E-0.08257
G1 X138.320 Y99.546 E-0.08734
G1 X138.537 Y99.856 E-0.08734
G1 X138.804 Y100.123 E-0.08712
G1 X139.114 Y100.340 E-0.08733
G1 X138.804 Y100.556 E-0.08734
G1 X138.537 Y100.823 E-0.08712
G1 X138.374 Y101.056 E-0.06571
G1 E-0.04000 F2100.00000
G1 Z0.800 F10800.000
G1 X141.277 Y100.340
G1 Z0.200
G1 E0.80000 F2100.00000
G1 F900
G1 X141.587 Y100.123 E0.01343
G1 X141.854 Y99.856 E0.01340
G1 X142.070 Y99.546 E0.01343
G1 X142.287 Y99.856 E0.01343
G1 X142.554 Y100.123 E0.01340
G1 X142.864 Y100.340 E0.01343
G1 X142.554 Y100.556 E0.01343
G1 X142.287 Y100.823 E0.01340
G1 X142.070 Y101.133 E0.01343
G1 X141.854 Y100.823 E0.01343
G1 X141.587 Y100.556 E0.01340
G1 X141.326 Y100.374 E0.01130
G1 F8640
G1 X141.587 Y100.123 E-0.08357
G1 X141.854 Y99.856 E-0.08713
G1 X142.070 Y99.546 E-0.08734
G1 X142.287 Y99.856 E-0.08734
G1 X142.554 Y100.123 E-0.08713
G1 X142.864 Y100.340 E-0.08733
G1 X142.554 Y100.556 E-0.08734
G1 X142.287 Y100.823 E-0.08712
G1 X142.124 Y101.056 E-0.06571
G1 E-0.04000 F2100.00000
G1 Z0.800 F10800.000
G1 X145.027 Y100.340
G1 Z0.200
G1 E0.80000 F2100.00000
G1 F900
G1 X145.337 Y100.123 E0.01343
G1 X145.604 Y99.856 E0.01340
G1 X145.820 Y99.546 E0.01343
G1 X146.037 Y99.856 E0.01343
G1 X146.304 Y100.123 E0.01340
G1 X146.614 Y100.340 E0.01343
G1 X146.304 Y100.556 E0.01343
G1 X146.037 Y100.823 E0.01340
G1 X145.820 Y101.133 E0.01343
G1 X145.604 Y100.823 E0.01343
G1 X145.337 Y100.556 E0.01340
G1 X145.076 Y100.374 E0.01130
G1 F8640
G1 X145.337 Y100.123 E-0.08357
G1 X145.604 Y99.856 E-0.08713
G1 X145.820 Y99.546 E-0.08734
G1 X146.037 Y99.856 E-0.08734
G1 X146.304 Y100.123 E-0.08713
G1 X146.614 Y100.340 E-0.08733
G1 X146.304 Y100.556 E-0.08734
G1 X146.037 Y100.823 E-0.08712
G1 X145.874 Y101.056 E-0.06571
G1 E-0.04000 F2100.00000
G1 Z0.800 F10800.000
G1 X148.777 Y100.340
G1 Z0.200
G1 E0.80000 F2100.00000
G1 F900
G1 X149.090 Y100.121 E0.01355
G1 X149.365 Y99.840 E0.01397
G1 X149.570 Y99.546 E0.01273
G1 X149.787 Y99.856 E0.01343
G1 X150.054 Y100.123 E0.01340
G1 X150.364 Y100.340 E0.01343
G1 X150.054 Y100.556 E0.01343
G1 X149.787 Y100.823 E0.01340
G1 X149.570 Y101.133 E0.01343
G1 X149.354 Y100.823 E0.01343
G1 X149.087 Y100.556 E0.01340
G1 X148.826 Y100.374 E0.01130
G1 F8640
G1 X149.090 Y100.121 E-0.08435
G1 X149.365 Y99.840 E-0.09084
G1 X149.570 Y99.546 E-0.08278
G1 X149.787 Y99.856 E-0.08734
G1 X150.054 Y100.123 E-0.08713
G1 X150.364 Y100.340 E-0.08733
G1 X150.054 Y100.556 E-0.08734
G1 X149.787 Y100.823 E-0.08712
G1 X149.624 Y101.057 E-0.06577
G1 E-0.04000 F2100.00000
G1 Z0.800 F10800.000
G1 X152.527 Y100.340
G1 Z0.200
G1 E0.80000 F2100.00000
G1 F900
G1 X152.840 Y100.121 E0.01355
G1 X153.115 Y99.840 E0.01397
G1 X153.320 Y99.546 E0.01273
G1 X153.537 Y99.856 E0.01343
G1 X153.804 Y100.123 E0.01340
G1 X154.114 Y100.340 E0.01343
G1 X153.804 Y100.556 E0.01343
G1 X153.537 Y100.823 E0.01340
G1 X153.320 Y101.133 E0.01343
G1 X153.104 Y100.823 E0.01343
G1 X152.837 Y100.556 E0.01340
G1 X152.576 Y100.374 E0.01130
G1 F8640
G1 X152.840 Y100.121 E-0.08435
G1 X153.115 Y99.840 E-0.09084
G1 X153.320 Y99.546 E-0.08278
G1 X153.537 Y99.856 E-0.08734
G1 X153.804 Y100.123 E-0.08713
G1 X154.114 Y100.340 E-0.08733
G1 X153.804 Y100.556 E-0.08734
G1 X153.537 Y100.823 E-0.08712
G1 X153.374 Y101.057 E-0.06577
G1 E-0.04000 F2100.00000
G1 Z0.800 F10800.000
G1 X156.277 Y100.340
G1 Z0.200
G1 E0.80000 F2100.00000
G1 F900
G1 X156.590 Y100.121 E0.01355
G1 X156.865 Y99.840 E0.01397
G1 X157.070 Y99.546 E0.01273
G1 X157.289 Y99.859 E0.01355
G1 X157.570 Y100.134 E0.01397
G1 X157.864 Y100.340 E0.01273
G1 X157.554 Y100.556 E0.01343
G1 X157.287 Y100.823 E0.01340
G1 X157.070 Y101.133 E0.01343
G1 X156.854 Y100.823 E0.01343
G1 X156.587 Y100.556 E0.01340
G1 X156.326 Y100.374 E0.01130
G1 F8640
G1 X156.590 Y100.121 E-0.08435
G1 X156.865 Y99.840 E-0.09084
G1 X157.070 Y99.546 E-0.08279
G1 X157.289 Y99.859 E-0.08812
G1 X157.570 Y100.134 E-0.09084
G1 X157.864 Y100.340 E-0.08278
G1 X157.554 Y100.556 E-0.08734
G1 X157.287 Y100.823 E-0.08713
G1 X157.124 Y101.057 E-0.06582
G1 E-0.04000 F2100.00000
G1 Z0.800 F10800.000
G1 X157.070 Y103.296
G1 Z0.200
G1 E0.80000 F2100.00000
G1 F900
G1 X157.287 Y103.606 E0.01343
G1 X157.554 Y103.873 E0.01340
G1 X157.864 Y104.090 E0.01343
G1 X157.554 Y104.306 E0.01343
G1 X157.287 Y104.573 E0.01340
G1 X157.070 Y104.883 E0.01343
G1 X156.854 Y104.573 E0.01343
G1 X156.587 Y104.306 E0.01340
G1 X156.277 Y104.090 E0.01343
G1 X156.587 Y103.873 E0.01343
G1 X156.854 Y103.606 E0.01340
G1 X157.036 Y103.345 E0.01130
G1 F8640
G1 X157.287 Y103.606 E-0.08357
G1 X157.554 Y103.873 E-0.08713
G1 X157.864 Y104.090 E-0.08733
G1 X157.554 Y104.306 E-0.08734
G1 X157.287 Y104.573 E-0.08713
G1 X157.070 Y104.883 E-0.08734
G1 X156.854 Y104.573 E-0.08734
G1 X156.587 Y104.306 E-0.08712
G1 X156.354 Y104.143 E-0.06571
G1 E-0.04000 F2100.00000
G1 Z0.800 F10800.000
G1 X157.070 Y107.046
G1 Z0.200
G1 E0.80000 F2100.00000
G1 F900
G1 X157.287 Y107.356 E0.01343
G1 X157.554 Y107.623 E0.01340
G1 X157.864 Y107.840 E0.01343
G1 X157.554 Y108.056 E0.01343
G1 X157.287 Y108.323 E0.01340
G1 X157.070 Y108.633 E0.01343
G1 X156.854 Y108.323 E0.01343
G1 X156.587 Y108.056 E0.01340
G1 X156.277 Y107.840 E0.01343
G1 X156.587 Y107.623 E0.01343
G1 X156.854 Y107.356 E0.01340
G1 X157.036 Y107.095 E0.01130
G1 F8640
G1 X157.287 Y107.356 E-0.08357
G1 X157.554 Y107.623 E-0.08713
G1 X157.864 Y107.840 E-0.08733
G1 X157.554 Y108.056 E-0.08734
G1 X157.287 Y108.323 E-0.08713
G1 X157.070 Y108.633 E-0.08734
G1 X156.854 Y108.323 E-0.08734
G1 X156.587 Y108.056 E-0.08712
G1 X156.354 Y107.893 E-0.06570
G1 E-0.04000 F2100.00000
G1 Z0.800 F10800.000
G1 X154.114 Y107.840
G1 Z0.200
G1 E0.80000 F2100.00000
G1 F900
G1 X153.804 Y108.056 E0.01343
G1 X153.537 Y108.323 E0.01340
G1 X153.320 Y108.633 E0.01343
G1 X153.104 Y108.323 E0.01343
G1 X152.837 Y108.056 E0.01340
G1 X152.527 Y107.840 E0.01343
G1 X152.837 Y107.623 E0.01343
G1 X153.104 Y107.356 E0.01340
G1 X153.320 Y107.046 E0.01343
G1 X153.537 Y107.356 E0.01343
G1 X153.804 Y107.623 E0.01340
G1 X154.065 Y107.805 E0.01130
G1 F8640
G1 X153.804 Y108.056 E-0.08358
G1 X153.537 Y108.323 E-0.08712
G1 X153.320 Y108.633 E-0.08734
G1 X153.104 Y108.323 E-0.08733
G1 X152.837 Y108.056 E-0.08712
G1 X152.527 Y107.840 E-0.08734
G1 X152.837 Y107.623 E-0.08734
G1 X153.104 Y107.356 E-0.08713
G1 X153.267 Y107.123 E-0.06570
G1 E-0.04000 F2100.00000
G1 Z0.800 F10800.000
G1 X153.320 Y110.796
G1 Z0.200
G1 E0.80000 F2100.00000
G1 F900
G1 X153.537 Y111.106 E0.01343
G1 X153.806 Y111.375 E0.01352
G1 X154.117 Y111.588 E0.01338
G1 X153.804 Y111.806 E0.01356
G1 X153.537 Y112.073 E0.01340
G1 X153.320 Y112.383 E0.01343
G1 X153.104 Y112.073 E0.01343
G1 X152.837 Y111.806 E0.01340
G1 X152.527 Y111.590 E0.01343
G1 X152.840 Y111.371 E0.01355
G1 X153.115 Y111.090 E0.01397
G1 X153.286 Y110.845 E0.01060
G1 F8640
G1 X153.537 Y111.106 E-0.08358
G1 X153.806 Y111.375 E-0.08791
G1 X154.117 Y111.588 E-0.08698
G1 X153.804 Y111.806 E-0.08815
G1 X153.537 Y112.073 E-0.08712
G1 X153.320 Y112.383 E-0.08734
G1 X153.104 Y112.073 E-0.08733
G1 X152.837 Y111.806 E-0.08712
G1 X152.608 Y111.646 E-0.06447
G1 E-0.04000 F2100.00000
G1 Z0.800 F10800.000
G1 X150.364 Y111.590
G1 Z0.200
G1 E0.80000 F2100.00000
G1 F900
G1 X150.054 Y111.806 E0.01343
G1 X149.787 Y112.073 E0.01340
G1 X149.570 Y112.383 E0.01343
G1 X149.354 Y112.073 E0.01343
G1 X149.087 Y111.806 E0.01340
G1 X148.777 Y111.590 E0.01343
G1 X149.090 Y111.371 E0.01355
G1 X149.365 Y111.090 E0.01397
G1 X149.570 Y110.796 E0.01273
G1 X149.801 Y111.120 E0.01412
G1 X150.054 Y111.373 E0.01270
G1 X150.315 Y111.555 E0.01130
G1 F8640
G1 X150.054 Y111.806 E-0.08358
G1 X149.787 Y112.073 E-0.08712
G1 X149.570 Y112.383 E-0.08734
G1 X149.354 Y112.073 E-0.08733
G1 X149.087 Y111.806 E-0.08712
G1 X148.777 Y111.590 E-0.08734
G1 X149.090 Y111.371 E-0.08812
G1 X149.365 Y111.090 E-0.09084
G1 X149.517 Y110.873 E-0.06120
