; generated by PrusaSlicer 2.0.0+win64 on 2020-12-02 at 19:27:33

; 

; external perimeters extrusion width = 0.45mm
; perimeters extrusion width = 0.45mm
; infill extrusion width = 0.45mm
; solid infill extrusion width = 0.45mm
; top infill extrusion width = 0.40mm
; first layer extrusion width = 0.47mm

M73 P0 R9
M73 Q0 S10
M201 X1000 Y1000 Z1000 E5000 ; sets maximum accelerations, mm/sec^2
M203 X200 Y200 Z12 E120 ; sets maximum feedrates, mm/sec
M204 P1250 R1250 T1250 ; sets acceleration (P, T) and retract acceleration (R), mm/sec^2
M205 X8.00 Y8.00 Z0.40 E1.50 ; sets the jerk limits, mm/sec
M205 S0 T0 ; sets the minimum extruding and travel feed rate, mm/sec
M107
G90 ; use absolute coordinates
M83 ; extruder relative mode
M104 S215 ; set extruder temp
M140 S60 ; set bed temp
M190 S60 ; wait for bed temp
M109 S215 ; wait for extruder temp
G28 W ; home all without mesh bed level
G80 ; mesh bed leveling
G1 Y-3.0 F1000.0 ; go outside print area
G92 E0.0
G1 X60.0 E9.0 F1000.0 ; intro line
M73 Q0 S9
M73 P0 R9
G1 X100.0 E12.5 F1000.0 ; intro line
G92 E0.0
M221 S95
M900 K30 ; Filament gcode
G21 ; set units to millimeters
G90 ; use absolute coordinates
M83 ; use relative distances for extrusion
;BEFORE_LAYER_CHANGE
G92 E0.0
;0.2


G1 E-0.80000 F2100.00000
G1 Z0.600 F10800.000
;AFTER_LAYER_CHANGE
;0.2
G1 X11.842 Y8.541
G1 Z0.200
G1 E0.80000 F2100.00000
M204 S1000
G1 F900
G1 X13.133 Y7.222 E0.06557
G1 X13.918 Y6.641 E0.03468
G1 X14.701 Y6.188 E0.03210
G1 X15.569 Y5.807 E0.03367
G1 X16.435 Y5.536 E0.03224
G1 X18.061 Y5.298 E0.05834
G1 X113.364 Y5.291 E3.38440
G1 X233.265 Y5.653 E4.25792
G1 X234.231 Y5.754 E0.03449
G1 X235.181 Y5.972 E0.03460
G1 X236.279 Y6.381 E0.04161
G1 X237.144 Y6.835 E0.03470
G1 X237.936 Y7.378 E0.03409
G1 X238.732 Y8.073 E0.03754
G1 X239.418 Y8.825 E0.03616
G1 X240.158 Y9.861 E0.04519
G1 X240.910 Y11.327 E0.05854
G1 X241.392 Y12.750 E0.05334
G1 X241.681 Y14.246 E0.05411
G1 X241.770 Y15.669 E0.05065
G1 X242.182 Y155.507 E4.96591
G1 X242.182 Y204.899 E1.75401
G1 X242.111 Y205.448 E0.01966
G1 X241.906 Y205.963 E0.01966
G1 X241.580 Y206.410 E0.01966
G1 X241.153 Y206.762 E0.01966
G1 X240.585 Y207.018 E0.02212
G1 X239.972 Y207.105 E0.02199
G1 X131.765 Y207.105 E3.84263
G1 X131.120 Y207.008 E0.02315
G1 X130.653 Y206.804 E0.01810
G1 X10.469 Y136.564 E4.94342
G1 X10.051 Y136.247 E0.01862
G1 X9.720 Y135.840 E0.01862
G1 X9.464 Y135.276 E0.02199
G1 X9.375 Y134.660 E0.02212
G1 X9.375 Y85.271 E1.75390
G1 X9.552 Y15.001 E2.49543
G1 X9.746 Y13.187 E0.06476
G1 X10.144 Y11.668 E0.05578
G1 X10.827 Y10.084 E0.06127
G1 X11.809 Y8.592 E0.06343
G1 F8640
G1 X13.133 Y7.222 E-0.43996
G1 X13.918 Y6.641 E-0.22548
G1 X14.273 Y6.436 E-0.09456
G1 E-0.04000 F2100.00000
G1 Z0.800 F10800.000
G1 X119.596 Y64.340
G1 Z0.200
G1 E0.80000 F2100.00000
G1 F900
G1 X12.126 Y64.340 E3.81645
M73 Q12 S8
M73 P12 R8
G1 X12.126 Y15.321 E1.74075
G1 X12.164 Y14.496 E0.02934
G1 X12.283 Y13.646 E0.03047
G1 X12.411 Y13.079 E0.02066
G1 X12.576 Y12.524 E0.02055
G1 X12.780 Y11.981 E0.02062
G1 X13.095 Y11.310 E0.02630
G1 X13.472 Y10.676 E0.02619
G1 X13.910 Y10.084 E0.02617
G1 X14.238 Y9.713 E0.01759
G1 X14.771 Y9.213 E0.02596
G1 X15.165 Y8.910 E0.01766
G1 X15.700 Y8.575 E0.02238
G1 X16.084 Y8.382 E0.01527
G1 X16.678 Y8.148 E0.02269
G1 X17.298 Y7.981 E0.02281
G1 X17.931 Y7.888 E0.02271
G1 X18.356 Y7.870 E0.01509
G1 X113.368 Y7.870 E3.37407
G1 X114.001 Y7.910 E0.02251
G1 X114.632 Y8.029 E0.02281
G1 X115.243 Y8.218 E0.02272
G1 X115.640 Y8.383 E0.01525
G1 X116.020 Y8.574 E0.01512
G1 X116.383 Y8.793 E0.01505
G1 X116.756 Y9.058 E0.01625
G1 X117.134 Y9.372 E0.01745
G1 X117.486 Y9.716 E0.01748
G1 X117.962 Y10.273 E0.02602
G1 X118.250 Y10.676 E0.01758
G1 X118.507 Y11.095 E0.01746
G1 X118.738 Y11.530 E0.01749
G1 X118.943 Y11.984 E0.01768
G1 X119.233 Y12.800 E0.03075
G1 X119.437 Y13.643 E0.03079
G1 X119.528 Y14.221 E0.02078
G1 X119.579 Y14.772 E0.01968
G1 X119.596 Y15.323 E0.01956
G1 X119.596 Y64.280 E1.73855
G1 X119.596 Y64.740 F10800.000
G1 X119.726 Y64.280
G1 F900
G1 X119.726 Y64.470 E0.00675
G1 X11.996 Y64.470 E3.82569
G1 X11.996 Y15.330 E1.74504
G1 X12.013 Y14.765 E0.02010
G1 X12.065 Y14.205 E0.01995
G1 X12.156 Y13.622 E0.02096
G1 X12.364 Y12.764 E0.03136
G1 X12.661 Y11.930 E0.03143
G1 X12.867 Y11.473 E0.01779
G1 X13.101 Y11.031 E0.01778
G1 X13.363 Y10.605 E0.01775
G1 X13.654 Y10.198 E0.01775
G1 X14.144 Y9.624 E0.02682
G1 X14.500 Y9.276 E0.01767
G1 X14.886 Y8.955 E0.01782
G1 X15.266 Y8.685 E0.01657
G1 X15.636 Y8.463 E0.01532
G1 X16.025 Y8.267 E0.01548
G1 X16.428 Y8.099 E0.01549
G1 X17.060 Y7.904 E0.02349
G1 X17.707 Y7.782 E0.02337
G1 X18.368 Y7.740 E0.02352
G1 X113.504 Y7.743 E3.37843
G1 X114.013 Y7.782 E0.01813
G1 X114.663 Y7.904 E0.02350
G1 X115.081 Y8.025 E0.01546
G1 X115.698 Y8.268 E0.02352
G1 X116.083 Y8.462 E0.01532
G1 X116.634 Y8.806 E0.02307
G1 X117.030 Y9.111 E0.01775
G1 X117.580 Y9.627 E0.02678
G1 X117.909 Y9.998 E0.01761
G1 X118.359 Y10.607 E0.02688
G1 X118.619 Y11.029 E0.01762
G1 X118.961 Y11.700 E0.02674
G1 X119.269 Y12.485 E0.02995
G1 X119.436 Y13.046 E0.02078
G1 X119.565 Y13.620 E0.02088
G1 X119.657 Y14.205 E0.02103
G1 X119.708 Y14.765 E0.01995
G1 X119.726 Y15.330 E0.02010
G1 X119.726 Y64.220 E1.73616
G1 X119.561 Y64.375 F10800.000
G1 F8640
G1 X119.726 Y64.470 E-0.05773
G1 X116.684 Y64.470 E-0.70227
G1 E-0.04000 F2100.00000
G1 Z0.800 F10800.000
G1 X82.782 Y53.709
G1 Z0.200
G1 E0.80000 F2100.00000
G1 F900
G1 X82.633 Y54.060 E0.01355
G1 X82.409 Y54.396 E0.01434
G1 X82.126 Y54.670 E0.01397
G1 X81.791 Y54.893 E0.01431
G1 X81.415 Y55.040 E0.01433
G1 X81.028 Y55.114 E0.01397
G1 X80.625 Y55.105 E0.01434
G1 X80.240 Y55.022 E0.01397
G1 X79.870 Y54.859 E0.01434
G1 X79.548 Y54.633 E0.01397
G1 X79.269 Y54.341 E0.01434
G1 X79.061 Y54.007 E0.01397
G1 X78.915 Y53.631 E0.01434
G1 X78.853 Y53.242 E0.01397
G1 X78.862 Y52.840 E0.01429
G1 X78.958 Y52.448 E0.01435
G1 X79.120 Y52.089 E0.01397
G1 X79.359 Y51.763 E0.01434
G1 X79.648 Y51.496 E0.01397
G1 X79.993 Y51.287 E0.01434
G1 X80.363 Y51.153 E0.01397
G1 X80.762 Y51.092 E0.01434
G1 X81.155 Y51.114 E0.01397
G1 X81.548 Y51.210 E0.01437
G1 X81.909 Y51.388 E0.01427
G1 X82.225 Y51.621 E0.01397
G1 X82.491 Y51.925 E0.01434
G1 X82.692 Y52.263 E0.01397
G1 X82.822 Y52.646 E0.01434
G1 X82.874 Y53.036 E0.01397
G1 X82.848 Y53.427 E0.01392
G1 X82.796 Y53.650 E0.00815
G1 X82.380 Y53.552 F10800.000
G1 F900
G1 X82.256 Y53.856 E0.01167
G1 X82.079 Y54.121 E0.01129
G1 X81.857 Y54.336 E0.01098
G1 X81.593 Y54.512 E0.01128
G1 X81.296 Y54.627 E0.01129
G1 X80.993 Y54.686 E0.01098
G1 X80.675 Y54.679 E0.01129
G1 X80.372 Y54.614 E0.01099
G1 X80.081 Y54.486 E0.01129
G1 X79.828 Y54.308 E0.01099
G1 X79.608 Y54.078 E0.01129
G1 X79.445 Y53.815 E0.01099
G1 X79.329 Y53.519 E0.01129
G1 X79.281 Y53.214 E0.01098
G1 X79.288 Y52.896 E0.01127
G1 X79.364 Y52.587 E0.01129
G1 X79.491 Y52.305 E0.01099
G1 X79.679 Y52.049 E0.01129
G1 X79.906 Y51.839 E0.01099
G1 X80.178 Y51.674 E0.01129
G1 X80.469 Y51.569 E0.01099
G1 X80.783 Y51.521 E0.01129
G1 X81.092 Y51.538 E0.01099
G1 X81.401 Y51.614 E0.01130
G1 X81.686 Y51.754 E0.01126
G1 X81.935 Y51.937 E0.01098
G1 X82.144 Y52.177 E0.01129
G1 X82.302 Y52.443 E0.01099
G1 X82.404 Y52.744 E0.01129
G1 X82.445 Y53.050 E0.01099
G1 X82.425 Y53.364 E0.01114
G1 X82.394 Y53.494 E0.00475
G1 X82.603 Y53.794 F10800.000
G1 F8640
G1 X82.256 Y53.856 E-0.08959
G1 X82.079 Y54.121 E-0.07342
G1 X81.857 Y54.336 E-0.07142
G1 X81.593 Y54.512 E-0.07333
G1 X81.296 Y54.627 E-0.07338
G1 X80.993 Y54.686 E-0.07143
G1 X80.675 Y54.679 E-0.07342
G1 X80.372 Y54.614 E-0.07144
G1 X80.081 Y54.486 E-0.07342
G1 X79.828 Y54.308 E-0.07144
G1 X79.775 Y54.252 E-0.01771
G1 E-0.04000 F2100.00000
G1 Z0.800 F10800.000
G1 X85.071 Y54.143
G1 Z0.200
G1 E0.80000 F2100.00000
G1 F900
G1 X84.888 Y54.712 E0.02125
G1 X84.623 Y55.262 E0.02166
G1 X84.478 Y55.497 E0.00982
G1 X84.099 Y55.990 E0.02206
G1 X83.909 Y56.190 E0.00982
G1 X83.437 Y56.594 E0.02206
G1 X83.200 Y56.758 E0.01023
G1 X82.952 Y56.904 E0.01023
G1 X82.398 Y57.160 E0.02166
G1 X81.815 Y57.336 E0.02166
G1 X81.543 Y57.388 E0.00982
G1 X80.924 Y57.442 E0.02206
G1 X80.648 Y57.437 E0.00982
G1 X80.031 Y57.362 E0.02206
G1 X79.750 Y57.298 E0.01023
G1 X79.474 Y57.215 E0.01023
G1 X78.912 Y56.979 E0.02166
G1 X78.387 Y56.668 E0.02166
G1 X78.156 Y56.496 E0.01023
G1 X77.937 Y56.309 E0.01023
G1 X77.510 Y55.858 E0.02206
G1 X77.341 Y55.639 E0.00982
G1 X77.015 Y55.110 E0.02206
G1 X76.895 Y54.861 E0.00982
G1 X76.685 Y54.277 E0.02206
G1 X76.619 Y54.008 E0.00982
G1 X76.535 Y53.404 E0.02166
G1 X76.535 Y52.806 E0.02125
G1 X76.619 Y52.202 E0.02166
G1 X76.685 Y51.933 E0.00982
G1 X76.895 Y51.349 E0.02206
G1 X77.015 Y51.100 E0.00982
G1 X77.341 Y50.571 E0.02206
G1 X77.510 Y50.352 E0.00982
G1 X77.929 Y49.909 E0.02166
G1 X78.406 Y49.529 E0.02166
G1 X78.649 Y49.374 E0.01023
G1 X78.901 Y49.236 E0.01023
G1 X79.464 Y49.000 E0.02166
G1 X80.053 Y48.844 E0.02166
G1 X80.630 Y48.774 E0.02064
G1 X81.031 Y48.774 E0.01422
G1 X81.541 Y48.821 E0.01818
G1 X81.820 Y48.875 E0.01010
G1 X82.206 Y48.984 E0.01422
G1 X82.683 Y49.169 E0.01818
G1 X82.932 Y49.295 E0.00990
G1 X83.455 Y49.630 E0.02206
G1 X83.672 Y49.802 E0.00982
G1 X84.106 Y50.229 E0.02166
G1 X84.478 Y50.713 E0.02166
G1 X84.623 Y50.948 E0.00982
G1 X84.888 Y51.498 E0.02166
G1 X85.074 Y52.078 E0.02166
G1 X85.134 Y52.360 E0.01023
G1 X85.173 Y52.645 E0.01023
G1 X85.195 Y53.266 E0.02206
G1 X85.176 Y53.542 E0.00982
G1 X85.081 Y54.084 E0.01952
G1 X85.502 Y54.157 F10800.000
G1 F900
G1 X85.286 Y54.871 E0.02650
G1 X84.999 Y55.467 E0.02349
G1 X84.830 Y55.740 E0.01139
G1 X84.424 Y56.268 E0.02363
G1 X84.203 Y56.500 E0.01139
G1 X83.698 Y56.933 E0.02364
G1 X83.430 Y57.117 E0.01154
G1 X83.151 Y57.283 E0.01154
G1 X82.550 Y57.560 E0.02349
G1 X81.917 Y57.751 E0.02349
G1 X81.602 Y57.812 E0.01139
G1 X80.939 Y57.869 E0.02363
G1 X80.618 Y57.864 E0.01139
G1 X79.957 Y57.783 E0.02363
G1 X79.330 Y57.617 E0.02306
G1 X78.720 Y57.361 E0.02349
G1 X78.151 Y57.024 E0.02349
G1 X77.643 Y56.619 E0.02306
G1 X77.185 Y56.136 E0.02363
G1 X76.989 Y55.882 E0.01139
G1 X76.640 Y55.316 E0.02363
G1 X76.501 Y55.027 E0.01139
G1 X76.275 Y54.400 E0.02363
G1 X76.199 Y54.089 E0.01139
G1 X76.108 Y53.434 E0.02349
G1 X76.108 Y52.776 E0.02335
G1 X76.199 Y52.121 E0.02349
G1 X76.275 Y51.810 E0.01139
G1 X76.501 Y51.183 E0.02363
G1 X76.640 Y50.894 E0.01139
G1 X76.989 Y50.328 E0.02363
G1 X77.185 Y50.073 E0.01139
G1 X77.640 Y49.594 E0.02349
G1 X78.157 Y49.181 E0.02349
G1 X78.431 Y49.006 E0.01154
G1 X78.716 Y48.850 E0.01154
G1 X79.326 Y48.594 E0.02349
G1 X79.965 Y48.425 E0.02349
G1 X80.612 Y48.347 E0.02313
G1 X81.051 Y48.347 E0.01559
G1 X81.601 Y48.398 E0.01962
G1 X81.919 Y48.459 E0.01149
G1 X82.341 Y48.579 E0.01559
G1 X82.857 Y48.778 E0.01962
G1 X83.144 Y48.923 E0.01142
G1 X83.704 Y49.282 E0.02363
G1 X83.955 Y49.482 E0.01139
G1 X84.427 Y49.946 E0.02349
G1 X84.830 Y50.470 E0.02349
G1 X84.999 Y50.743 E0.01139
G1 X85.286 Y51.339 E0.02349
G1 X85.488 Y51.969 E0.02349
G1 X85.555 Y52.287 E0.01154
G1 X85.599 Y52.608 E0.01154
G1 X85.622 Y53.274 E0.02364
G1 X85.600 Y53.594 E0.01139
G1 X85.512 Y54.098 E0.01818
G1 X85.118 Y54.268 F10800.000
G1 F8640
G1 X85.286 Y54.871 E-0.18606
G1 X84.999 Y55.467 E-0.15274
G1 X84.830 Y55.740 E-0.07407
G1 X84.424 Y56.268 E-0.15368
G1 X84.203 Y56.500 E-0.07407
G1 X83.811 Y56.836 E-0.11938
G1 E-0.04000 F2100.00000
G1 Z0.800 F10800.000
G1 X52.874 Y53.036
G1 Z0.200
G1 E0.80000 F2100.00000
G1 F900
G1 X52.848 Y53.427 E0.01392
G1 X52.782 Y53.709 E0.01028
G1 X52.633 Y54.060 E0.01355
G1 X52.409 Y54.396 E0.01434
G1 X52.126 Y54.670 E0.01397
G1 X51.791 Y54.893 E0.01431
G1 X51.415 Y55.040 E0.01433
G1 X51.028 Y55.114 E0.01397
G1 X50.625 Y55.105 E0.01434
G1 X50.240 Y55.022 E0.01397
G1 X49.870 Y54.859 E0.01434
G1 X49.548 Y54.633 E0.01397
G1 X49.269 Y54.341 E0.01434
G1 X49.061 Y54.007 E0.01397
G1 X48.915 Y53.631 E0.01434
G1 X48.853 Y53.242 E0.01397
G1 X48.862 Y52.840 E0.01429
G1 X48.958 Y52.448 E0.01435
G1 X49.120 Y52.089 E0.01397
G1 X49.359 Y51.763 E0.01434
G1 X49.648 Y51.496 E0.01397
G1 X49.993 Y51.287 E0.01434
G1 X50.363 Y51.153 E0.01397
G1 X50.762 Y51.092 E0.01434
G1 X51.155 Y51.114 E0.01397
G1 X51.548 Y51.210 E0.01437
G1 X51.909 Y51.388 E0.01427
G1 X52.225 Y51.621 E0.01397
G1 X52.491 Y51.925 E0.01434
G1 X52.692 Y52.263 E0.01397
G1 X52.822 Y52.646 E0.01434
G1 X52.866 Y52.976 E0.01184
G1 X52.443 Y53.033 F10800.000
G1 F900
G1 X52.425 Y53.364 E0.01175
G1 X52.375 Y53.575 E0.00773
G1 X52.256 Y53.856 E0.01084
G1 X52.079 Y54.121 E0.01129
G1 X51.857 Y54.336 E0.01098
G1 X51.593 Y54.512 E0.01128
G1 X51.296 Y54.627 E0.01129
G1 X50.993 Y54.686 E0.01098
G1 X50.675 Y54.679 E0.01129
G1 X50.372 Y54.614 E0.01099
G1 X50.081 Y54.486 E0.01129
G1 X49.828 Y54.308 E0.01099
G1 X49.608 Y54.078 E0.01129
G1 X49.445 Y53.815 E0.01099
G1 X49.329 Y53.519 E0.01129
G1 X49.281 Y53.214 E0.01098
G1 X49.288 Y52.896 E0.01127
G1 X49.364 Y52.587 E0.01129
G1 X49.491 Y52.305 E0.01099
G1 X49.679 Y52.049 E0.01129
G1 X49.906 Y51.839 E0.01099
G1 X50.178 Y51.674 E0.01129
G1 X50.469 Y51.569 E0.01099
G1 X50.783 Y51.521 E0.01129
G1 X51.092 Y51.538 E0.01099
G1 X51.401 Y51.614 E0.01130
G1 X51.686 Y51.754 E0.01126
G1 X51.935 Y51.937 E0.01098
G1 X52.144 Y52.177 E0.01129
G1 X52.302 Y52.443 E0.01099
G1 X52.404 Y52.744 E0.01129
G1 X52.435 Y52.974 E0.00824
G1 X52.736 Y53.187 F10800.000
G1 F8640
G1 X52.425 Y53.364 E-0.09003
G1 X52.375 Y53.575 E-0.05026
G1 X52.256 Y53.856 E-0.07046
G1 X52.079 Y54.121 E-0.07342
G1 X51.857 Y54.336 E-0.07142
G1 X51.593 Y54.512 E-0.07333
G1 X51.296 Y54.627 E-0.07338
G1 X50.993 Y54.686 E-0.07142
G1 X50.675 Y54.679 E-0.07342
G1 X50.372 Y54.614 E-0.07144
G1 X50.208 Y54.541 E-0.04142
G1 E-0.04000 F2100.00000
G1 Z0.800 F10800.000
G1 X55.188 Y52.817
G1 Z0.200
G1 E0.80000 F2100.00000
G1 F900
G1 X55.188 Y53.393 E0.02044
G1 X55.103 Y54.008 E0.02206
G1 X55.037 Y54.277 E0.00982
G1 X54.830 Y54.850 E0.02166
G1 X54.547 Y55.390 E0.02166
G1 X54.212 Y55.858 E0.02044
G1 X53.792 Y56.301 E0.02166
G1 X53.315 Y56.681 E0.02166
G1 X52.820 Y56.974 E0.02044
G1 X52.257 Y57.210 E0.02166
G1 X51.679 Y57.363 E0.02125
G1 X51.074 Y57.437 E0.02166
G1 X50.797 Y57.442 E0.00982
G1 X50.178 Y57.388 E0.02206
G1 X49.907 Y57.336 E0.00982
G1 X49.312 Y57.156 E0.02206
G1 X48.789 Y56.915 E0.02044
G1 X48.276 Y56.587 E0.02166
G1 X47.812 Y56.190 E0.02166
G1 X47.622 Y55.990 E0.00982
G1 X47.243 Y55.497 E0.02206
G1 X46.958 Y54.997 E0.02044
G1 X46.728 Y54.420 E0.02206
G1 X46.652 Y54.154 E0.00982
G1 X46.548 Y53.553 E0.02166
G1 X46.526 Y52.944 E0.02166
G1 X46.546 Y52.668 E0.00982
G1 X46.652 Y52.056 E0.02206
G1 X46.728 Y51.790 E0.00982
G1 X46.954 Y51.224 E0.02166
G1 X47.256 Y50.694 E0.02166
G1 X47.423 Y50.460 E0.01023
G1 X47.607 Y50.237 E0.01023
G1 X48.050 Y49.802 E0.02206
G1 X48.266 Y49.630 E0.00982
G1 X48.779 Y49.301 E0.02166
G1 X49.328 Y49.048 E0.02145
G1 X49.699 Y48.929 E0.01382
G1 X50.199 Y48.819 E0.01818
G1 X50.475 Y48.785 E0.00990
G1 X51.085 Y48.774 E0.02166
G1 X51.690 Y48.848 E0.02166
G1 X52.247 Y48.995 E0.02044
G1 X52.809 Y49.231 E0.02166
G1 X53.324 Y49.536 E0.02125
G1 X53.801 Y49.916 E0.02166
G1 X53.998 Y50.110 E0.00982
G1 X54.394 Y50.589 E0.02206
G1 X54.547 Y50.820 E0.00982
G1 X54.830 Y51.359 E0.02166
G1 X55.037 Y51.933 E0.02166
G1 X55.103 Y52.202 E0.00982
G1 X55.180 Y52.758 E0.01993
G1 X55.603 Y52.699 F10800.000
G1 F900
G1 X55.625 Y53.105 E0.01444
G1 X55.614 Y53.430 E0.01154
G1 X55.523 Y54.089 E0.02363
G1 X55.446 Y54.400 E0.01139
G1 X55.222 Y55.023 E0.02349
G1 X54.915 Y55.609 E0.02349
G1 X54.537 Y56.136 E0.02306
G1 X54.081 Y56.616 E0.02349
G1 X53.564 Y57.029 E0.02349
G1 X53.005 Y57.360 E0.02306
G1 X52.395 Y57.615 E0.02349
G1 X51.760 Y57.784 E0.02335
G1 X51.103 Y57.864 E0.02349
G1 X50.782 Y57.869 E0.01139
G1 X50.119 Y57.812 E0.02363
G1 X49.804 Y57.751 E0.01139
G1 X49.167 Y57.559 E0.02364
G1 X48.577 Y57.287 E0.02306
G1 X48.020 Y56.930 E0.02349
G1 X47.518 Y56.500 E0.02349
G1 X47.297 Y56.268 E0.01139
G1 X46.891 Y55.740 E0.02363
G1 X46.570 Y55.176 E0.02306
G1 X46.323 Y54.558 E0.02363
G1 X46.235 Y54.249 E0.01139
G1 X46.122 Y53.598 E0.02349
G1 X46.099 Y52.936 E0.02349
G1 X46.121 Y52.616 E0.01139
G1 X46.235 Y51.961 E0.02363
G1 X46.323 Y51.652 E0.01139
G1 X46.568 Y51.038 E0.02349
G1 X46.895 Y50.463 E0.02349
