; generated by PrusaSlicer 2.0.0+win64 on 2020-12-03 at 15:31:25

; 

; external perimeters extrusion width = 0.45mm
; perimeters extrusion width = 0.45mm
; infill extrusion width = 0.45mm
; solid infill extrusion width = 0.45mm
; top infill extrusion width = 0.40mm
; first layer extrusion width = 0.47mm

M73 P0 R4
M73 Q0 S4
M201 X1000 Y1000 Z1000 E5000 ; sets maximum accelerations, mm/sec^2
M203 X200 Y200 Z12 E120 ; sets maximum feedrates, mm/sec
M204 P1250 R1250 T1250 ; sets acceleration (P, T) and retract acceleration (R), mm/sec^2
M205 X8.00 Y8.00 Z0.40 E1.50 ; sets the jerk limits, mm/sec
M205 S0 T0 ; sets the minimum extruding and travel feed rate, mm/sec
M107
G90 ; use absolute coordinates
M83 ; extruder relative mode
M104 S215 ; set extruder temp
M140 S60 ; set bed temp
M190 S60 ; wait for bed temp
M109 S215 ; wait for extruder temp
G28 W ; home all without mesh bed level
G80 ; mesh bed leveling
G1 Y-3.0 F1000.0 ; go outside print area
G92 E0.0
G1 X60.0 E9.0 F1000.0 ; intro line
M73 Q1 S4
M73 P1 R4
G1 X100.0 E12.5 F1000.0 ; intro line
G92 E0.0
M221 S95
M900 K30 ; Filament gcode
G21 ; set units to millimeters
G90 ; use absolute coordinates
M83 ; use relative distances for extrusion
;BEFORE_LAYER_CHANGE
G92 E0.0
;0.2


G1 E-0.80000 F2100.00000
G1 Z0.600 F10800.000
;AFTER_LAYER_CHANGE
;0.2
G1 X72.013 Y174.240
G1 Z0.200
G1 E0.80000 F2100.00000
M204 S1000
G1 F900
G1 X71.361 Y173.870 E0.02663
G1 X71.030 Y173.532 E0.01681
G1 X70.778 Y173.131 E0.01681
G1 X70.617 Y172.690 E0.01668
G1 X70.553 Y172.221 E0.01681
G1 X69.539 Y109.072 E2.24282
G1 X69.538 Y59.647 E1.75517
G1 X69.680 Y57.852 E0.06394
G1 X70.129 Y56.017 E0.06712
G1 X70.824 Y54.405 E0.06234
G1 X71.910 Y52.777 E0.06948
G1 X73.136 Y51.544 E0.06174
G1 X73.913 Y50.970 E0.03429
G1 X74.705 Y50.513 E0.03249
G1 X75.563 Y50.137 E0.03328
G1 X76.430 Y49.867 E0.03224
G1 X78.056 Y49.629 E0.05834
G1 X173.356 Y49.623 E3.38427
G1 X174.963 Y49.794 E0.05741
G1 X176.681 Y50.361 E0.06423
G1 X178.048 Y51.145 E0.05599
G1 X179.348 Y52.273 E0.06108
G1 X180.406 Y53.607 E0.06048
G1 X181.310 Y55.315 E0.06861
G1 X181.883 Y57.114 E0.06708
G1 X182.142 Y58.916 E0.06463
G1 X183.180 Y122.769 E2.26782
G1 X183.180 Y172.181 E1.75472
G1 X183.046 Y172.915 E0.02650
G1 X182.677 Y173.563 E0.02650
G1 X182.330 Y173.902 E0.01720
G1 X181.916 Y174.158 E0.01733
G1 X181.454 Y174.318 E0.01733
G1 X180.973 Y174.372 E0.01720
G1 X72.755 Y174.372 E3.84303
G1 X72.072 Y174.251 E0.02463
G1 F8640
G1 X71.361 Y173.870 E-0.18626
G1 X71.030 Y173.532 E-0.10928
G1 X70.778 Y173.131 E-0.10928
G1 X70.617 Y172.690 E-0.10843
G1 X70.553 Y172.221 E-0.10928
G1 X70.544 Y171.626 E-0.13748
G1 E-0.04000 F2100.00000
G1 Z0.800 F10800.000
G1 X73.131 Y171.794
G1 Z0.200
G1 E0.80000 F2100.00000
G1 F900
G1 X73.131 Y122.775 E1.74075
G1 X73.169 Y121.950 E0.02934
G1 X73.289 Y121.100 E0.03047
G1 X73.417 Y120.533 E0.02066
G1 X73.582 Y119.978 E0.02055
G1 X73.785 Y119.434 E0.02062
G1 X74.101 Y118.764 E0.02630
G1 X74.477 Y118.130 E0.02619
G1 X74.915 Y117.537 E0.02617
G1 X75.243 Y117.167 E0.01759
G1 X75.777 Y116.667 E0.02596
G1 X76.171 Y116.364 E0.01766
G1 X76.705 Y116.029 E0.02238
G1 X77.089 Y115.835 E0.01527
G1 X77.683 Y115.601 E0.02269
G1 X78.304 Y115.435 E0.02281
G1 X78.936 Y115.342 E0.02271
G1 X79.361 Y115.324 E0.01509
G1 X174.374 Y115.324 E3.37407
G1 X175.006 Y115.364 E0.02251
G1 X175.637 Y115.482 E0.02281
G1 X176.249 Y115.672 E0.02272
G1 X176.645 Y115.836 E0.01525
G1 X177.025 Y116.028 E0.01512
G1 X177.389 Y116.246 E0.01505
G1 X177.762 Y116.512 E0.01625
G1 X178.139 Y116.826 E0.01745
G1 X178.492 Y117.170 E0.01748
G1 X178.968 Y117.727 E0.02602
G1 X179.255 Y118.130 E0.01758
G1 X179.513 Y118.549 E0.01746
G1 X179.743 Y118.984 E0.01749
G1 X179.948 Y119.438 E0.01768
G1 X180.238 Y120.254 E0.03075
G1 X180.443 Y121.096 E0.03079
G1 X180.533 Y121.674 E0.02078
G1 X180.584 Y122.226 E0.01968
G1 X180.601 Y122.777 E0.01956
G1 X180.601 Y171.794 E1.74068
G1 X73.191 Y171.794 E3.81432
G1 X72.735 Y171.851 F10800.000
G1 X73.191 Y171.924
G1 F900
G1 X73.001 Y171.924 E0.00675
G1 X73.001 Y122.784 E1.74504
M73 Q26 S3
G1 X73.018 Y122.218 E0.02010
M73 P26 R3
G1 X73.070 Y121.659 E0.01995
G1 X73.161 Y121.076 E0.02096
G1 X73.370 Y120.217 E0.03136
G1 X73.666 Y119.384 E0.03143
G1 X73.872 Y118.927 E0.01779
G1 X74.106 Y118.484 E0.01778
G1 X74.369 Y118.059 E0.01775
G1 X74.659 Y117.652 E0.01775
G1 X75.149 Y117.077 E0.02682
G1 X75.506 Y116.730 E0.01767
G1 X75.891 Y116.409 E0.01782
G1 X76.272 Y116.139 E0.01657
G1 X76.642 Y115.917 E0.01532
G1 X77.031 Y115.720 E0.01548
G1 X77.434 Y115.553 E0.01549
G1 X78.066 Y115.357 E0.02349
G1 X78.713 Y115.236 E0.02337
G1 X79.374 Y115.194 E0.02352
G1 X174.509 Y115.197 E3.37843
G1 X175.018 Y115.236 E0.01813
G1 X175.669 Y115.358 E0.02350
G1 X176.087 Y115.479 E0.01546
G1 X176.703 Y115.721 E0.02352
G1 X177.088 Y115.916 E0.01532
G1 X177.639 Y116.260 E0.02307
G1 X178.035 Y116.565 E0.01775
G1 X178.586 Y117.081 E0.02678
G1 X178.914 Y117.452 E0.01761
G1 X179.365 Y118.061 E0.02688
G1 X179.625 Y118.483 E0.01762
G1 X179.966 Y119.154 E0.02674
G1 X180.274 Y119.939 E0.02995
G1 X180.441 Y120.500 E0.02078
G1 X180.571 Y121.074 E0.02088
G1 X180.662 Y121.659 E0.02103
G1 X180.714 Y122.218 E0.01995
G1 X180.731 Y122.784 E0.02010
G1 X180.731 Y171.924 E1.74504
G1 X73.251 Y171.924 E3.81681
G1 X73.074 Y171.774 F10800.000
G1 F8640
G1 X73.001 Y171.924 E-0.05773
G1 X73.001 Y168.882 E-0.70227
G1 E-0.04000 F2100.00000
G1 Z0.800 F10800.000
G1 X139.920 Y161.085
G1 Z0.200
G1 E0.80000 F2100.00000
G1 F900
G1 X139.859 Y160.696 E0.01397
G1 X139.868 Y160.294 E0.01429
G1 X139.964 Y159.901 E0.01435
G1 X140.125 Y159.543 E0.01397
G1 X140.364 Y159.217 E0.01434
G1 X140.653 Y158.950 E0.01397
G1 X140.998 Y158.740 E0.01434
G1 X141.369 Y158.607 E0.01397
G1 X141.768 Y158.546 E0.01434
G1 X142.161 Y158.568 E0.01397
G1 X142.554 Y158.664 E0.01437
G1 X142.914 Y158.842 E0.01427
G1 X143.231 Y159.075 E0.01397
G1 X143.497 Y159.379 E0.01434
G1 X143.697 Y159.717 E0.01397
G1 X143.827 Y160.100 E0.01434
G1 X143.880 Y160.490 E0.01397
G1 X143.854 Y160.881 E0.01392
G1 X143.787 Y161.163 E0.01028
G1 X143.639 Y161.514 E0.01355
G1 X143.414 Y161.850 E0.01434
G1 X143.131 Y162.123 E0.01397
G1 X142.797 Y162.347 E0.01431
G1 X142.420 Y162.493 E0.01433
G1 X142.034 Y162.567 E0.01397
G1 X141.630 Y162.559 E0.01434
G1 X141.246 Y162.476 E0.01397
G1 X140.876 Y162.313 E0.01434
G1 X140.554 Y162.087 E0.01397
G1 X140.275 Y161.795 E0.01434
G1 X140.067 Y161.461 E0.01397
G1 X139.942 Y161.141 E0.01221
G1 X140.340 Y160.986 F10800.000
G1 F900
G1 X140.287 Y160.667 E0.01147
G1 X140.293 Y160.350 E0.01127
G1 X140.369 Y160.041 E0.01129
G1 X140.496 Y159.759 E0.01099
G1 X140.684 Y159.503 E0.01129
G1 X140.911 Y159.293 E0.01099
G1 X141.183 Y159.128 E0.01129
G1 X141.474 Y159.023 E0.01099
G1 X141.789 Y158.975 E0.01129
G1 X142.098 Y158.992 E0.01099
G1 X142.407 Y159.067 E0.01130
G1 X142.691 Y159.208 E0.01126
G1 X142.940 Y159.391 E0.01098
G1 X143.150 Y159.630 E0.01129
G1 X143.307 Y159.897 E0.01099
G1 X143.409 Y160.198 E0.01129
G1 X143.451 Y160.504 E0.01099
G1 X143.430 Y160.817 E0.01114
G1 X143.380 Y161.029 E0.00773
G1 X143.261 Y161.310 E0.01084
G1 X143.084 Y161.575 E0.01129
G1 X142.862 Y161.790 E0.01098
G1 X142.598 Y161.966 E0.01128
G1 X142.302 Y162.081 E0.01129
G1 X141.998 Y162.139 E0.01098
G1 X141.680 Y162.132 E0.01129
G1 X141.378 Y162.067 E0.01099
G1 X141.087 Y161.939 E0.01129
G1 X140.834 Y161.761 E0.01099
G1 X140.614 Y161.532 E0.01129
G1 X140.450 Y161.269 E0.01099
G1 X140.362 Y161.042 E0.00866
G1 X140.028 Y160.903 F10800.000
G1 F8640
G1 X140.287 Y160.667 E-0.08818
G1 X140.293 Y160.350 E-0.07327
G1 X140.369 Y160.041 E-0.07344
G1 X140.496 Y159.759 E-0.07143
G1 X140.684 Y159.503 E-0.07342
G1 X140.911 Y159.293 E-0.07144
G1 X141.183 Y159.128 E-0.07342
G1 X141.474 Y159.023 E-0.07144
G1 X141.789 Y158.975 E-0.07342
G1 X142.098 Y158.992 E-0.07143
G1 X142.178 Y159.011 E-0.01911
G1 E-0.04000 F2100.00000
G1 Z0.800 F10800.000
G1 X137.690 Y161.730
G1 Z0.200
G1 E0.80000 F2100.00000
G1 F900
G1 X137.624 Y161.462 E0.00982
G1 X137.540 Y160.858 E0.02166
G1 X137.540 Y160.260 E0.02125
G1 X137.624 Y159.656 E0.02166
G1 X137.690 Y159.387 E0.00982
G1 X137.900 Y158.802 E0.02206
G1 X138.020 Y158.553 E0.00982
G1 X138.346 Y158.024 E0.02206
G1 X138.515 Y157.805 E0.00982
G1 X138.935 Y157.363 E0.02166
G1 X139.412 Y156.983 E0.02166
G1 X139.654 Y156.828 E0.01023
G1 X139.907 Y156.689 E0.01023
G1 X140.469 Y156.454 E0.02166
G1 X141.059 Y156.297 E0.02166
G1 X141.636 Y156.228 E0.02064
G1 X142.036 Y156.228 E0.01422
G1 X142.546 Y156.275 E0.01818
G1 X142.826 Y156.329 E0.01010
G1 X143.211 Y156.438 E0.01422
G1 X143.689 Y156.623 E0.01818
G1 X143.938 Y156.748 E0.00990
G1 X144.461 Y157.083 E0.02206
G1 X144.677 Y157.256 E0.00982
G1 X145.112 Y157.683 E0.02166
G1 X145.484 Y158.167 E0.02166
G1 X145.629 Y158.402 E0.00982
G1 X145.894 Y158.951 E0.02166
G1 X146.080 Y159.532 E0.02166
G1 X146.179 Y160.099 E0.02044
G1 X146.200 Y160.720 E0.02206
G1 X146.181 Y160.996 E0.00982
G1 X146.076 Y161.597 E0.02166
G1 X145.894 Y162.166 E0.02125
G1 X145.629 Y162.716 E0.02166
G1 X145.484 Y162.951 E0.00982
G1 X145.105 Y163.443 E0.02206
G1 X144.914 Y163.644 E0.00982
G1 X144.442 Y164.048 E0.02206
G1 X143.958 Y164.358 E0.02044
G1 X143.404 Y164.613 E0.02166
G1 X142.820 Y164.790 E0.02166
G1 X142.548 Y164.842 E0.00982
G1 X141.930 Y164.895 E0.02206
G1 X141.653 Y164.891 E0.00982
G1 X141.036 Y164.816 E0.02206
G1 X140.480 Y164.668 E0.02044
G1 X139.917 Y164.433 E0.02166
G1 X139.393 Y164.122 E0.02166
G1 X139.162 Y163.950 E0.01023
G1 X138.943 Y163.763 E0.01023
G1 X138.515 Y163.312 E0.02206
G1 X138.346 Y163.093 E0.00982
G1 X138.020 Y162.564 E0.02206
G1 X137.900 Y162.315 E0.00982
G1 X137.711 Y161.787 E0.01993
G1 X137.309 Y161.931 F10800.000
G1 F900
G1 X137.204 Y161.543 E0.01430
G1 X137.113 Y160.887 E0.02349
G1 X137.113 Y160.230 E0.02335
G1 X137.204 Y159.575 E0.02349
G1 X137.281 Y159.263 E0.01139
G1 X137.506 Y158.637 E0.02363
G1 X137.645 Y158.348 E0.01139
G1 X137.994 Y157.782 E0.02363
G1 X138.190 Y157.527 E0.01139
G1 X138.646 Y157.048 E0.02349
G1 X139.163 Y156.635 E0.02349
G1 X139.436 Y156.460 E0.01154
G1 X139.721 Y156.304 E0.01154
G1 X140.331 Y156.048 E0.02349
G1 X140.971 Y155.879 E0.02349
G1 X141.292 Y155.829 E0.01154
G1 X141.617 Y155.800 E0.01161
G1 X142.056 Y155.800 E0.01559
G1 X142.607 Y155.852 E0.01962
G1 X142.924 Y155.913 E0.01149
G1 X143.347 Y156.033 E0.01559
G1 X143.862 Y156.232 E0.01962
G1 X144.149 Y156.377 E0.01142
G1 X144.710 Y156.736 E0.02363
G1 X144.961 Y156.936 E0.01139
G1 X145.432 Y157.399 E0.02349
G1 X145.836 Y157.924 E0.02349
G1 X146.004 Y158.197 E0.01139
G1 X146.291 Y158.793 E0.02349
G1 X146.493 Y159.422 E0.02349
G1 X146.605 Y160.062 E0.02306
G1 X146.628 Y160.727 E0.02364
G1 X146.606 Y161.047 E0.01139
G1 X146.492 Y161.699 E0.02349
G1 X146.291 Y162.325 E0.02335
G1 X146.004 Y162.921 E0.02349
G1 X145.836 Y163.194 E0.01139
G1 X145.430 Y163.721 E0.02363
G1 X145.209 Y163.954 E0.01139
G1 X144.703 Y164.387 E0.02364
G1 X144.156 Y164.737 E0.02306
G1 X143.556 Y165.014 E0.02349
G1 X142.922 Y165.205 E0.02349
G1 X142.607 Y165.266 E0.01139
G1 X141.944 Y165.323 E0.02363
G1 X141.624 Y165.317 E0.01139
G1 X140.963 Y165.237 E0.02363
G1 X140.335 Y165.071 E0.02306
G1 X139.725 Y164.815 E0.02349
G1 X139.156 Y164.478 E0.02349
G1 X138.895 Y164.284 E0.01154
G1 X138.648 Y164.073 E0.01154
G1 X138.190 Y163.590 E0.02363
G1 X137.994 Y163.336 E0.01139
G1 X137.645 Y162.769 E0.02363
G1 X137.506 Y162.480 E0.01139
G1 X137.329 Y161.988 E0.01859
G1 X137.580 Y161.637 F10800.000
G1 F8640
G1 X137.204 Y161.543 E-0.10677
G1 X137.113 Y160.887 E-0.15274
G1 X137.113 Y160.230 E-0.15180
G1 X137.204 Y159.575 E-0.15274
G1 X137.281 Y159.263 E-0.07407
G1 X137.459 Y158.767 E-0.12188
G1 E-0.04000 F2100.00000
G1 Z0.800 F10800.000
G1 X113.880 Y160.490
G1 Z0.200
G1 E0.80000 F2100.00000
G1 F900
G1 X113.854 Y160.881 E0.01392
G1 X113.787 Y161.163 E0.01028
G1 X113.639 Y161.514 E0.01355
G1 X113.414 Y161.850 E0.01434
G1 X113.131 Y162.123 E0.01397
G1 X112.797 Y162.347 E0.01431
G1 X112.420 Y162.493 E0.01433
G1 X112.034 Y162.567 E0.01397
G1 X111.630 Y162.559 E0.01434
G1 X111.245 Y162.476 E0.01397
G1 X110.876 Y162.313 E0.01434
G1 X110.554 Y162.087 E0.01397
G1 X110.275 Y161.795 E0.01434
G1 X110.067 Y161.461 E0.01397
G1 X109.920 Y161.085 E0.01434
G1 X109.859 Y160.696 E0.01397
G1 X109.868 Y160.294 E0.01429
G1 X109.964 Y159.901 E0.01435
G1 X110.125 Y159.543 E0.01397
G1 X110.364 Y159.217 E0.01434
G1 X110.653 Y158.950 E0.01397
G1 X110.998 Y158.740 E0.01434
G1 X111.369 Y158.607 E0.01397
G1 X111.768 Y158.546 E0.01434
G1 X112.161 Y158.568 E0.01397
G1 X112.554 Y158.664 E0.01437
G1 X112.914 Y158.842 E0.01427
G1 X113.231 Y159.075 E0.01397
G1 X113.497 Y159.379 E0.01434
G1 X113.697 Y159.717 E0.01397
G1 X113.827 Y160.100 E0.01434
G1 X113.872 Y160.430 E0.01184
G1 X113.448 Y160.487 F10800.000
G1 F900
G1 X113.430 Y160.817 E0.01175
G1 X113.380 Y161.029 E0.00773
G1 X113.261 Y161.310 E0.01084
G1 X113.084 Y161.575 E0.01129
G1 X112.862 Y161.790 E0.01098
G1 X112.598 Y161.966 E0.01128
G1 X112.302 Y162.081 E0.01129
G1 X111.998 Y162.139 E0.01098
G1 X111.680 Y162.132 E0.01129
G1 X111.378 Y162.067 E0.01099
G1 X111.087 Y161.939 E0.01129
G1 X110.834 Y161.761 E0.01099
G1 X110.614 Y161.532 E0.01129
G1 X110.450 Y161.269 E0.01099
G1 X110.335 Y160.973 E0.01129
G1 X110.287 Y160.667 E0.01098
G1 X110.293 Y160.350 E0.01127
G1 X110.369 Y160.041 E0.01129
G1 X110.496 Y159.759 E0.01099
G1 X110.684 Y159.503 E0.01129
G1 X110.911 Y159.293 E0.01099
G1 X111.183 Y159.128 E0.01129
G1 X111.474 Y159.023 E0.01099
G1 X111.789 Y158.975 E0.01129
G1 X112.098 Y158.992 E0.01099
G1 X112.407 Y159.067 E0.01130
G1 X112.691 Y159.208 E0.01126
G1 X112.940 Y159.391 E0.01098
G1 X113.150 Y159.630 E0.01129
G1 X113.307 Y159.897 E0.01099
G1 X113.409 Y160.198 E0.01129
G1 X113.440 Y160.428 E0.00824
G1 X113.741 Y160.640 F10800.000
G1 F8640
G1 X113.430 Y160.817 E-0.09003
G1 X113.380 Y161.029 E-0.05026
G1 X113.261 Y161.310 E-0.07046
G1 X113.084 Y161.575 E-0.07342
G1 X112.862 Y161.790 E-0.07142
G1 X112.598 Y161.966 E-0.07333
G1 X112.302 Y162.081 E-0.07338
G1 X111.998 Y162.139 E-0.07142
G1 X111.680 Y162.132 E-0.07342
G1 X111.378 Y162.067 E-0.07144
G1 X111.214 Y161.995 E-0.04142
G1 E-0.04000 F2100.00000
G1 Z0.800 F10800.000
G1 X116.194 Y160.271
G1 Z0.200
G1 E0.80000 F2100.00000
G1 F900
G1 X116.194 Y160.847 E0.02044
G1 X116.108 Y161.462 E0.02206
G1 X116.042 Y161.730 E0.00982
G1 X115.836 Y162.304 E0.02166
G1 X115.552 Y162.844 E0.02166
G1 X115.217 Y163.312 E0.02044
G1 X114.797 Y163.754 E0.02166
G1 X114.320 Y164.135 E0.02166
G1 X113.825 Y164.428 E0.02044
G1 X113.263 Y164.664 E0.02166
G1 X112.685 Y164.817 E0.02125
G1 X112.079 Y164.891 E0.02166
G1 X111.803 Y164.895 E0.00982
G1 X111.184 Y164.842 E0.02206
G1 X110.912 Y164.790 E0.00982
G1 X110.317 Y164.610 E0.02206
G1 X109.795 Y164.369 E0.02044
G1 X109.281 Y164.040 E0.02166
G1 X108.818 Y163.644 E0.02166
G1 X108.627 Y163.443 E0.00982
G1 X108.248 Y162.951 E0.02206
G1 X107.963 Y162.451 E0.02044
G1 X107.733 Y161.874 E0.02206
G1 X107.658 Y161.608 E0.00982
G1 X107.553 Y161.007 E0.02166
G1 X107.532 Y160.398 E0.02166
G1 X107.551 Y160.122 E0.00982
G1 X107.658 Y159.510 E0.02206
G1 X107.733 Y159.244 E0.00982
G1 X107.959 Y158.677 E0.02166
G1 X108.261 Y158.147 E0.02166
G1 X108.429 Y157.913 E0.01023
G1 X108.612 Y157.691 E0.01023
G1 X109.055 Y157.256 E0.02206
G1 X109.271 Y157.083 E0.00982
G1 X109.785 Y156.755 E0.02166
G1 X110.334 Y156.502 E0.02145
G1 X110.704 Y156.383 E0.01382
G1 X111.204 Y156.272 E0.01818
G1 X111.481 Y156.239 E0.00990
G1 X112.091 Y156.228 E0.02166
G1 X112.696 Y156.302 E0.02166
G1 X113.252 Y156.449 E0.02044
G1 X113.815 Y156.685 E0.02166
G1 X114.329 Y156.990 E0.02125
G1 X114.806 Y157.370 E0.02166
G1 X115.003 Y157.564 E0.00982
G1 X115.399 Y158.043 E0.02206
G1 X115.552 Y158.273 E0.00982
G1 X115.836 Y158.813 E0.02166
G1 X116.042 Y159.387 E0.02166
G1 X116.108 Y159.656 E0.00982
G1 X116.185 Y160.212 E0.01993
G1 X116.608 Y160.153 F10800.000
G1 F900
G1 X116.631 Y160.559 E0.01444
G1 X116.620 Y160.883 E0.01154
G1 X116.528 Y161.543 E0.02363
G1 X116.451 Y161.854 E0.01139
G1 X116.228 Y162.477 E0.02349
G1 X115.920 Y163.062 E0.02349
G1 X115.542 Y163.590 E0.02306
G1 X115.087 Y164.070 E0.02349
