; generated by PrusaSlicer 2.0.0+win64 on 2020-12-03 at 14:18:14

; 

; external perimeters extrusion width = 0.60mm
; perimeters extrusion width = 0.50mm
; infill extrusion width = 0.50mm
; solid infill extrusion width = 0.50mm
; top infill extrusion width = 0.45mm
; first layer extrusion width = 0.42mm

M73 P0 R231
M73 Q0 S233
M201 X1000 Y1000 Z1000 E5000 ; sets maximum accelerations, mm/sec^2
M203 X200 Y200 Z12 E120 ; sets maximum feedrates, mm/sec
M204 P1250 R1250 T1250 ; sets acceleration (P, T) and retract acceleration (R), mm/sec^2
M205 X8.00 Y8.00 Z0.40 E1.50 ; sets the jerk limits, mm/sec
M205 S0 T0 ; sets the minimum extruding and travel feed rate, mm/sec
M107
G90 ; use absolute coordinates
M83 ; extruder relative mode
M104 S215 ; set extruder temp
M140 S60 ; set bed temp
M190 S60 ; wait for bed temp
M109 S215 ; wait for extruder temp
G28 W ; home all without mesh bed level
G80 ; mesh bed leveling
G1 Y-3.0 F1000.0 ; go outside print area
G92 E0.0
G1 X60.0 E9.0 F1000.0 ; intro line
M73 Q0 S233
M73 P0 R231
G1 X100.0 E12.5 F1000.0 ; intro line
G92 E0.0
M221 S95
M900 K30 ; Filament gcode
G21 ; set units to millimeters
G90 ; use absolute coordinates
M83 ; use relative distances for extrusion
;BEFORE_LAYER_CHANGE
G92 E0.0
;0.2


G1 E-0.80000 F2100.00000
G1 Z0.600 F10800.000
;AFTER_LAYER_CHANGE
;0.2
G1 X82.650 Y23.711
G1 Z0.200
G1 E0.80000 F2100.00000
M204 S1000
G1 F1200
G1 X83.908 Y23.580 E0.03965
G1 X178.924 Y23.580 E2.97916
G1 X180.191 Y23.712 E0.03995
G1 X181.342 Y24.075 E0.03782
G1 X182.104 Y24.463 E0.02682
G1 X183.106 Y25.210 E0.03919
G1 X244.224 Y84.764 E2.67562
G1 X244.681 Y85.237 E0.02062
G1 X245.309 Y86.102 E0.03352
G1 X245.865 Y87.298 E0.04135
G1 X246.078 Y88.097 E0.02591
G1 X246.196 Y89.275 E0.03714
G1 X246.196 Y134.306 E1.41190
G1 X245.194 Y194.668 E1.89288
G1 X245.061 Y195.903 E0.03893
G1 X244.700 Y197.043 E0.03748
G1 X244.316 Y197.799 E0.02659
G1 X243.601 Y198.770 E0.03782
G1 X242.641 Y199.632 E0.04045
G1 X241.521 Y200.279 E0.04057
G1 X240.294 Y200.677 E0.04045
G1 X239.006 Y200.813 E0.04061
G1 X144.001 Y200.813 E2.97881
G1 X24.128 Y200.542 E3.75853
G1 X22.877 Y200.410 E0.03946
G1 X21.733 Y200.049 E0.03760
G1 X20.973 Y199.664 E0.02671
G1 X20.002 Y198.948 E0.03782
G1 X19.142 Y197.992 E0.04034
G1 X18.495 Y196.872 E0.04057
G1 X18.095 Y195.641 E0.04057
G1 X17.959 Y194.362 E0.04034
G1 X17.943 Y89.060 E3.30167
G1 X18.075 Y87.818 E0.03916
G1 X18.436 Y86.675 E0.03760
G1 X18.820 Y85.918 E0.02659
G1 X19.536 Y84.947 E0.03783
G1 X79.710 Y25.234 E2.65802
G1 X80.732 Y24.467 E0.04006
G1 X81.507 Y24.072 E0.02728
G1 X82.593 Y23.729 E0.03571
G1 F8640
G1 X83.908 Y23.580 E-0.30560
G1 X85.876 Y23.580 E-0.45440
G1 E-0.04000 F2100.00000
G1 Z0.800 F10800.000
G1 X95.563 Y34.398
G1 Z0.200
G1 E0.80000 F2100.00000
G1 F1200
G1 X96.063 Y33.844 E0.02339
G1 X96.599 Y33.326 E0.02339
G1 X97.171 Y32.846 E0.02339
G1 X97.774 Y32.408 E0.02339
G1 X98.407 Y32.013 E0.02339
G1 X99.065 Y31.662 E0.02339
G1 X99.747 Y31.359 E0.02339
G1 X100.448 Y31.104 E0.02339
G1 X101.165 Y30.898 E0.02339
G1 X101.895 Y30.743 E0.02339
G1 X102.633 Y30.639 E0.02339
G1 X103.377 Y30.587 E0.02339
G1 X104.123 Y30.587 E0.02339
G1 X104.868 Y30.639 E0.02339
G1 X105.606 Y30.743 E0.02339
G1 X106.336 Y30.898 E0.02339
G1 X107.053 Y31.104 E0.02339
G1 X107.754 Y31.359 E0.02339
G1 X108.435 Y31.662 E0.02339
G1 X109.094 Y32.013 E0.02339
G1 X109.727 Y32.408 E0.02339
G1 X110.330 Y32.846 E0.02339
G1 X110.902 Y33.326 E0.02339
G1 X111.438 Y33.844 E0.02339
G1 X111.937 Y34.398 E0.02339
G1 X112.397 Y34.986 E0.02339
G1 X112.814 Y35.605 E0.02339
G1 X113.002 Y35.931 E0.01181
G1 X113.187 Y36.251 E0.01158
G1 X113.514 Y36.921 E0.02339
G1 X113.793 Y37.613 E0.02339
G1 X114.024 Y38.322 E0.02339
G1 X114.204 Y39.046 E0.02339
G1 X114.334 Y39.781 E0.02339
G1 X114.412 Y40.523 E0.02339
G1 X114.438 Y41.258 E0.02307
G1 X114.438 Y51.278 E0.31419
G1 X114.412 Y52.014 E0.02307
G1 X114.334 Y52.756 E0.02339
G1 X114.204 Y53.490 E0.02339
G1 X114.024 Y54.214 E0.02339
G1 X113.793 Y54.923 E0.02339
G1 X113.514 Y55.615 E0.02339
G1 X113.187 Y56.286 E0.02339
G1 X112.814 Y56.932 E0.02339
G1 X112.397 Y57.550 E0.02339
G1 X111.938 Y58.138 E0.02339
G1 X111.438 Y58.692 E0.02339
G1 X110.902 Y59.210 E0.02339
G1 X110.330 Y59.690 E0.02339
G1 X109.727 Y60.128 E0.02339
G1 X109.094 Y60.524 E0.02339
G1 X108.436 Y60.874 E0.02339
G1 X107.754 Y61.177 E0.02339
G1 X107.053 Y61.433 E0.02339
G1 X106.336 Y61.638 E0.02339
G1 X105.606 Y61.793 E0.02339
G1 X104.868 Y61.897 E0.02339
G1 X104.123 Y61.949 E0.02339
G1 X103.377 Y61.949 E0.02339
G1 X102.633 Y61.897 E0.02339
G1 X101.895 Y61.793 E0.02339
G1 X101.165 Y61.638 E0.02339
G1 X100.448 Y61.433 E0.02339
G1 X99.747 Y61.177 E0.02339
G1 X99.065 Y60.874 E0.02339
G1 X98.407 Y60.524 E0.02339
G1 X97.774 Y60.128 E0.02339
G1 X97.171 Y59.690 E0.02339
G1 X96.599 Y59.210 E0.02339
G1 X96.062 Y58.692 E0.02339
G1 X95.563 Y58.138 E0.02339
G1 X95.104 Y57.550 E0.02339
G1 X94.687 Y56.932 E0.02339
G1 X94.314 Y56.286 E0.02339
G1 X93.987 Y55.615 E0.02339
G1 X93.707 Y54.923 E0.02339
G1 X93.477 Y54.214 E0.02339
G1 X93.296 Y53.490 E0.02339
G1 X93.167 Y52.756 E0.02339
G1 X93.089 Y52.014 E0.02339
G1 X93.063 Y51.278 E0.02307
G1 X93.063 Y41.258 E0.31419
G1 X93.089 Y40.523 E0.02307
G1 X93.167 Y39.781 E0.02339
G1 X93.297 Y39.046 E0.02339
G1 X93.477 Y38.322 E0.02339
G1 X93.707 Y37.613 E0.02339
G1 X93.987 Y36.921 E0.02339
G1 X94.314 Y36.251 E0.02339
G1 X94.687 Y35.605 E0.02339
G1 X95.104 Y34.986 E0.02339
G1 X95.526 Y34.446 E0.02151
G1 X95.824 Y34.678 F10800.000
G1 F1200
G1 X96.334 Y34.106 E0.02403
G1 X96.852 Y33.606 E0.02256
G1 X97.403 Y33.144 E0.02256
G1 X97.985 Y32.721 E0.02256
G1 X98.595 Y32.339 E0.02256
G1 X99.231 Y32.001 E0.02256
G1 X99.888 Y31.709 E0.02256
G1 X100.564 Y31.463 E0.02256
G1 X101.256 Y31.264 E0.02256
G1 X101.960 Y31.115 E0.02256
G1 X102.673 Y31.014 E0.02256
G1 X103.391 Y30.964 E0.02256
G1 X104.110 Y30.964 E0.02256
G1 X104.828 Y31.014 E0.02256
G1 X105.541 Y31.115 E0.02256
G1 X106.245 Y31.264 E0.02256
G1 X106.936 Y31.463 E0.02256
G1 X107.613 Y31.709 E0.02256
G1 X108.270 Y32.001 E0.02256
G1 X108.905 Y32.339 E0.02256
G1 X109.516 Y32.721 E0.02256
G1 X110.098 Y33.144 E0.02256
G1 X110.649 Y33.606 E0.02256
G1 X111.167 Y34.106 E0.02256
G1 X111.648 Y34.641 E0.02256
G1 X112.092 Y35.208 E0.02256
G1 X112.494 Y35.805 E0.02256
G1 X112.676 Y36.119 E0.01139
G1 X112.854 Y36.428 E0.01117
G1 X113.169 Y37.075 E0.02256
G1 X113.439 Y37.742 E0.02256
G1 X113.661 Y38.426 E0.02256
G1 X113.835 Y39.125 E0.02256
G1 X113.960 Y39.833 E0.02256
G1 X114.035 Y40.549 E0.02256
G1 X114.060 Y41.264 E0.02245
G1 X114.060 Y51.272 E0.31377
G1 X114.036 Y51.987 E0.02245
G1 X113.960 Y52.703 E0.02256
G1 X113.835 Y53.412 E0.02256
G1 X113.661 Y54.110 E0.02256
G1 X113.439 Y54.794 E0.02256
G1 X113.169 Y55.462 E0.02256
G1 X112.854 Y56.108 E0.02256
G1 X112.494 Y56.732 E0.02256
G1 X112.092 Y57.328 E0.02256
G1 X111.649 Y57.895 E0.02256
G1 X111.167 Y58.430 E0.02256
G1 X110.649 Y58.930 E0.02256
G1 X110.098 Y59.393 E0.02256
G1 X109.516 Y59.816 E0.02256
G1 X108.906 Y60.197 E0.02256
G1 X108.270 Y60.535 E0.02256
G1 X107.613 Y60.828 E0.02256
G1 X106.936 Y61.074 E0.02256
G1 X106.245 Y61.272 E0.02256
G1 X105.541 Y61.422 E0.02256
G1 X104.828 Y61.522 E0.02256
G1 X104.110 Y61.572 E0.02256
G1 X103.391 Y61.572 E0.02256
G1 X102.673 Y61.522 E0.02256
G1 X101.960 Y61.422 E0.02256
G1 X101.256 Y61.272 E0.02256
G1 X100.564 Y61.074 E0.02256
G1 X99.888 Y60.828 E0.02256
G1 X99.231 Y60.535 E0.02256
G1 X98.595 Y60.197 E0.02256
G1 X97.985 Y59.816 E0.02256
G1 X97.403 Y59.393 E0.02256
G1 X96.852 Y58.930 E0.02256
G1 X96.334 Y58.430 E0.02256
G1 X95.852 Y57.895 E0.02256
G1 X95.409 Y57.328 E0.02256
G1 X95.007 Y56.732 E0.02256
G1 X94.825 Y56.417 E0.01140
G1 X94.647 Y56.108 E0.01116
G1 X94.332 Y55.462 E0.02256
G1 X94.062 Y54.794 E0.02256
G1 X93.840 Y54.110 E0.02256
G1 X93.666 Y53.412 E0.02256
G1 X93.541 Y52.703 E0.02256
G1 X93.465 Y51.987 E0.02256
G1 X93.440 Y51.272 E0.02245
G1 X93.440 Y41.264 E0.31377
G1 X93.465 Y40.549 E0.02245
G1 X93.541 Y39.833 E0.02256
G1 X93.666 Y39.125 E0.02256
G1 X93.840 Y38.426 E0.02256
G1 X94.062 Y37.742 E0.02256
G1 X94.332 Y37.075 E0.02256
G1 X94.647 Y36.428 E0.02256
G1 X95.007 Y35.805 E0.02256
G1 X95.409 Y35.208 E0.02256
G1 X95.787 Y34.725 E0.01921
G1 X95.686 Y34.302 F10800.000
G1 F8640
G1 X96.334 Y34.106 E-0.19078
G1 X96.852 Y33.606 E-0.16617
G1 X97.403 Y33.144 E-0.16617
G1 X97.985 Y32.721 E-0.16617
G1 X98.245 Y32.558 E-0.07072
G1 E-0.04000 F2100.00000
G1 Z0.800 F10800.000
G1 X86.384 Y30.830
G1 Z0.200
G1 E0.80000 F2100.00000
G1 F1200
G1 X86.329 Y30.963 E0.00451
G1 X86.120 Y31.314 E0.01281
G1 X85.858 Y31.632 E0.01290
G1 X85.551 Y31.905 E0.01290
G1 X85.212 Y32.125 E0.01265
G1 X84.822 Y32.300 E0.01341
G1 X84.434 Y32.406 E0.01263
G1 X84.014 Y32.455 E0.01324
G1 X83.418 Y32.409 E0.01874
G1 X83.010 Y32.297 E0.01326
G1 X82.642 Y32.132 E0.01267
G1 X82.285 Y31.901 E0.01334
G1 X81.983 Y31.632 E0.01268
G1 X81.721 Y31.314 E0.01290
G1 X81.512 Y30.963 E0.01281
G1 X81.356 Y30.576 E0.01307
G1 X81.263 Y30.178 E0.01282
G1 X81.232 Y29.768 E0.01290
G1 X81.263 Y29.358 E0.01290
G1 X81.356 Y28.960 E0.01282
G1 X81.512 Y28.573 E0.01307
G1 X81.721 Y28.222 E0.01281
G1 X81.983 Y27.905 E0.01290
G1 X82.290 Y27.631 E0.01290
G1 X82.628 Y27.412 E0.01265
G1 X83.019 Y27.237 E0.01341
G1 X83.407 Y27.130 E0.01263
G1 X83.827 Y27.082 E0.01324
G1 X84.423 Y27.127 E0.01874
G1 X84.830 Y27.239 E0.01326
G1 X85.199 Y27.404 E0.01267
G1 X85.556 Y27.635 E0.01334
G1 X85.858 Y27.905 E0.01268
G1 X86.120 Y28.222 E0.01290
G1 X86.329 Y28.573 E0.01281
G1 X86.485 Y28.960 E0.01307
G1 X86.578 Y29.358 E0.01282
G1 X86.609 Y29.768 E0.01290
G1 X86.578 Y30.178 E0.01290
G1 X86.485 Y30.576 E0.01282
G1 X86.407 Y30.775 E0.00668
G1 X86.057 Y30.633 F10800.000
G1 F1200
G1 X85.991 Y30.794 E0.00545
G1 X85.811 Y31.097 E0.01105
G1 X85.586 Y31.369 E0.01108
G1 X85.322 Y31.605 E0.01108
G1 X85.027 Y31.795 E0.01099
G1 X84.862 Y31.875 E0.00576
G1 X84.700 Y31.942 E0.00551
G1 X84.362 Y32.035 E0.01099
G1 X84.007 Y32.076 E0.01120
G1 X83.483 Y32.036 E0.01647
G1 X83.138 Y31.941 E0.01121
G1 X82.818 Y31.798 E0.01100
G1 X82.517 Y31.603 E0.01124
G1 X82.255 Y31.369 E0.01101
G1 X82.030 Y31.097 E0.01108
G1 X81.850 Y30.794 E0.01105
G1 X81.717 Y30.464 E0.01115
G1 X81.637 Y30.121 E0.01106
G1 X81.610 Y29.768 E0.01109
G1 X81.637 Y29.416 E0.01109
G1 X81.717 Y29.072 E0.01106
G1 X81.850 Y28.743 E0.01115
G1 X82.030 Y28.440 E0.01105
G1 X82.255 Y28.167 E0.01108
G1 X82.519 Y27.932 E0.01108
G1 X82.813 Y27.741 E0.01099
G1 X83.141 Y27.594 E0.01127
G1 X83.479 Y27.501 E0.01099
G1 X83.834 Y27.460 E0.01120
G1 X84.358 Y27.500 E0.01647
G1 X84.702 Y27.595 E0.01121
G1 X85.023 Y27.738 E0.01100
G1 X85.324 Y27.933 E0.01124
G1 X85.586 Y28.167 E0.01101
G1 X85.811 Y28.440 E0.01108
G1 X85.991 Y28.743 E0.01105
G1 X86.124 Y29.072 E0.01115
G1 X86.204 Y29.416 E0.01106
G1 X86.231 Y29.768 E0.01109
G1 X86.204 Y30.121 E0.01109
G1 X86.124 Y30.464 E0.01106
G1 X86.079 Y30.577 E0.00381
G1 X86.168 Y30.767 F10800.000
G1 F8640
G1 X85.991 Y30.794 E-0.05402
G1 X85.811 Y31.097 E-0.08140
G1 X85.586 Y31.369 E-0.08163
G1 X85.322 Y31.605 E-0.08162
G1 X85.027 Y31.795 E-0.08095
G1 X84.862 Y31.875 E-0.04238
G1 X84.700 Y31.942 E-0.04061
G1 X84.362 Y32.035 E-0.08090
G1 X84.007 Y32.076 E-0.08251
G1 X83.483 Y32.036 E-0.12127
G1 X83.430 Y32.022 E-0.01269
G1 E-0.04000 F2100.00000
G1 Z0.800 F10800.000
G1 X148.507 Y39.781
G1 Z0.200
G1 E0.80000 F2100.00000
G1 F1200
G1 X148.636 Y39.046 E0.02339
G1 X148.817 Y38.322 E0.02339
G1 X149.047 Y37.613 E0.02339
G1 X149.327 Y36.921 E0.02339
G1 X149.654 Y36.251 E0.02339
G1 X150.027 Y35.605 E0.02339
G1 X150.444 Y34.986 E0.02339
G1 X150.903 Y34.398 E0.02339
G1 X151.402 Y33.844 E0.02339
G1 X151.939 Y33.326 E0.02339
G1 X152.511 Y32.846 E0.02339
G1 X153.114 Y32.408 E0.02339
G1 X153.747 Y32.013 E0.02339
G1 X154.405 Y31.662 E0.02339
G1 X155.087 Y31.359 E0.02339
G1 X155.788 Y31.104 E0.02339
G1 X156.505 Y30.898 E0.02339
G1 X157.235 Y30.743 E0.02339
G1 X157.973 Y30.639 E0.02339
G1 X158.717 Y30.587 E0.02339
G1 X159.463 Y30.587 E0.02339
G1 X160.208 Y30.639 E0.02339
G1 X160.946 Y30.743 E0.02339
G1 X161.676 Y30.898 E0.02339
G1 X162.393 Y31.104 E0.02339
G1 X163.094 Y31.359 E0.02339
G1 X163.775 Y31.662 E0.02339
G1 X164.434 Y32.013 E0.02339
G1 X165.067 Y32.408 E0.02339
G1 X165.670 Y32.846 E0.02339
G1 X166.242 Y33.326 E0.02339
G1 X166.778 Y33.844 E0.02339
G1 X167.277 Y34.398 E0.02339
G1 X167.737 Y34.986 E0.02339
G1 X168.154 Y35.605 E0.02339
G1 X168.527 Y36.251 E0.02339
G1 X168.854 Y36.921 E0.02339
G1 X169.133 Y37.613 E0.02339
G1 X169.364 Y38.322 E0.02339
G1 X169.544 Y39.046 E0.02339
G1 X169.674 Y39.781 E0.02339
G1 X169.752 Y40.523 E0.02339
G1 X169.777 Y41.258 E0.02307
G1 X169.778 Y51.278 E0.31419
G1 X169.752 Y52.014 E0.02307
G1 X169.674 Y52.756 E0.02339
G1 X169.544 Y53.490 E0.02339
G1 X169.364 Y54.214 E0.02339
G1 X169.133 Y54.923 E0.02339
G1 X168.854 Y55.615 E0.02339
G1 X168.527 Y56.286 E0.02339
G1 X168.154 Y56.932 E0.02339
G1 X167.737 Y57.550 E0.02339
G1 X167.277 Y58.138 E0.02339
G1 X166.778 Y58.692 E0.02339
G1 X166.242 Y59.210 E0.02339
G1 X165.670 Y59.690 E0.02339
G1 X165.067 Y60.128 E0.02339
G1 X164.434 Y60.524 E0.02339
G1 X163.775 Y60.874 E0.02339
G1 X163.094 Y61.177 E0.02339
G1 X162.393 Y61.433 E0.02339
G1 X161.676 Y61.638 E0.02339
G1 X160.946 Y61.793 E0.02339
G1 X160.208 Y61.897 E0.02339
G1 X159.463 Y61.949 E0.02339
G1 X158.717 Y61.949 E0.02339
G1 X157.973 Y61.897 E0.02339
G1 X157.234 Y61.793 E0.02339
G1 X156.505 Y61.638 E0.02339
G1 X155.788 Y61.433 E0.02339
G1 X155.087 Y61.177 E0.02339
G1 X154.405 Y60.874 E0.02339
G1 X153.747 Y60.524 E0.02339
G1 X153.114 Y60.128 E0.02339
G1 X152.510 Y59.690 E0.02339
G1 X151.939 Y59.210 E0.02339
G1 X151.402 Y58.692 E0.02339
G1 X150.903 Y58.138 E0.02339
G1 X150.444 Y57.550 E0.02339
G1 X150.027 Y56.932 E0.02339
G1 X149.654 Y56.286 E0.02339
G1 X149.327 Y55.615 E0.02339
G1 X149.047 Y54.923 E0.02339
G1 X148.817 Y54.214 E0.02339
G1 X148.636 Y53.490 E0.02339
G1 X148.507 Y52.756 E0.02339
G1 X148.429 Y52.014 E0.02339
G1 X148.403 Y51.278 E0.02307
G1 X148.403 Y41.258 E0.31419
G1 X148.429 Y40.523 E0.02307
G1 X148.501 Y39.840 E0.02151
G1 X148.876 Y39.880 F10800.000
G1 F1200
G1 X149.005 Y39.125 E0.02403
G1 X149.180 Y38.426 E0.02256
G1 X149.402 Y37.742 E0.02256
G1 X149.672 Y37.075 E0.02256
G1 X149.987 Y36.428 E0.02256
G1 X150.347 Y35.805 E0.02256
G1 X150.749 Y35.208 E0.02256
G1 X151.192 Y34.641 E0.02256
G1 X151.674 Y34.106 E0.02256
G1 X152.192 Y33.606 E0.02256
G1 X152.743 Y33.144 E0.02256
G1 X153.325 Y32.721 E0.02256
G1 X153.935 Y32.339 E0.02256
G1 X154.571 Y32.001 E0.02256
G1 X155.228 Y31.709 E0.02256
G1 X155.904 Y31.463 E0.02256
G1 X156.596 Y31.264 E0.02256
G1 X157.300 Y31.115 E0.02256
G1 X158.013 Y31.014 E0.02256
G1 X158.731 Y30.964 E0.02256
G1 X159.450 Y30.964 E0.02256
G1 X160.168 Y31.014 E0.02256
G1 X160.881 Y31.115 E0.02256
G1 X161.585 Y31.264 E0.02256
G1 X162.276 Y31.463 E0.02256
G1 X162.953 Y31.709 E0.02256
G1 X163.610 Y32.001 E0.02256
G1 X163.925 Y32.169 E0.01117
G1 X164.245 Y32.339 E0.01139
G1 X164.856 Y32.721 E0.02256
G1 X165.438 Y33.144 E0.02256
G1 X165.989 Y33.606 E0.02256
G1 X166.507 Y34.106 E0.02256
G1 X166.988 Y34.641 E0.02256
G1 X167.431 Y35.208 E0.02256
G1 X167.834 Y35.805 E0.02256
G1 X168.194 Y36.428 E0.02256
G1 X168.509 Y37.075 E0.02256
G1 X168.779 Y37.742 E0.02256
G1 X169.001 Y38.426 E0.02256
G1 X169.175 Y39.125 E0.02256
G1 X169.300 Y39.833 E0.02256
G1 X169.375 Y40.549 E0.02256
G1 X169.400 Y41.264 E0.02245
G1 X169.400 Y51.272 E0.31377
G1 X169.375 Y51.987 E0.02245
G1 X169.300 Y52.703 E0.02256
G1 X169.175 Y53.412 E0.02256
G1 X169.001 Y54.110 E0.02256
G1 X168.779 Y54.794 E0.02256
G1 X168.509 Y55.462 E0.02256
G1 X168.194 Y56.108 E0.02256
G1 X167.834 Y56.732 E0.02256
G1 X167.431 Y57.328 E0.02256
G1 X166.988 Y57.895 E0.02256
G1 X166.507 Y58.430 E0.02256
G1 X165.989 Y58.930 E0.02256
G1 X165.438 Y59.393 E0.02256
G1 X164.856 Y59.816 E0.02256
G1 X164.245 Y60.197 E0.02256
G1 X163.610 Y60.535 E0.02256
G1 X162.953 Y60.828 E0.02256
G1 X162.276 Y61.074 E0.02256
G1 X161.585 Y61.272 E0.02256
G1 X160.881 Y61.422 E0.02256
G1 X160.168 Y61.522 E0.02256
G1 X159.450 Y61.572 E0.02256
G1 X158.731 Y61.572 E0.02256
G1 X158.013 Y61.522 E0.02256
