; generated by PrusaSlicer 2.0.0+win64 on 2020-12-04 at 18:32:19

; 

; external perimeters extrusion width = 0.45mm
; perimeters extrusion width = 0.45mm
; infill extrusion width = 0.45mm
; solid infill extrusion width = 0.45mm
; top infill extrusion width = 0.40mm
; first layer extrusion width = 0.47mm

M73 P0 R51
M73 Q0 S52
M201 X1000 Y1000 Z1000 E5000 ; sets maximum accelerations, mm/sec^2
M203 X200 Y200 Z12 E120 ; sets maximum feedrates, mm/sec
M204 P1250 R1250 T1250 ; sets acceleration (P, T) and retract acceleration (R), mm/sec^2
M205 X8.00 Y8.00 Z0.40 E1.50 ; sets the jerk limits, mm/sec
M205 S0 T0 ; sets the minimum extruding and travel feed rate, mm/sec
M107
G90 ; use absolute coordinates
M83 ; extruder relative mode
M104 S215 ; set extruder temp
M140 S60 ; set bed temp
M190 S60 ; wait for bed temp
M109 S215 ; wait for extruder temp
G28 W ; home all without mesh bed level
G80 ; mesh bed leveling
G1 Y-3.0 F1000.0 ; go outside print area
G92 E0.0
G1 X60.0 E9.0 F1000.0 ; intro line
M73 Q0 S52
M73 P0 R51
G1 X100.0 E12.5 F1000.0 ; intro line
G92 E0.0
M221 S95
M900 K30 ; Filament gcode
G21 ; set units to millimeters
G90 ; use absolute coordinates
M83 ; use relative distances for extrusion
;BEFORE_LAYER_CHANGE
G92 E0.0
;0.2


G1 E-0.80000 F2100.00000
G1 Z0.600 F10800.000
;AFTER_LAYER_CHANGE
;0.2
G1 X102.729 Y97.793
G1 Z0.200
G1 E0.80000 F2100.00000
M204 S1000
G1 F900
G1 X104.106 Y97.281 E0.05214
G1 X105.225 Y97.069 E0.04044
G1 X105.998 Y97.018 E0.02753
G1 X125.413 Y97.243 E0.68950
G1 X143.422 Y97.947 E0.64001
G1 X144.752 Y98.141 E0.04774
G1 X146.059 Y98.575 E0.04890
G1 X147.606 Y99.469 E0.06344
G1 X148.637 Y100.387 E0.04903
G1 X149.489 Y101.477 E0.04916
G1 X150.280 Y103.071 E0.06318
G1 X150.633 Y104.414 E0.04929
G1 X150.739 Y105.790 E0.04903
G1 X150.506 Y107.595 E0.06461
G1 X150.282 Y108.329 E0.02728
G1 X149.816 Y109.376 E0.04070
G1 X141.482 Y125.474 E0.64371
G1 X140.829 Y126.463 E0.04211
G1 X140.342 Y127.034 E0.02662
G1 X139.447 Y127.846 E0.04292
G1 X138.803 Y128.296 E0.02793
G1 X137.775 Y128.836 E0.04122
G1 X137.074 Y129.101 E0.02662
G1 X135.902 Y129.381 E0.04278
G1 X135.124 Y129.465 E0.02780
G1 X116.323 Y129.518 E0.66766
G1 X115.572 Y129.467 E0.02672
G1 X114.457 Y129.254 E0.04031
G1 X113.170 Y128.786 E0.04864
G1 X112.036 Y128.134 E0.04643
G1 X111.026 Y127.299 E0.04656
G1 X110.164 Y126.297 E0.04695
G1 X99.456 Y108.795 E0.72863
G1 X98.917 Y107.718 E0.04276
G1 X98.651 Y106.954 E0.02871
G1 X98.415 Y105.840 E0.04044
G1 X98.348 Y105.112 E0.02597
G1 X98.354 Y104.377 E0.02610
G1 X98.497 Y103.247 E0.04044
G1 X98.919 Y101.849 E0.05188
G1 X99.426 Y100.829 E0.04044
G1 X99.836 Y100.205 E0.02649
G1 X100.610 Y99.301 E0.04226
G1 X101.152 Y98.805 E0.02610
G1 X101.743 Y98.362 E0.02623
G1 X102.677 Y97.823 E0.03831
G1 F8640
G1 X104.106 Y97.281 E-0.35270
G1 X105.225 Y97.069 E-0.26295
G1 X105.848 Y97.028 E-0.14435
G1 E-0.04000 F2100.00000
G1 Z0.800 F10800.000
G1 X120.968 Y103.789
G1 Z0.200
G1 E0.80000 F2100.00000
G1 F900
G1 X121.229 Y103.128 E0.02521
G1 X121.399 Y102.819 E0.01252
G1 X121.594 Y102.526 E0.01252
G1 X121.813 Y102.249 E0.01252
G1 X122.054 Y101.993 E0.01252
G1 X122.316 Y101.757 E0.01252
G1 X122.597 Y101.543 E0.01252
G1 X122.895 Y101.355 E0.01252
G1 X123.207 Y101.191 E0.01252
G1 X123.532 Y101.055 E0.01252
G1 X123.867 Y100.946 E0.01252
G1 X124.211 Y100.865 E0.01252
G1 X124.554 Y100.814 E0.01232
G1 X125.264 Y100.799 E0.02521
G1 X125.614 Y100.836 E0.01252
G1 X125.961 Y100.902 E0.01252
G1 X126.300 Y100.997 E0.01252
G1 X126.625 Y101.118 E0.01232
G1 X127.034 Y101.318 E0.01617
G1 X127.544 Y101.647 E0.02156
G1 X127.816 Y101.872 E0.01252
G1 X128.068 Y102.118 E0.01252
G1 X128.298 Y102.385 E0.01252
G1 X128.505 Y102.671 E0.01252
G1 X128.688 Y102.972 E0.01252
G1 X128.845 Y103.288 E0.01252
G1 X128.973 Y103.610 E0.01232
G1 X129.097 Y104.049 E0.01617
G1 X129.194 Y104.648 E0.02156
G1 X129.209 Y105.000 E0.01252
G1 X129.194 Y105.352 E0.01252
G1 X129.150 Y105.702 E0.01252
G1 X129.077 Y106.047 E0.01252
G1 X128.975 Y106.384 E0.01252
G1 X128.847 Y106.707 E0.01232
G1 X128.638 Y107.111 E0.01617
G1 X128.298 Y107.615 E0.02156
G1 X128.068 Y107.882 E0.01252
G1 X127.816 Y108.128 E0.01252
G1 X127.544 Y108.353 E0.01252
G1 X127.255 Y108.554 E0.01252
G1 X126.950 Y108.730 E0.01252
G1 X126.631 Y108.880 E0.01252
G1 X126.300 Y109.003 E0.01252
G1 X125.961 Y109.098 E0.01252
G1 X125.614 Y109.164 E0.01252
G1 X125.264 Y109.201 E0.01252
G1 X124.911 Y109.208 E0.01252
G1 X124.559 Y109.186 E0.01252
G1 X124.216 Y109.136 E0.01232
G1 X123.775 Y109.024 E0.01617
G1 X123.207 Y108.809 E0.02156
G1 X122.895 Y108.645 E0.01252
G1 X122.597 Y108.457 E0.01252
G1 X122.316 Y108.243 E0.01252
G1 X122.054 Y108.007 E0.01252
G1 X121.813 Y107.751 E0.01252
G1 X121.594 Y107.474 E0.01252
G1 X121.399 Y107.181 E0.01252
G1 X121.229 Y106.872 E0.01252
G1 X121.086 Y106.550 E0.01252
G1 X120.970 Y106.217 E0.01252
G1 X120.882 Y105.875 E0.01252
G1 X120.823 Y105.528 E0.01252
G1 X120.794 Y105.176 E0.01252
G1 X120.794 Y104.824 E0.01252
G1 X120.823 Y104.472 E0.01252
G1 X120.882 Y104.125 E0.01252
G1 X120.953 Y103.847 E0.01019
G1 X120.540 Y103.741 F10800.000
G1 F900
G1 X120.729 Y103.201 E0.02033
G1 X120.846 Y102.938 E0.01020
G1 X121.033 Y102.598 E0.01379
G1 X121.248 Y102.275 E0.01379
G1 X121.489 Y101.970 E0.01379
G1 X121.755 Y101.687 E0.01379
G1 X122.044 Y101.427 E0.01379
G1 X122.353 Y101.192 E0.01379
G1 X122.681 Y100.984 E0.01379
G1 X123.025 Y100.804 E0.01379
G1 X123.383 Y100.654 E0.01379
G1 X123.752 Y100.534 E0.01379
G1 X124.131 Y100.445 E0.01379
G1 X124.513 Y100.389 E0.01372
G1 X125.291 Y100.372 E0.02763
G1 X125.677 Y100.413 E0.01379
G1 X126.058 Y100.486 E0.01379
G1 X126.432 Y100.590 E0.01379
G1 X126.794 Y100.725 E0.01372
G1 X127.235 Y100.941 E0.01744
G1 X127.484 Y101.085 E0.01020
G1 X127.803 Y101.307 E0.01379
G1 X128.102 Y101.554 E0.01379
G1 X128.379 Y101.826 E0.01379
G1 X128.633 Y102.120 E0.01379
G1 X128.862 Y102.434 E0.01379
G1 X129.063 Y102.766 E0.01379
G1 X129.235 Y103.114 E0.01379
G1 X129.378 Y103.473 E0.01372
G1 X129.512 Y103.946 E0.01744
G1 X129.571 Y104.227 E0.01020
G1 X129.620 Y104.612 E0.01379
G1 X129.636 Y105.000 E0.01379
G1 X129.620 Y105.388 E0.01379
G1 X129.571 Y105.773 E0.01379
G1 X129.491 Y106.153 E0.01379
G1 X129.378 Y106.525 E0.01379
G1 X129.236 Y106.884 E0.01372
G1 X129.010 Y107.320 E0.01744
G1 X128.862 Y107.566 E0.01020
G1 X128.633 Y107.880 E0.01379
G1 X128.379 Y108.174 E0.01379
G1 X128.102 Y108.446 E0.01379
G1 X127.803 Y108.693 E0.01379
G1 X127.484 Y108.915 E0.01379
G1 X127.148 Y109.109 E0.01379
G1 X126.796 Y109.275 E0.01379
G1 X126.432 Y109.410 E0.01379
G1 X126.058 Y109.514 E0.01379
G1 X125.677 Y109.587 E0.01379
G1 X125.291 Y109.628 E0.01379
G1 X124.902 Y109.636 E0.01379
G1 X124.515 Y109.611 E0.01379
G1 X124.132 Y109.555 E0.01372
G1 X123.656 Y109.435 E0.01744
G1 X123.383 Y109.346 E0.01020
G1 X123.025 Y109.196 E0.01379
G1 X122.681 Y109.016 E0.01379
G1 X122.353 Y108.808 E0.01379
G1 X122.044 Y108.573 E0.01379
G1 X121.755 Y108.313 E0.01379
G1 X121.489 Y108.030 E0.01379
G1 X121.248 Y107.725 E0.01379
G1 X121.033 Y107.402 E0.01379
G1 X120.846 Y107.062 E0.01379
G1 X120.688 Y106.707 E0.01379
G1 X120.560 Y106.340 E0.01379
G1 X120.464 Y105.964 E0.01379
G1 X120.399 Y105.581 E0.01379
G1 X120.367 Y105.194 E0.01379
G1 X120.367 Y104.806 E0.01379
G1 X120.399 Y104.419 E0.01379
G1 X120.464 Y104.036 E0.01379
G1 X120.525 Y103.799 E0.00869
G1 X120.929 Y103.649 F10800.000
G1 F8640
G1 X120.729 Y103.201 E-0.14596
G1 X120.846 Y102.938 E-0.06631
G1 X121.033 Y102.598 E-0.08967
G1 X121.248 Y102.275 E-0.08967
G1 X121.489 Y101.970 E-0.08967
G1 X121.755 Y101.687 E-0.08967
G1 X122.044 Y101.427 E-0.08967
G1 X122.353 Y101.192 E-0.08967
G1 X122.389 Y101.170 E-0.00971
G1 E-0.04000 F2100.00000
G1 Z0.800 F10800.000
G1 X121.023 Y105.909
G1 Z0.200
G1 E0.80000 F2100.00000
G1 F900
G1 X123.808 Y108.694 E0.14138
G1 X124.279 Y108.821 E0.01752
G1 X124.591 Y108.867 E0.01134
G1 X121.135 Y105.411 E0.17549
G1 X121.114 Y105.163 E0.00893
G1 X121.118 Y104.784 E0.01361
G1 X125.216 Y108.882 E0.20805
G1 X125.756 Y108.811 E0.01955
G1 X121.187 Y104.242 E0.23197
G1 X121.274 Y103.888 E0.01308
G1 X121.322 Y103.766 E0.00471
G1 X126.240 Y108.684 E0.24969
G1 X126.673 Y108.507 E0.01680
G1 X121.494 Y103.328 E0.26290
G1 X121.709 Y102.932 E0.01617
G1 X127.069 Y108.292 E0.27212
G1 X127.424 Y108.037 E0.01571
G1 X121.963 Y102.576 E0.27725
G1 X122.250 Y102.252 E0.01553
G1 X127.746 Y107.748 E0.27903
G1 X128.036 Y107.428 E0.01552
G1 X122.573 Y101.964 E0.27738
G1 X122.930 Y101.711 E0.01573
G1 X128.285 Y107.066 E0.27183
G1 X128.501 Y106.671 E0.01614
G1 X123.322 Y101.492 E0.26292
G1 X123.758 Y101.318 E0.01686
G1 X128.683 Y106.243 E0.25001
G1 X128.810 Y105.759 E0.01794
G1 X124.238 Y101.188 E0.23210
G1 X124.581 Y101.134 E0.01244
G1 X124.791 Y101.130 E0.00755
G1 X128.879 Y105.218 E0.20754
G1 X128.888 Y105.000 E0.00782
G1 X128.864 Y104.592 E0.01466
G1 X125.408 Y101.136 E0.17546
G1 X125.887 Y101.214 E0.01743
G1 X126.177 Y101.295 E0.01081
G1 X128.961 Y104.078 E0.14131
G1 F8640
G1 X126.634 Y101.751 E-0.76000
G1 E-0.04000 F2100.00000
G1 Z0.800 F10800.000
G1 X128.624 Y103.131
G1 Z0.200
G1 E0.80000 F2100.00000
G1 F900
G1 X126.877 Y101.384 E0.08868
G1 F8640
G1 X128.624 Y103.131 E-0.57043
G1 E-0.22957 F2100.00000
G1 Z0.800 F10800.000
G1 X121.376 Y106.873
G1 Z0.200
G1 E0.80000 F2100.00000
G1 F900
G1 X123.124 Y108.621 E0.08874
G1 F8640
G1 X121.376 Y106.873 E-0.57076
G1 E-0.22924 F2100.00000
G1 Z0.800 F10800.000
G1 X138.795 Y106.230
G1 Z0.200
G1 E0.80000 F2100.00000
G1 F900
G1 X138.766 Y105.879 E0.01252
G1 X138.766 Y105.526 E0.01252
G1 X138.795 Y105.175 E0.01252
G1 X138.854 Y104.828 E0.01252
G1 X138.941 Y104.492 E0.01232
G1 X139.201 Y103.831 E0.02521
G1 X139.371 Y103.522 E0.01252
G1 X139.566 Y103.229 E0.01252
G1 X139.785 Y102.952 E0.01252
G1 X140.027 Y102.695 E0.01252
G1 X140.289 Y102.459 E0.01252
G1 X140.569 Y102.246 E0.01252
G1 X140.867 Y102.057 E0.01252
G1 X141.179 Y101.894 E0.01252
G1 X141.504 Y101.757 E0.01252
G1 X141.840 Y101.648 E0.01252
G1 X142.183 Y101.568 E0.01252
G1 X142.526 Y101.517 E0.01232
G1 X143.236 Y101.502 E0.02521
G1 X143.587 Y101.538 E0.01252
G1 X143.933 Y101.605 E0.01252
G1 X144.272 Y101.699 E0.01252
G1 X144.598 Y101.820 E0.01232
G1 X145.006 Y102.021 E0.01617
G1 X145.517 Y102.350 E0.02156
G1 X145.788 Y102.575 E0.01252
G1 X146.040 Y102.821 E0.01252
G1 X146.271 Y103.088 E0.01252
G1 X146.478 Y103.373 E0.01252
G1 X146.660 Y103.675 E0.01252
G1 X146.817 Y103.991 E0.01252
G1 X146.945 Y104.313 E0.01232
G1 X147.122 Y105.001 E0.02521
G1 X147.166 Y105.350 E0.01252
G1 X147.181 Y105.703 E0.01252
G1 X147.166 Y106.055 E0.01252
G1 X147.122 Y106.405 E0.01252
G1 X147.049 Y106.750 E0.01252
G1 X146.947 Y107.087 E0.01252
G1 X146.819 Y107.410 E0.01232
G1 X146.610 Y107.814 E0.01617
G1 X146.271 Y108.317 E0.02156
G1 X146.040 Y108.584 E0.01252
G1 X145.788 Y108.831 E0.01252
G1 X145.517 Y109.056 E0.01252
G1 X145.227 Y109.257 E0.01252
G1 X144.922 Y109.433 E0.01252
G1 X144.603 Y109.583 E0.01252
G1 X144.272 Y109.706 E0.01252
G1 X143.933 Y109.801 E0.01252
G1 X143.587 Y109.867 E0.01252
G1 X143.236 Y109.904 E0.01252
G1 X142.884 Y109.911 E0.01252
G1 X142.532 Y109.889 E0.01252
G1 X142.188 Y109.838 E0.01232
G1 X141.504 Y109.648 E0.02521
G1 X141.179 Y109.511 E0.01252
G1 X140.867 Y109.348 E0.01252
G1 X140.569 Y109.159 E0.01252
G1 X140.289 Y108.946 E0.01252
G1 X140.027 Y108.710 E0.01252
G1 X139.785 Y108.453 E0.01252
G1 X139.566 Y108.177 E0.01252
G1 X139.371 Y107.883 E0.01252
G1 X139.201 Y107.574 E0.01252
G1 X139.058 Y107.252 E0.01252
G1 X138.942 Y106.919 E0.01252
G1 X138.854 Y106.578 E0.01252
G1 X138.805 Y106.289 E0.01039
G1 X138.384 Y106.361 F10800.000
G1 F900
G1 X138.339 Y105.897 E0.01655
G1 X138.339 Y105.509 E0.01379
G1 X138.371 Y105.122 E0.01379
G1 X138.436 Y104.739 E0.01379
G1 X138.532 Y104.364 E0.01372
G1 X138.702 Y103.903 E0.01744
G1 X138.818 Y103.641 E0.01020
G1 X139.005 Y103.301 E0.01379
G1 X139.220 Y102.977 E0.01379
G1 X139.462 Y102.673 E0.01379
G1 X139.727 Y102.390 E0.01379
G1 X140.016 Y102.130 E0.01379
G1 X140.325 Y101.895 E0.01379
G1 X140.653 Y101.687 E0.01379
G1 X140.997 Y101.507 E0.01379
G1 X141.355 Y101.357 E0.01379
G1 X141.725 Y101.237 E0.01379
G1 X142.103 Y101.148 E0.01379
G1 X142.485 Y101.092 E0.01372
G1 X143.263 Y101.075 E0.02763
G1 X143.649 Y101.116 E0.01379
G1 X144.031 Y101.188 E0.01379
G1 X144.405 Y101.293 E0.01379
G1 X144.767 Y101.427 E0.01372
G1 X145.208 Y101.644 E0.01744
G1 X145.456 Y101.788 E0.01020
G1 X145.775 Y102.009 E0.01379
G1 X146.074 Y102.257 E0.01379
G1 X146.352 Y102.529 E0.01379
G1 X146.606 Y102.823 E0.01379
G1 X146.834 Y103.137 E0.01379
G1 X147.035 Y103.469 E0.01379
G1 X147.208 Y103.817 E0.01379
G1 X147.350 Y104.176 E0.01372
G1 X147.544 Y104.929 E0.02763
G1 X147.592 Y105.315 E0.01379
G1 X147.609 Y105.703 E0.01379
G1 X147.592 Y106.091 E0.01379
G1 X147.544 Y106.476 E0.01379
G1 X147.463 Y106.856 E0.01379
G1 X147.351 Y107.228 E0.01379
G1 X147.208 Y107.587 E0.01372
G1 X146.983 Y108.023 E0.01744
G1 X146.834 Y108.269 E0.01020
G1 X146.606 Y108.583 E0.01379
G1 X146.352 Y108.877 E0.01379
G1 X146.074 Y109.149 E0.01379
G1 X145.775 Y109.396 E0.01379
G1 X145.456 Y109.618 E0.01379
G1 X145.120 Y109.812 E0.01379
G1 X144.769 Y109.977 E0.01379
G1 X144.405 Y110.113 E0.01379
G1 X144.031 Y110.217 E0.01379
G1 X143.649 Y110.290 E0.01379
G1 X143.263 Y110.330 E0.01379
G1 X142.875 Y110.339 E0.01379
G1 X142.487 Y110.314 E0.01379
G1 X142.105 Y110.258 E0.01372
G1 X141.355 Y110.049 E0.02763
G1 X140.997 Y109.898 E0.01379
G1 X140.653 Y109.718 E0.01379
G1 X140.325 Y109.510 E0.01379
G1 X140.016 Y109.275 E0.01379
G1 X139.727 Y109.016 E0.01379
G1 X139.462 Y108.733 E0.01379
G1 X139.220 Y108.428 E0.01379
G1 X139.005 Y108.105 E0.01379
G1 X138.818 Y107.764 E0.01379
G1 X138.660 Y107.410 E0.01379
G1 X138.533 Y107.043 E0.01379
G1 X138.436 Y106.667 E0.01379
G1 X138.394 Y106.420 E0.00889
G1 X138.700 Y106.115 F10800.000
G1 X138.995 Y106.612
G1 F900
G1 X141.780 Y109.397 E0.14138
G1 X142.251 Y109.524 E0.01752
G1 X142.564 Y109.570 E0.01134
G1 X139.107 Y106.113 E0.17549
G1 X139.086 Y105.866 E0.00893
G1 X139.091 Y105.486 E0.01361
G1 X143.189 Y109.584 E0.20805
G1 X143.729 Y109.514 E0.01955
G1 X139.159 Y104.944 E0.23197
G1 X139.246 Y104.591 E0.01308
G1 X139.294 Y104.469 E0.00471
G1 X144.212 Y109.387 E0.24969
G1 X144.645 Y109.209 E0.01680
G1 X139.467 Y104.031 E0.26290
G1 X139.681 Y103.634 E0.01617
G1 X145.041 Y108.994 E0.27212
G1 X145.396 Y108.739 E0.01571
G1 X139.935 Y103.278 E0.27725
G1 X140.222 Y102.955 E0.01553
G1 X145.719 Y108.451 E0.27903
G1 X146.009 Y108.131 E0.01552
G1 X140.545 Y102.667 E0.27738
G1 X140.903 Y102.414 E0.01573
G1 X146.257 Y107.768 E0.27183
G1 X146.473 Y107.374 E0.01614
G1 X141.295 Y102.195 E0.26292
G1 X141.731 Y102.021 E0.01686
G1 X146.655 Y106.945 E0.25001
G1 X146.782 Y106.462 E0.01794
G1 X142.211 Y101.890 E0.23210
G1 X142.553 Y101.837 E0.01244
G1 X142.763 Y101.832 E0.00755
G1 X146.851 Y105.920 E0.20754
G1 X146.861 Y105.703 E0.00782
G1 X146.836 Y105.295 E0.01466
G1 X143.380 Y101.839 E0.17546
G1 X143.860 Y101.917 E0.01743
G1 X144.150 Y101.998 E0.01081
G1 X146.933 Y104.781 E0.14131
G1 F8640
G1 X144.606 Y102.454 E-0.76000
G1 E-0.04000 F2100.00000
G1 Z0.800 F10800.000
G1 X146.596 Y103.834
G1 Z0.200
G1 E0.80000 F2100.00000
G1 F900
G1 X144.849 Y102.087 E0.08868
G1 F8640
G1 X146.596 Y103.834 E-0.57043
G1 E-0.22957 F2100.00000
G1 Z0.800 F10800.000
G1 X139.348 Y107.575
G1 Z0.200
G1 E0.80000 F2100.00000
G1 F900
G1 X141.096 Y109.323 E0.08874
G1 F8640
G1 X139.348 Y107.575 E-0.57076
G1 E-0.22924 F2100.00000
G1 Z0.800 F10800.000
G1 X136.721 Y118.027
G1 Z0.200
G1 E0.80000 F2100.00000
G1 F900
G1 X137.231 Y118.356 E0.02156
G1 X137.503 Y118.580 E0.01252
G1 X137.755 Y118.827 E0.01252
G1 X137.985 Y119.094 E0.01252
G1 X138.192 Y119.379 E0.01252
G1 X138.375 Y119.681 E0.01252
G1 X138.532 Y119.997 E0.01252
G1 X138.660 Y120.319 E0.01232
G1 X138.784 Y120.757 E0.01617
G1 X138.881 Y121.356 E0.02156
G1 X138.896 Y121.709 E0.01252
G1 X138.881 Y122.061 E0.01252
G1 X138.837 Y122.411 E0.01252
G1 X138.764 Y122.755 E0.01252
G1 X138.662 Y123.093 E0.01252
G1 X138.534 Y123.416 E0.01232
G1 X138.325 Y123.820 E0.01617
G1 X137.985 Y124.323 E0.02156
G1 X137.755 Y124.590 E0.01252
