; generated by PrusaSlicer 2.0.0+win64 on 2020-12-09 at 13:53:08

; 

; external perimeters extrusion width = 0.45mm
; perimeters extrusion width = 0.45mm
; infill extrusion width = 0.45mm
; solid infill extrusion width = 0.45mm
; top infill extrusion width = 0.40mm
; first layer extrusion width = 0.47mm

M73 P0 R205
M73 Q0 S208
M201 X1000 Y1000 Z1000 E5000 ; sets maximum accelerations, mm/sec^2
M203 X200 Y200 Z12 E120 ; sets maximum feedrates, mm/sec
M204 P1250 R1250 T1250 ; sets acceleration (P, T) and retract acceleration (R), mm/sec^2
M205 X8.00 Y8.00 Z0.40 E1.50 ; sets the jerk limits, mm/sec
M205 S0 T0 ; sets the minimum extruding and travel feed rate, mm/sec
M107
G90 ; use absolute coordinates
M83 ; extruder relative mode
M104 S215 ; set extruder temp
M140 S60 ; set bed temp
M190 S60 ; wait for bed temp
M109 S215 ; wait for extruder temp
G28 W ; home all without mesh bed level
G80 ; mesh bed leveling
G1 Y-3.0 F1000.0 ; go outside print area
G92 E0.0
G1 X60.0 E9.0 F1000.0 ; intro line
M73 Q0 S208
M73 P0 R205
G1 X100.0 E12.5 F1000.0 ; intro line
G92 E0.0
M221 S95
M900 K30 ; Filament gcode
G21 ; set units to millimeters
G90 ; use absolute coordinates
M83 ; use relative distances for extrusion
;BEFORE_LAYER_CHANGE
G92 E0.0
;0.2


G1 E-0.80000 F2100.00000
G1 Z0.600 F10800.000
;AFTER_LAYER_CHANGE
;0.2
G1 X41.498 Y62.442
G1 Z0.200
G1 E0.80000 F2100.00000
M204 S1000
G1 F900
G1 X42.616 Y61.794 E0.04587
G1 X43.854 Y61.390 E0.04626
G1 X45.109 Y61.252 E0.04483
G1 X140.159 Y61.252 E3.37539
G1 X199.000 Y64.105 E2.09203
G1 X200.314 Y64.383 E0.04769
G1 X201.578 Y64.962 E0.04937
G1 X202.448 Y65.594 E0.03819
G1 X202.929 Y66.058 E0.02374
G1 X203.757 Y67.175 E0.04937
G1 X204.320 Y68.474 E0.05027
G1 X204.545 Y69.537 E0.03858
G1 X204.592 Y70.267 E0.02596
G1 X204.592 Y165.302 E3.37487
G1 X204.473 Y166.490 E0.04242
G1 X204.249 Y167.316 E0.03039
G1 X203.753 Y168.405 E0.04248
G1 X203.012 Y169.427 E0.04483
G1 X202.111 Y170.253 E0.04340
G1 X201.390 Y170.720 E0.03052
G1 X200.283 Y171.202 E0.04288
G1 X199.037 Y171.466 E0.04522
G1 X139.419 Y176.353 E2.12427
G1 X44.310 Y176.354 E3.37748
G1 X43.068 Y176.221 E0.04437
G1 X41.923 Y175.860 E0.04262
G1 X41.163 Y175.475 E0.03026
G1 X40.207 Y174.774 E0.04210
G1 X39.325 Y173.800 E0.04665
G1 X38.679 Y172.686 E0.04574
G1 X38.273 Y171.452 E0.04613
G1 X38.135 Y170.234 E0.04353
G1 X38.133 Y125.133 E1.60162
G1 X38.943 Y67.379 E2.05114
G1 X39.077 Y66.176 E0.04301
G1 X39.438 Y65.035 E0.04249
G1 X39.821 Y64.282 E0.02999
G1 X40.522 Y63.326 E0.04210
G1 X41.454 Y62.482 E0.04465
G1 F8640
G1 X42.616 Y61.794 E-0.31182
G1 X43.854 Y61.390 E-0.30078
G1 X44.489 Y61.320 E-0.14740
G1 E-0.04000 F2100.00000
G1 Z0.800 F10800.000
G1 X196.181 Y163.611
G1 Z0.200
G1 E0.80000 F2100.00000
G1 F900
G1 X196.459 Y163.299 E0.01482
G1 X196.794 Y163.023 E0.01541
G1 X197.153 Y162.810 E0.01483
G1 X197.545 Y162.652 E0.01502
G1 X197.956 Y162.556 E0.01500
G1 X198.379 Y162.523 E0.01506
G1 X198.800 Y162.555 E0.01500
G1 X199.212 Y162.652 E0.01502
G1 X199.604 Y162.810 E0.01502
G1 X199.963 Y163.023 E0.01483
G1 X200.298 Y163.299 E0.01541
G1 X200.576 Y163.611 E0.01482
G1 X200.806 Y163.966 E0.01502
G1 X200.978 Y164.352 E0.01502
G1 X201.087 Y164.748 E0.01461
G1 X201.123 Y164.986 E0.00854
G1 X201.139 Y165.395 E0.01452
G1 X201.092 Y165.804 E0.01463
G1 X200.974 Y166.232 E0.01576
G1 X200.806 Y166.608 E0.01465
G1 X200.576 Y166.963 E0.01502
G1 X200.294 Y167.279 E0.01502
G1 X199.971 Y167.545 E0.01486
G1 X199.791 Y167.656 E0.00753
G1 X199.600 Y167.766 E0.00780
G1 X199.212 Y167.922 E0.01487
G1 X198.800 Y168.019 E0.01502
G1 X198.379 Y168.051 E0.01502
G1 X197.959 Y168.019 E0.01496
G1 X197.747 Y167.971 E0.00771
G1 X197.543 Y167.922 E0.00744
G1 X197.153 Y167.764 E0.01495
G1 X196.789 Y167.548 E0.01502
G1 X196.468 Y167.283 E0.01478
G1 X196.178 Y166.957 E0.01550
G1 X195.951 Y166.608 E0.01477
G1 X195.779 Y166.222 E0.01502
G1 X195.670 Y165.826 E0.01461
G1 X195.634 Y165.588 E0.00854
G1 X195.618 Y165.179 E0.01452
G1 X195.665 Y164.770 E0.01463
G1 X195.783 Y164.342 E0.01576
G1 X195.951 Y163.966 E0.01465
G1 X196.149 Y163.661 E0.01289
G1 X196.893 Y163.490 F10800.000
G1 F900
G1 X197.037 Y163.375 E0.00655
G1 X197.343 Y163.194 E0.01262
G1 X197.674 Y163.060 E0.01269
G1 X198.022 Y162.979 E0.01268
G1 X198.379 Y162.951 E0.01271
G1 X198.735 Y162.979 E0.01268
G1 X199.083 Y163.060 E0.01269
G1 X199.414 Y163.194 E0.01269
G1 X199.720 Y163.375 E0.01262
G1 X199.999 Y163.605 E0.01283
G1 X200.235 Y163.871 E0.01262
G1 X200.429 Y164.170 E0.01269
G1 X200.575 Y164.496 E0.01269
G1 X200.669 Y164.837 E0.01254
G1 X200.697 Y165.026 E0.00680
G1 X200.711 Y165.378 E0.01251
G1 X200.670 Y165.729 E0.01255
G1 X200.629 Y165.903 E0.00634
G1 X200.574 Y166.081 E0.00661
G1 X200.429 Y166.404 E0.01256
G1 X200.235 Y166.704 E0.01269
G1 X199.997 Y166.970 E0.01269
G1 X199.723 Y167.197 E0.01263
G1 X199.572 Y167.289 E0.00627
G1 X199.413 Y167.381 E0.00654
G1 X199.083 Y167.514 E0.01264
G1 X198.735 Y167.595 E0.01269
G1 X198.378 Y167.623 E0.01269
G1 X198.023 Y167.595 E0.01267
G1 X197.844 Y167.555 E0.00650
G1 X197.674 Y167.514 E0.00624
G1 X197.343 Y167.380 E0.01267
G1 X197.035 Y167.198 E0.01269
G1 X196.762 Y166.972 E0.01261
G1 X196.636 Y166.836 E0.00657
G1 X196.521 Y166.701 E0.00630
G1 X196.328 Y166.404 E0.01260
G1 X196.182 Y166.078 E0.01269
G1 X196.088 Y165.737 E0.01254
G1 X196.060 Y165.548 E0.00680
G1 X196.046 Y165.196 E0.01251
G1 X196.087 Y164.845 E0.01255
G1 X196.128 Y164.671 E0.00634
G1 X196.183 Y164.493 E0.00662
G1 X196.328 Y164.170 E0.01256
G1 X196.522 Y163.871 E0.01269
G1 X196.847 Y163.529 E0.01674
G1 X196.853 Y163.310 F10800.000
G1 F8640
G1 X197.037 Y163.375 E-0.05645
G1 X197.343 Y163.194 E-0.08207
G1 X197.674 Y163.060 E-0.08252
G1 X198.022 Y162.979 E-0.08247
G1 X198.379 Y162.951 E-0.08263
G1 X198.735 Y162.979 E-0.08248
G1 X199.083 Y163.060 E-0.08253
G1 X199.414 Y163.194 E-0.08252
G1 X199.720 Y163.375 E-0.08207
G1 X199.868 Y163.497 E-0.04426
G1 E-0.04000 F2100.00000
G1 Z0.800 F10800.000
G1 X191.931 Y154.960
G1 Z0.200
G1 E0.80000 F2100.00000
G1 F900
G1 X191.256 Y155.289 E0.02668
G1 X190.559 Y155.570 E0.02668
G1 X189.845 Y155.803 E0.02668
G1 X189.116 Y155.984 E0.02668
G1 X188.376 Y156.115 E0.02668
G1 X187.629 Y156.193 E0.02668
G1 X186.890 Y156.219 E0.02627
G1 X176.867 Y156.219 E0.35594
G1 X176.128 Y156.193 E0.02627
G1 X175.381 Y156.115 E0.02668
G1 X174.641 Y155.984 E0.02668
G1 X173.912 Y155.803 E0.02668
G1 X173.197 Y155.571 E0.02668
G1 X172.501 Y155.289 E0.02668
G1 X171.826 Y154.960 E0.02668
G1 X171.175 Y154.584 E0.02668
G1 X170.552 Y154.164 E0.02668
G1 X169.960 Y153.702 E0.02668
G1 X169.402 Y153.199 E0.02668
G1 X168.880 Y152.659 E0.02668
G1 X168.397 Y152.083 E0.02668
G1 X167.956 Y151.475 E0.02668
G1 X167.558 Y150.838 E0.02668
G1 X167.205 Y150.175 E0.02668
G1 X166.900 Y149.489 E0.02668
G1 X166.643 Y148.783 E0.02668
G1 X166.436 Y148.061 E0.02668
G1 X166.279 Y147.326 E0.02668
G1 X166.175 Y146.582 E0.02668
G1 X166.122 Y145.833 E0.02668
G1 X166.122 Y145.081 E0.02668
G1 X166.175 Y144.332 E0.02668
G1 X166.279 Y143.588 E0.02668
G1 X166.436 Y142.853 E0.02668
G1 X166.643 Y142.131 E0.02668
G1 X166.900 Y141.425 E0.02668
G1 X167.205 Y140.739 E0.02668
G1 X167.558 Y140.076 E0.02668
G1 X167.956 Y139.439 E0.02668
G1 X168.397 Y138.831 E0.02668
G1 X168.880 Y138.255 E0.02668
G1 X169.402 Y137.715 E0.02668
G1 X169.960 Y137.212 E0.02668
G1 X170.552 Y136.750 E0.02668
G1 X171.175 Y136.330 E0.02668
G1 X171.826 Y135.954 E0.02668
G1 X172.501 Y135.625 E0.02668
G1 X173.197 Y135.344 E0.02668
G1 X173.912 Y135.111 E0.02668
G1 X174.641 Y134.930 E0.02668
G1 X175.381 Y134.799 E0.02668
G1 X176.128 Y134.721 E0.02668
G1 X176.518 Y134.707 E0.01387
G1 X186.890 Y134.695 E0.36832
G1 X187.629 Y134.721 E0.02628
G1 X188.376 Y134.799 E0.02668
G1 X189.116 Y134.930 E0.02668
G1 X189.845 Y135.111 E0.02668
G1 X190.559 Y135.344 E0.02668
G1 X191.256 Y135.625 E0.02668
G1 X191.931 Y135.954 E0.02668
G1 X192.582 Y136.330 E0.02668
G1 X193.205 Y136.750 E0.02668
G1 X193.797 Y137.212 E0.02668
G1 X194.355 Y137.715 E0.02668
G1 X194.877 Y138.255 E0.02668
G1 X195.359 Y138.831 E0.02668
G1 X195.801 Y139.439 E0.02668
G1 X196.199 Y140.076 E0.02668
G1 X196.552 Y140.739 E0.02668
G1 X196.857 Y141.425 E0.02668
G1 X197.114 Y142.131 E0.02668
G1 X197.321 Y142.853 E0.02668
G1 X197.477 Y143.588 E0.02668
G1 X197.582 Y144.332 E0.02668
G1 X197.634 Y145.081 E0.02668
G1 X197.634 Y145.833 E0.02668
G1 X197.582 Y146.582 E0.02668
G1 X197.477 Y147.326 E0.02668
G1 X197.321 Y148.061 E0.02668
G1 X197.114 Y148.783 E0.02668
G1 X196.857 Y149.489 E0.02668
G1 X196.552 Y150.175 E0.02668
G1 X196.199 Y150.838 E0.02668
G1 X195.801 Y151.475 E0.02668
G1 X195.359 Y152.083 E0.02668
G1 X194.877 Y152.659 E0.02668
G1 X194.355 Y153.199 E0.02668
G1 X193.797 Y153.702 E0.02668
G1 X193.205 Y154.164 E0.02668
G1 X192.582 Y154.584 E0.02668
G1 X191.983 Y154.930 E0.02455
G1 X191.770 Y154.560 F10800.000
G1 F900
G1 X191.082 Y154.899 E0.02721
G1 X190.413 Y155.169 E0.02562
G1 X189.727 Y155.392 E0.02562
G1 X189.027 Y155.566 E0.02562
G1 X188.317 Y155.692 E0.02562
G1 X187.599 Y155.767 E0.02562
G1 X186.883 Y155.792 E0.02547
G1 X176.874 Y155.792 E0.35541
G1 X176.158 Y155.767 E0.02547
G1 X175.440 Y155.692 E0.02562
G1 X174.730 Y155.566 E0.02562
G1 X174.030 Y155.392 E0.02562
G1 X173.344 Y155.169 E0.02562
G1 X172.675 Y154.899 E0.02562
G1 X172.026 Y154.582 E0.02562
G1 X171.402 Y154.222 E0.02562
G1 X170.804 Y153.818 E0.02562
G1 X170.235 Y153.374 E0.02562
G1 X169.699 Y152.892 E0.02562
G1 X169.198 Y152.373 E0.02562
G1 X168.734 Y151.820 E0.02562
G1 X168.310 Y151.236 E0.02562
G1 X167.928 Y150.625 E0.02562
G1 X167.589 Y149.988 E0.02562
G1 X167.296 Y149.329 E0.02562
G1 X167.049 Y148.651 E0.02562
G1 X166.850 Y147.957 E0.02562
G1 X166.700 Y147.252 E0.02562
G1 X166.600 Y146.537 E0.02562
G1 X166.574 Y146.174 E0.01294
G1 X166.550 Y145.818 E0.01267
G1 X166.550 Y145.096 E0.02562
G1 X166.600 Y144.377 E0.02562
G1 X166.700 Y143.662 E0.02562
G1 X166.850 Y142.957 E0.02562
G1 X167.049 Y142.263 E0.02562
G1 X167.296 Y141.585 E0.02562
G1 X167.589 Y140.926 E0.02562
G1 X167.928 Y140.289 E0.02562
G1 X168.310 Y139.678 E0.02562
G1 X168.734 Y139.094 E0.02562
G1 X169.198 Y138.541 E0.02562
G1 X169.699 Y138.022 E0.02562
G1 X170.235 Y137.540 E0.02562
G1 X170.804 Y137.096 E0.02562
G1 X171.402 Y136.692 E0.02562
G1 X172.026 Y136.332 E0.02562
G1 X172.675 Y136.015 E0.02562
G1 X173.344 Y135.745 E0.02562
G1 X174.030 Y135.522 E0.02562
G1 X174.730 Y135.348 E0.02562
G1 X175.440 Y135.222 E0.02562
G1 X176.158 Y135.147 E0.02562
G1 X176.526 Y135.134 E0.01308
G1 X186.882 Y135.122 E0.36779
G1 X187.599 Y135.147 E0.02548
G1 X188.317 Y135.222 E0.02562
G1 X189.027 Y135.348 E0.02562
G1 X189.727 Y135.522 E0.02562
G1 X190.413 Y135.745 E0.02562
G1 X191.082 Y136.015 E0.02562
G1 X191.731 Y136.332 E0.02562
G1 X192.355 Y136.692 E0.02562
G1 X192.953 Y137.096 E0.02562
G1 X193.522 Y137.540 E0.02562
G1 X194.058 Y138.023 E0.02562
G1 X194.559 Y138.541 E0.02562
G1 X195.023 Y139.094 E0.02562
G1 X195.447 Y139.678 E0.02562
G1 X195.829 Y140.289 E0.02562
G1 X196.168 Y140.926 E0.02562
G1 X196.461 Y141.585 E0.02562
G1 X196.708 Y142.263 E0.02562
G1 X196.907 Y142.957 E0.02562
G1 X197.057 Y143.662 E0.02562
G1 X197.157 Y144.377 E0.02562
G1 X197.207 Y145.096 E0.02562
G1 X197.207 Y145.818 E0.02562
G1 X197.157 Y146.537 E0.02562
G1 X197.057 Y147.252 E0.02562
G1 X196.907 Y147.957 E0.02562
G1 X196.708 Y148.651 E0.02562
G1 X196.461 Y149.329 E0.02562
G1 X196.168 Y149.988 E0.02562
G1 X195.829 Y150.625 E0.02562
G1 X195.447 Y151.236 E0.02562
G1 X195.023 Y151.820 E0.02562
G1 X194.559 Y152.373 E0.02562
G1 X194.058 Y152.892 E0.02562
G1 X193.522 Y153.374 E0.02562
G1 X192.953 Y153.818 E0.02562
G1 X192.355 Y154.222 E0.02562
G1 X191.822 Y154.530 E0.02189
G1 X191.757 Y154.960 F10800.000
G1 F8640
G1 X191.082 Y154.899 E-0.19078
G1 X190.413 Y155.169 E-0.16657
G1 X189.727 Y155.392 E-0.16657
G1 X189.027 Y155.566 E-0.16657
G1 X188.731 Y155.619 E-0.06951
G1 E-0.04000 F2100.00000
G1 Z0.800 F10800.000
G1 X187.629 Y100.853
G1 Z0.200
G1 E0.80000 F2100.00000
G1 F900
G1 X186.890 Y100.879 E0.02627
G1 X176.867 Y100.879 E0.35594
G1 X176.128 Y100.853 E0.02627
G1 X175.381 Y100.775 E0.02668
G1 X174.641 Y100.644 E0.02668
G1 X173.912 Y100.463 E0.02668
G1 X173.197 Y100.231 E0.02668
G1 X172.501 Y99.949 E0.02668
G1 X171.826 Y99.620 E0.02668
G1 X171.175 Y99.244 E0.02668
G1 X170.552 Y98.824 E0.02668
G1 X169.960 Y98.362 E0.02668
G1 X169.402 Y97.859 E0.02668
G1 X168.880 Y97.319 E0.02668
G1 X168.397 Y96.743 E0.02668
G1 X167.956 Y96.135 E0.02668
G1 X167.558 Y95.498 E0.02668
G1 X167.205 Y94.835 E0.02668
G1 X166.900 Y94.149 E0.02668
G1 X166.643 Y93.443 E0.02668
G1 X166.436 Y92.721 E0.02668
G1 X166.279 Y91.986 E0.02668
G1 X166.175 Y91.242 E0.02668
G1 X166.122 Y90.493 E0.02668
G1 X166.122 Y89.741 E0.02668
G1 X166.175 Y88.992 E0.02668
G1 X166.279 Y88.248 E0.02668
G1 X166.436 Y87.513 E0.02668
G1 X166.643 Y86.791 E0.02668
G1 X166.900 Y86.085 E0.02668
G1 X167.205 Y85.399 E0.02668
G1 X167.558 Y84.736 E0.02668
G1 X167.956 Y84.099 E0.02668
G1 X168.397 Y83.491 E0.02668
G1 X168.880 Y82.916 E0.02668
G1 X169.402 Y82.375 E0.02668
G1 X169.960 Y81.872 E0.02668
G1 X170.552 Y81.410 E0.02668
G1 X171.175 Y80.990 E0.02668
G1 X171.826 Y80.614 E0.02668
G1 X172.501 Y80.285 E0.02668
G1 X173.197 Y80.004 E0.02668
G1 X173.912 Y79.771 E0.02668
G1 X174.641 Y79.590 E0.02668
G1 X175.381 Y79.459 E0.02668
G1 X176.128 Y79.381 E0.02668
G1 X176.518 Y79.367 E0.01387
G1 X186.890 Y79.355 E0.36832
M73 Q0 S207
G1 X187.629 Y79.381 E0.02628
G1 X188.376 Y79.459 E0.02668
G1 X189.116 Y79.590 E0.02668
G1 X189.845 Y79.771 E0.02668
G1 X190.559 Y80.004 E0.02668
G1 X191.256 Y80.285 E0.02668
G1 X191.931 Y80.614 E0.02668
M73 P0 R204
G1 X192.582 Y80.990 E0.02668
G1 X192.896 Y81.202 E0.01347
G1 X193.205 Y81.410 E0.01321
G1 X193.797 Y81.873 E0.02668
G1 X194.355 Y82.375 E0.02668
G1 X194.877 Y82.916 E0.02668
G1 X195.359 Y83.491 E0.02668
G1 X195.801 Y84.099 E0.02668
G1 X196.199 Y84.736 E0.02668
G1 X196.552 Y85.399 E0.02668
G1 X196.857 Y86.085 E0.02668
G1 X197.114 Y86.791 E0.02668
G1 X197.321 Y87.513 E0.02668
G1 X197.477 Y88.248 E0.02668
G1 X197.582 Y88.992 E0.02668
G1 X197.634 Y89.741 E0.02668
G1 X197.634 Y90.493 E0.02668
G1 X197.582 Y91.242 E0.02668
G1 X197.477 Y91.986 E0.02668
G1 X197.321 Y92.721 E0.02668
G1 X197.114 Y93.443 E0.02668
G1 X196.857 Y94.149 E0.02668
G1 X196.552 Y94.835 E0.02668
G1 X196.199 Y95.498 E0.02668
G1 X195.801 Y96.135 E0.02668
G1 X195.359 Y96.743 E0.02668
G1 X194.877 Y97.319 E0.02668
G1 X194.355 Y97.859 E0.02668
G1 X193.797 Y98.362 E0.02668
G1 X193.205 Y98.824 E0.02668
G1 X192.582 Y99.244 E0.02668
G1 X191.931 Y99.620 E0.02668
G1 X191.256 Y99.949 E0.02668
G1 X190.559 Y100.231 E0.02668
G1 X189.845 Y100.463 E0.02668
G1 X189.116 Y100.644 E0.02668
G1 X188.376 Y100.775 E0.02668
G1 X187.689 Y100.847 E0.02455
G1 X187.644 Y100.422 F10800.000
G1 F900
G1 X186.883 Y100.452 E0.02707
G1 X176.874 Y100.452 E0.35541
G1 X176.158 Y100.427 E0.02547
G1 X175.440 Y100.352 E0.02562
G1 X174.730 Y100.226 E0.02562
G1 X174.030 Y100.052 E0.02562
G1 X173.344 Y99.829 E0.02562
G1 X172.675 Y99.559 E0.02562
G1 X172.026 Y99.243 E0.02562
G1 X171.402 Y98.882 E0.02562
G1 X170.804 Y98.478 E0.02562
G1 X170.235 Y98.034 E0.02562
G1 X169.699 Y97.552 E0.02562
G1 X169.198 Y97.033 E0.02562
G1 X168.734 Y96.480 E0.02562
G1 X168.310 Y95.896 E0.02562
G1 X167.928 Y95.285 E0.02562
G1 X167.589 Y94.648 E0.02562
G1 X167.296 Y93.989 E0.02562
G1 X167.049 Y93.311 E0.02562
G1 X166.850 Y92.617 E0.02562
G1 X166.700 Y91.912 E0.02562
G1 X166.600 Y91.197 E0.02562
G1 X166.550 Y90.478 E0.02562
G1 X166.550 Y89.756 E0.02562
G1 X166.600 Y89.037 E0.02562
G1 X166.700 Y88.322 E0.02562
G1 X166.850 Y87.617 E0.02562
G1 X167.049 Y86.923 E0.02562
G1 X167.296 Y86.245 E0.02562
G1 X167.589 Y85.586 E0.02562
G1 X167.928 Y84.949 E0.02562
G1 X168.310 Y84.338 E0.02562
G1 X168.734 Y83.754 E0.02562
G1 X169.198 Y83.201 E0.02562
G1 X169.699 Y82.683 E0.02562
G1 X170.235 Y82.200 E0.02562
G1 X170.804 Y81.756 E0.02562
G1 X171.402 Y81.352 E0.02562
G1 X172.026 Y80.992 E0.02562
G1 X172.675 Y80.675 E0.02562
G1 X173.344 Y80.405 E0.02562
G1 X174.030 Y80.182 E0.02562
G1 X174.730 Y80.008 E0.02562
G1 X175.440 Y79.882 E0.02562
G1 X176.158 Y79.807 E0.02562
G1 X176.526 Y79.794 E0.01308
