; generated by PrusaSlicer 2.0.0+win64 on 2020-12-09 at 13:53:18

; 

; external perimeters extrusion width = 0.45mm
; perimeters extrusion width = 0.45mm
; infill extrusion width = 0.45mm
; solid infill extrusion width = 0.45mm
; top infill extrusion width = 0.40mm
; first layer extrusion width = 0.47mm

M73 P0 R137
M73 Q0 S139
M201 X1000 Y1000 Z1000 E5000 ; sets maximum accelerations, mm/sec^2
M203 X200 Y200 Z12 E120 ; sets maximum feedrates, mm/sec
M204 P1250 R1250 T1250 ; sets acceleration (P, T) and retract acceleration (R), mm/sec^2
M205 X8.00 Y8.00 Z0.40 E1.50 ; sets the jerk limits, mm/sec
M205 S0 T0 ; sets the minimum extruding and travel feed rate, mm/sec
M107
G90 ; use absolute coordinates
M83 ; extruder relative mode
M104 S215 ; set extruder temp
M140 S60 ; set bed temp
M190 S60 ; wait for bed temp
M109 S215 ; wait for extruder temp
G28 W ; home all without mesh bed level
G80 ; mesh bed leveling
G1 Y-3.0 F1000.0 ; go outside print area
G92 E0.0
G1 X60.0 E9.0 F1000.0 ; intro line
M73 Q0 S139
M73 P0 R137
G1 X100.0 E12.5 F1000.0 ; intro line
G92 E0.0
M221 S95
M900 K30 ; Filament gcode
G21 ; set units to millimeters
G90 ; use absolute coordinates
M83 ; use relative distances for extrusion
;BEFORE_LAYER_CHANGE
G92 E0.0
;0.2


G1 E-0.80000 F2100.00000
G1 Z0.600 F10800.000
;AFTER_LAYER_CHANGE
;0.2
G1 X41.498 Y62.442
G1 Z0.200
G1 E0.80000 F2100.00000
M204 S1000
G1 F900
G1 X42.616 Y61.794 E0.04587
G1 X43.854 Y61.390 E0.04626
G1 X45.109 Y61.252 E0.04483
G1 X140.159 Y61.252 E3.37539
G1 X141.431 Y61.384 E0.04541
G1 X142.596 Y61.753 E0.04340
G1 X143.715 Y62.375 E0.04547
G1 X144.389 Y62.920 E0.03077
G1 X145.194 Y63.830 E0.04314
G1 X145.834 Y64.943 E0.04561
G1 X146.230 Y66.161 E0.04548
G1 X146.367 Y67.390 E0.04392
G1 X146.369 Y112.484 E1.60136
G1 X145.560 Y170.190 E2.04944
G1 X145.427 Y171.423 E0.04405
G1 X145.066 Y172.564 E0.04249
G1 X144.681 Y173.324 E0.03025
G1 X143.980 Y174.280 E0.04210
G1 X143.004 Y175.164 E0.04678
G1 X141.879 Y175.814 E0.04613
G1 X140.641 Y176.218 E0.04626
G1 X139.356 Y176.354 E0.04587
G1 X44.310 Y176.354 E3.37526
G1 X43.068 Y176.221 E0.04437
G1 X41.923 Y175.860 E0.04262
G1 X41.163 Y175.475 E0.03026
G1 X40.207 Y174.774 E0.04210
G1 X39.325 Y173.800 E0.04665
G1 X38.679 Y172.686 E0.04574
G1 X38.273 Y171.452 E0.04613
G1 X38.135 Y170.234 E0.04353
G1 X38.133 Y125.133 E1.60162
G1 X38.943 Y67.379 E2.05114
G1 X39.077 Y66.176 E0.04301
G1 X39.438 Y65.035 E0.04249
G1 X39.821 Y64.282 E0.02999
G1 X40.522 Y63.326 E0.04210
G1 X41.454 Y62.482 E0.04465
G1 F8640
G1 X42.616 Y61.794 E-0.31182
G1 X43.854 Y61.390 E-0.30078
G1 X44.489 Y61.320 E-0.14740
G1 E-0.04000 F2100.00000
G1 Z0.800 F10800.000
G1 X60.851 Y126.405
G1 Z0.200
G1 E0.80000 F2100.00000
G1 F900
G1 X61.573 Y126.198 E0.02668
G1 X62.308 Y126.041 E0.02668
G1 X63.052 Y125.937 E0.02668
G1 X63.801 Y125.884 E0.02668
G1 X64.552 Y125.884 E0.02668
G1 X65.302 Y125.937 E0.02668
G1 X66.046 Y126.041 E0.02668
G1 X66.781 Y126.198 E0.02668
G1 X67.503 Y126.405 E0.02668
G1 X68.209 Y126.662 E0.02668
G1 X68.895 Y126.967 E0.02668
G1 X69.558 Y127.320 E0.02668
G1 X70.195 Y127.718 E0.02668
G1 X70.803 Y128.159 E0.02668
G1 X71.378 Y128.642 E0.02668
G1 X71.919 Y129.164 E0.02668
G1 X72.421 Y129.722 E0.02668
G1 X72.884 Y130.314 E0.02668
G1 X73.304 Y130.937 E0.02668
G1 X73.680 Y131.588 E0.02668
G1 X74.009 Y132.263 E0.02668
G1 X74.290 Y132.959 E0.02668
G1 X74.522 Y133.674 E0.02668
G1 X74.704 Y134.403 E0.02668
G1 X74.835 Y135.143 E0.02668
G1 X74.913 Y135.890 E0.02668
G1 X74.939 Y136.629 E0.02627
G1 X74.939 Y146.652 E0.35594
G1 X74.913 Y147.391 E0.02627
G1 X74.835 Y148.138 E0.02668
G1 X74.704 Y148.878 E0.02668
G1 X74.523 Y149.607 E0.02668
G1 X74.290 Y150.321 E0.02668
G1 X74.009 Y151.018 E0.02668
G1 X73.680 Y151.693 E0.02668
G1 X73.304 Y152.344 E0.02668
G1 X72.884 Y152.967 E0.02668
G1 X72.421 Y153.558 E0.02668
G1 X71.919 Y154.117 E0.02668
G1 X71.378 Y154.639 E0.02668
G1 X70.803 Y155.121 E0.02668
G1 X70.195 Y155.563 E0.02668
G1 X69.558 Y155.961 E0.02668
G1 X68.895 Y156.314 E0.02668
G1 X68.209 Y156.619 E0.02668
G1 X67.503 Y156.876 E0.02668
G1 X66.781 Y157.083 E0.02668
G1 X66.046 Y157.239 E0.02668
G1 X65.302 Y157.344 E0.02668
G1 X64.552 Y157.396 E0.02668
G1 X63.801 Y157.396 E0.02668
G1 X63.052 Y157.344 E0.02668
G1 X62.308 Y157.239 E0.02668
G1 X61.573 Y157.083 E0.02668
G1 X60.851 Y156.876 E0.02668
G1 X60.145 Y156.619 E0.02668
G1 X59.459 Y156.314 E0.02668
G1 X58.796 Y155.961 E0.02668
G1 X58.159 Y155.563 E0.02668
G1 X57.551 Y155.121 E0.02668
G1 X56.975 Y154.639 E0.02668
G1 X56.435 Y154.117 E0.02668
G1 X55.932 Y153.558 E0.02668
G1 X55.470 Y152.967 E0.02668
G1 X55.050 Y152.344 E0.02668
G1 X54.674 Y151.693 E0.02668
G1 X54.345 Y151.018 E0.02668
G1 X54.063 Y150.321 E0.02668
G1 X53.831 Y149.607 E0.02668
G1 X53.650 Y148.878 E0.02668
G1 X53.519 Y148.138 E0.02668
G1 X53.441 Y147.391 E0.02668
G1 X53.415 Y146.652 E0.02627
G1 X53.415 Y136.629 E0.35594
G1 X53.441 Y135.890 E0.02627
G1 X53.519 Y135.143 E0.02668
G1 X53.650 Y134.403 E0.02668
G1 X53.831 Y133.674 E0.02668
G1 X54.063 Y132.959 E0.02668
G1 X54.345 Y132.263 E0.02668
G1 X54.674 Y131.588 E0.02668
G1 X55.050 Y130.937 E0.02668
G1 X55.470 Y130.314 E0.02668
G1 X55.932 Y129.722 E0.02668
G1 X56.435 Y129.164 E0.02668
G1 X56.975 Y128.642 E0.02668
G1 X57.551 Y128.159 E0.02668
G1 X58.159 Y127.718 E0.02668
G1 X58.796 Y127.320 E0.02668
G1 X59.459 Y126.967 E0.02668
G1 X60.145 Y126.662 E0.02668
G1 X60.795 Y126.425 E0.02455
G1 X60.941 Y126.827 F10800.000
G1 F900
G1 X61.677 Y126.612 E0.02722
G1 X62.382 Y126.462 E0.02562
G1 X63.097 Y126.362 E0.02562
G1 X63.816 Y126.312 E0.02562
G1 X64.538 Y126.312 E0.02562
G1 X65.257 Y126.362 E0.02562
G1 X65.972 Y126.462 E0.02562
G1 X66.677 Y126.612 E0.02562
G1 X67.371 Y126.811 E0.02562
G1 X68.049 Y127.058 E0.02562
G1 X68.708 Y127.351 E0.02562
G1 X69.344 Y127.690 E0.02562
G1 X69.956 Y128.072 E0.02562
G1 X70.540 Y128.496 E0.02562
G1 X71.092 Y128.960 E0.02562
G1 X71.611 Y129.461 E0.02562
G1 X72.094 Y129.997 E0.02562
G1 X72.538 Y130.566 E0.02562
G1 X72.942 Y131.164 E0.02562
G1 X73.302 Y131.788 E0.02562
G1 X73.619 Y132.437 E0.02562
G1 X73.889 Y133.106 E0.02562
G1 X74.112 Y133.792 E0.02562
G1 X74.286 Y134.492 E0.02562
G1 X74.411 Y135.202 E0.02562
G1 X74.487 Y135.919 E0.02562
G1 X74.512 Y136.636 E0.02547
G1 X74.512 Y146.645 E0.35541
G1 X74.487 Y147.361 E0.02547
G1 X74.412 Y148.079 E0.02562
G1 X74.286 Y148.789 E0.02562
G1 X74.112 Y149.489 E0.02562
G1 X73.889 Y150.175 E0.02562
G1 X73.619 Y150.844 E0.02562
G1 X73.302 Y151.493 E0.02562
G1 X72.942 Y152.117 E0.02562
G1 X72.538 Y152.715 E0.02562
G1 X72.094 Y153.284 E0.02562
G1 X71.611 Y153.820 E0.02562
G1 X71.093 Y154.321 E0.02562
G1 X70.540 Y154.785 E0.02562
G1 X69.956 Y155.209 E0.02562
G1 X69.344 Y155.591 E0.02562
G1 X68.708 Y155.930 E0.02562
G1 X68.049 Y156.223 E0.02562
G1 X67.371 Y156.470 E0.02562
G1 X66.677 Y156.669 E0.02562
G1 X65.972 Y156.819 E0.02562
G1 X65.257 Y156.919 E0.02562
G1 X64.538 Y156.969 E0.02562
G1 X63.816 Y156.969 E0.02562
G1 X63.097 Y156.919 E0.02562
G1 X62.382 Y156.819 E0.02562
G1 X61.677 Y156.669 E0.02562
G1 X60.983 Y156.470 E0.02562
G1 X60.305 Y156.223 E0.02562
G1 X59.646 Y155.930 E0.02562
G1 X59.009 Y155.591 E0.02562
G1 X58.398 Y155.209 E0.02562
G1 X57.814 Y154.785 E0.02562
G1 X57.261 Y154.321 E0.02562
G1 X56.742 Y153.820 E0.02562
G1 X56.260 Y153.284 E0.02562
G1 X55.816 Y152.715 E0.02562
G1 X55.412 Y152.117 E0.02562
G1 X55.051 Y151.493 E0.02562
G1 X54.735 Y150.844 E0.02562
G1 X54.465 Y150.175 E0.02562
G1 X54.242 Y149.489 E0.02562
G1 X54.068 Y148.789 E0.02562
G1 X53.942 Y148.079 E0.02562
G1 X53.867 Y147.361 E0.02562
G1 X53.842 Y146.645 E0.02547
G1 X53.842 Y136.636 E0.35541
G1 X53.867 Y135.919 E0.02547
G1 X53.942 Y135.202 E0.02562
G1 X54.068 Y134.492 E0.02562
G1 X54.242 Y133.792 E0.02562
G1 X54.465 Y133.106 E0.02562
G1 X54.735 Y132.437 E0.02562
G1 X55.051 Y131.788 E0.02562
G1 X55.412 Y131.164 E0.02562
G1 X55.816 Y130.566 E0.02562
G1 X56.260 Y129.997 E0.02562
G1 X56.742 Y129.461 E0.02562
G1 X57.261 Y128.960 E0.02562
G1 X57.814 Y128.496 E0.02562
G1 X58.398 Y128.072 E0.02562
G1 X59.009 Y127.690 E0.02562
G1 X59.646 Y127.351 E0.02562
G1 X60.305 Y127.058 E0.02562
G1 X60.884 Y126.847 E0.02189
G1 X61.023 Y126.435 F10800.000
G1 F8640
G1 X61.677 Y126.612 E-0.19078
G1 X62.382 Y126.462 E-0.16657
G1 X63.097 Y126.362 E-0.16657
G1 X63.816 Y126.312 E-0.16657
G1 X64.117 Y126.312 E-0.06951
G1 E-0.04000 F2100.00000
G1 Z0.800 F10800.000
G1 X47.079 Y125.562
G1 Z0.200
G1 E0.80000 F2100.00000
G1 F900
G1 X46.983 Y125.971 E0.01491
G1 X46.822 Y126.369 E0.01524
G1 X46.608 Y126.730 E0.01491
G1 X46.339 Y127.056 E0.01502
G1 X46.023 Y127.338 E0.01502
G1 X45.676 Y127.562 E0.01469
G1 X45.473 Y127.660 E0.00798
G1 X45.273 Y127.743 E0.00770
G1 X44.874 Y127.852 E0.01468
G1 X44.442 Y127.902 E0.01546
G1 X43.832 Y127.856 E0.02173
G1 X43.412 Y127.740 E0.01548
G1 X43.033 Y127.571 E0.01472
G1 X42.849 Y127.458 E0.00765
G1 X42.665 Y127.332 E0.00794
G1 X42.355 Y127.056 E0.01474
G1 X42.086 Y126.730 E0.01502
G1 X41.871 Y126.369 E0.01491
G1 X41.791 Y126.174 E0.00748
G1 X41.711 Y125.971 E0.00776
G1 X41.615 Y125.562 E0.01491
G1 X41.583 Y125.140 E0.01502
G1 X41.615 Y124.719 E0.01502
G1 X41.711 Y124.310 E0.01491
G1 X41.791 Y124.106 E0.00776
G1 X41.871 Y123.912 E0.00748
G1 X42.086 Y123.551 E0.01491
G1 X42.355 Y123.225 E0.01502
G1 X42.671 Y122.943 E0.01502
G1 X43.018 Y122.718 E0.01469
G1 X43.220 Y122.621 E0.00798
G1 X43.421 Y122.538 E0.00770
G1 X43.819 Y122.428 E0.01468
G1 X44.252 Y122.379 E0.01546
G1 X44.862 Y122.425 E0.02173
G1 X45.282 Y122.540 E0.01548
G1 X45.660 Y122.710 E0.01472
G1 X45.844 Y122.823 E0.00766
G1 X46.029 Y122.949 E0.00794
G1 X46.339 Y123.225 E0.01474
G1 X46.608 Y123.551 E0.01502
G1 X46.822 Y123.912 E0.01491
G1 X46.983 Y124.310 E0.01524
G1 X47.079 Y124.719 E0.01491
G1 X47.111 Y125.140 E0.01502
G1 X47.083 Y125.502 E0.01289
G1 X46.507 Y126.015 F10800.000
G1 F900
G1 X46.440 Y126.177 E0.00625
G1 X46.258 Y126.483 E0.01265
G1 X46.030 Y126.759 E0.01269
G1 X45.763 Y126.997 E0.01269
G1 X45.466 Y127.189 E0.01257
G1 X45.299 Y127.270 E0.00660
G1 X45.134 Y127.338 E0.00633
G1 X44.793 Y127.432 E0.01257
G1 X44.434 Y127.473 E0.01284
G1 X43.905 Y127.433 E0.01882
G1 X43.556 Y127.337 E0.01285
G1 X43.233 Y127.192 E0.01258
G1 X42.928 Y126.995 E0.01289
G1 X42.664 Y126.759 E0.01259
G1 X42.436 Y126.483 E0.01269
G1 X42.254 Y126.177 E0.01265
G1 X42.120 Y125.844 E0.01277
G1 X42.039 Y125.497 E0.01265
G1 X42.011 Y125.140 E0.01269
G1 X42.039 Y124.784 E0.01269
G1 X42.120 Y124.437 E0.01265
G1 X42.254 Y124.104 E0.01277
G1 X42.436 Y123.797 E0.01265
G1 X42.664 Y123.522 E0.01269
G1 X42.930 Y123.284 E0.01269
G1 X43.228 Y123.091 E0.01257
G1 X43.560 Y122.943 E0.01292
G1 X43.901 Y122.849 E0.01257
G1 X44.260 Y122.807 E0.01284
G1 X44.788 Y122.848 E0.01882
G1 X45.137 Y122.944 E0.01285
G1 X45.461 Y123.089 E0.01258
G1 X45.765 Y123.286 E0.01289
G1 X46.030 Y123.522 E0.01259
G1 X46.258 Y123.797 E0.01269
G1 X46.440 Y124.104 E0.01265
G1 X46.574 Y124.437 E0.01277
G1 X46.655 Y124.784 E0.01265
G1 X46.683 Y125.140 E0.01269
G1 X46.655 Y125.497 E0.01269
G1 X46.574 Y125.844 E0.01265
G1 X46.529 Y125.959 E0.00439
G1 X46.619 Y126.150 F10800.000
G1 F8640
G1 X46.440 Y126.177 E-0.05449
G1 X46.258 Y126.483 E-0.08226
G1 X46.030 Y126.759 E-0.08252
G1 X45.763 Y126.997 E-0.08251
G1 X45.466 Y127.189 E-0.08176
G1 X45.299 Y127.270 E-0.04291
G1 X45.134 Y127.338 E-0.04113
G1 X44.793 Y127.432 E-0.08171
G1 X44.434 Y127.473 E-0.08351
G1 X43.905 Y127.433 E-0.12238
G1 X43.885 Y127.428 E-0.00483
G1 E-0.04000 F2100.00000
G1 Z0.800 F10800.000
G1 X108.859 Y135.143
G1 Z0.200
G1 E0.80000 F2100.00000
G1 F900
G1 X108.989 Y134.403 E0.02668
G1 X109.171 Y133.674 E0.02668
G1 X109.403 Y132.959 E0.02668
G1 X109.685 Y132.263 E0.02668
G1 X110.014 Y131.588 E0.02668
G1 X110.390 Y130.937 E0.02668
G1 X110.810 Y130.314 E0.02668
G1 X111.272 Y129.722 E0.02668
G1 X111.775 Y129.164 E0.02668
G1 X112.315 Y128.642 E0.02668
G1 X112.891 Y128.159 E0.02668
G1 X113.499 Y127.718 E0.02668
G1 X114.136 Y127.320 E0.02668
G1 X114.799 Y126.967 E0.02668
G1 X115.485 Y126.662 E0.02668
G1 X116.191 Y126.405 E0.02668
G1 X116.913 Y126.198 E0.02668
G1 X117.648 Y126.041 E0.02668
G1 X118.392 Y125.937 E0.02668
G1 X119.141 Y125.884 E0.02668
G1 X119.892 Y125.884 E0.02668
G1 X120.642 Y125.937 E0.02668
G1 X121.386 Y126.041 E0.02668
G1 X122.121 Y126.198 E0.02668
G1 X122.843 Y126.405 E0.02668
G1 X123.549 Y126.662 E0.02668
G1 X124.235 Y126.967 E0.02668
G1 X124.898 Y127.320 E0.02668
G1 X125.535 Y127.718 E0.02668
G1 X126.143 Y128.159 E0.02668
G1 X126.718 Y128.642 E0.02668
G1 X127.259 Y129.164 E0.02668
G1 X127.761 Y129.722 E0.02668
G1 X128.224 Y130.314 E0.02668
G1 X128.644 Y130.937 E0.02668
G1 X129.020 Y131.588 E0.02668
G1 X129.349 Y132.263 E0.02668
G1 X129.630 Y132.959 E0.02668
G1 X129.862 Y133.674 E0.02668
G1 X130.044 Y134.403 E0.02668
G1 X130.175 Y135.143 E0.02668
G1 X130.253 Y135.890 E0.02668
G1 X130.279 Y136.629 E0.02627
G1 X130.279 Y146.652 E0.35594
G1 X130.253 Y147.391 E0.02627
G1 X130.175 Y148.138 E0.02668
G1 X130.044 Y148.878 E0.02668
G1 X129.862 Y149.607 E0.02668
G1 X129.630 Y150.321 E0.02668
G1 X129.349 Y151.018 E0.02668
G1 X129.020 Y151.693 E0.02668
G1 X128.644 Y152.344 E0.02668
G1 X128.224 Y152.967 E0.02668
G1 X127.761 Y153.558 E0.02668
G1 X127.259 Y154.117 E0.02668
G1 X126.718 Y154.639 E0.02668
G1 X126.143 Y155.121 E0.02668
G1 X125.535 Y155.563 E0.02668
G1 X124.898 Y155.961 E0.02668
G1 X124.235 Y156.314 E0.02668
G1 X123.549 Y156.619 E0.02668
G1 X122.843 Y156.876 E0.02668
G1 X122.121 Y157.083 E0.02668
G1 X121.386 Y157.239 E0.02668
G1 X120.642 Y157.344 E0.02668
G1 X119.892 Y157.396 E0.02668
G1 X119.141 Y157.396 E0.02668
G1 X118.392 Y157.344 E0.02668
G1 X117.648 Y157.239 E0.02668
G1 X116.913 Y157.083 E0.02668
G1 X116.191 Y156.876 E0.02668
G1 X115.485 Y156.619 E0.02668
G1 X114.799 Y156.314 E0.02668
G1 X114.136 Y155.961 E0.02668
G1 X113.498 Y155.563 E0.02668
G1 X112.891 Y155.121 E0.02668
G1 X112.315 Y154.639 E0.02668
G1 X111.775 Y154.117 E0.02668
G1 X111.272 Y153.558 E0.02668
G1 X110.810 Y152.967 E0.02668
G1 X110.390 Y152.344 E0.02668
G1 X110.014 Y151.693 E0.02668
G1 X109.685 Y151.018 E0.02668
G1 X109.403 Y150.321 E0.02668
G1 X109.171 Y149.607 E0.02668
G1 X108.989 Y148.878 E0.02668
G1 X108.859 Y148.138 E0.02668
G1 X108.780 Y147.391 E0.02668
G1 X108.755 Y146.652 E0.02627
G1 X108.755 Y136.629 E0.35594
G1 X108.781 Y135.890 E0.02627
G1 X108.853 Y135.202 E0.02455
G1 X109.278 Y135.247 F10800.000
G1 F900
G1 X109.407 Y134.492 E0.02722
G1 X109.582 Y133.792 E0.02562
G1 X109.805 Y133.106 E0.02562
G1 X110.075 Y132.437 E0.02562
G1 X110.391 Y131.788 E0.02562
G1 X110.752 Y131.164 E0.02562
G1 X111.155 Y130.566 E0.02562
G1 X111.600 Y129.997 E0.02562
G1 X112.082 Y129.461 E0.02562
G1 X112.601 Y128.960 E0.02562
G1 X113.154 Y128.496 E0.02562
G1 X113.737 Y128.072 E0.02562
G1 X114.349 Y127.690 E0.02562
G1 X114.986 Y127.351 E0.02562
G1 X115.645 Y127.058 E0.02562
G1 X116.323 Y126.811 E0.02562
G1 X117.017 Y126.612 E0.02562
G1 X117.722 Y126.462 E0.02562
G1 X118.437 Y126.362 E0.02562
G1 X119.156 Y126.312 E0.02562
G1 X119.878 Y126.312 E0.02562
G1 X120.597 Y126.362 E0.02562
G1 X121.311 Y126.462 E0.02562
G1 X122.017 Y126.612 E0.02562
G1 X122.711 Y126.811 E0.02562
G1 X123.388 Y127.058 E0.02562
G1 X124.047 Y127.351 E0.02562
G1 X124.684 Y127.690 E0.02562
G1 X125.296 Y128.072 E0.02562
G1 X125.880 Y128.496 E0.02562
G1 X126.432 Y128.960 E0.02562
G1 X126.951 Y129.461 E0.02562
G1 X127.434 Y129.997 E0.02562
G1 X127.878 Y130.566 E0.02562
G1 X128.282 Y131.164 E0.02562
G1 X128.642 Y131.788 E0.02562
G1 X128.958 Y132.437 E0.02562
G1 X129.229 Y133.106 E0.02562
G1 X129.452 Y133.792 E0.02562
G1 X129.626 Y134.492 E0.02562
G1 X129.751 Y135.202 E0.02562
G1 X129.827 Y135.919 E0.02562
G1 X129.852 Y136.636 E0.02547
G1 X129.852 Y146.645 E0.35541
G1 X129.827 Y147.361 E0.02547
G1 X129.751 Y148.079 E0.02562
G1 X129.626 Y148.789 E0.02562
G1 X129.452 Y149.489 E0.02562
G1 X129.229 Y150.175 E0.02562
G1 X128.959 Y150.844 E0.02562
G1 X128.642 Y151.493 E0.02562
G1 X128.282 Y152.117 E0.02562
G1 X127.878 Y152.715 E0.02562
G1 X127.434 Y153.284 E0.02562
G1 X126.951 Y153.820 E0.02562
G1 X126.432 Y154.321 E0.02562
G1 X125.880 Y154.785 E0.02562
G1 X125.296 Y155.209 E0.02562
