; generated by PrusaSlicer 2.0.0+win64 on 2020-12-07 at 18:25:23

; 

; external perimeters extrusion width = 0.45mm
; perimeters extrusion width = 0.45mm
; infill extrusion width = 0.45mm
; solid infill extrusion width = 0.45mm
; top infill extrusion width = 0.40mm
; first layer extrusion width = 0.42mm

M73 P0 R74
M73 Q0 S74
M201 X1000 Y1000 Z1000 E5000 ; sets maximum accelerations, mm/sec^2
M203 X200 Y200 Z12 E120 ; sets maximum feedrates, mm/sec
M204 P1250 R1250 T1250 ; sets acceleration (P, T) and retract acceleration (R), mm/sec^2
M205 X8.00 Y8.00 Z0.40 E1.50 ; sets the jerk limits, mm/sec
M205 S0 T0 ; sets the minimum extruding and travel feed rate, mm/sec
M107
G90 ; use absolute coordinates
M83 ; extruder relative mode
M104 S215 ; set extruder temp
M140 S60 ; set bed temp
M190 S60 ; wait for bed temp
M109 S215 ; wait for extruder temp
G28 W ; home all without mesh bed level
G80 ; mesh bed leveling
G1 Y-3.0 F1000.0 ; go outside print area
G92 E0.0
G1 X60.0 E9.0 F1000.0 ; intro line
M73 Q0 S74
M73 P0 R74
G1 X100.0 E12.5 F1000.0 ; intro line
G92 E0.0
M221 S95
M900 K30 ; Filament gcode
G21 ; set units to millimeters
G90 ; use absolute coordinates
M83 ; use relative distances for extrusion
;BEFORE_LAYER_CHANGE
G92 E0.0
;0.2


G1 E-0.80000 F2100.00000
G1 Z0.600 F10800.000
;AFTER_LAYER_CHANGE
;0.2
G1 X120.629 Y98.926
G1 Z0.200
G1 E0.80000 F2100.00000
M204 S1000
G1 F900
G1 X122.072 Y98.113 E0.05192
G1 X123.334 Y97.700 E0.04162
G1 X124.985 Y97.513 E0.05210
G1 X126.491 Y97.661 E0.04747
G1 X128.028 Y98.152 E0.05059
G1 X129.328 Y98.887 E0.04682
G1 X130.521 Y99.943 E0.04994
G1 X131.427 Y101.159 E0.04756
G1 X131.977 Y102.288 E0.03935
G1 X132.378 Y103.710 E0.04634
G1 X132.484 Y105.183 E0.04629
G1 X132.257 Y106.825 E0.05197
G1 X131.826 Y108.068 E0.04127
G1 X131.109 Y109.334 E0.04563
G1 X130.053 Y110.522 E0.04983
G1 X128.934 Y111.364 E0.04392
G1 X127.575 Y112.029 E0.04741
G1 X126.313 Y112.371 E0.04099
G1 X125.028 Y112.487 E0.04047
G1 X123.534 Y112.344 E0.04707
G1 X122.077 Y111.892 E0.04781
G1 X120.784 Y111.190 E0.04615
G1 X119.876 Y110.457 E0.03658
G1 X118.913 Y109.352 E0.04594
G1 X118.399 Y108.537 E0.03023
G1 X118.090 Y107.877 E0.02283
G1 X117.639 Y106.381 E0.04900
G1 X117.511 Y105.054 E0.04179
G1 X117.641 Y103.642 E0.04448
G1 X117.975 Y102.411 E0.03999
G1 X118.493 Y101.299 E0.03844
G1 X118.899 Y100.655 E0.02386
G1 X119.495 Y99.927 E0.02952
G1 X120.585 Y98.966 E0.04556
G1 X120.833 Y99.246 F10800.000
G1 F900
G1 X122.223 Y98.458 E0.05009
G1 X123.411 Y98.069 E0.03919
G1 X124.984 Y97.890 E0.04967
G1 X126.415 Y98.030 E0.04506
G1 X127.879 Y98.498 E0.04820
G1 X129.110 Y99.195 E0.04436
G1 X130.252 Y100.207 E0.04786
G1 X131.116 Y101.373 E0.04550
G1 X131.625 Y102.424 E0.03661
G1 X132.007 Y103.777 E0.04408
G1 X132.107 Y105.185 E0.04426
G1 X131.889 Y106.742 E0.04930
G1 X131.480 Y107.917 E0.03902
G1 X130.802 Y109.115 E0.04315
G1 X129.788 Y110.254 E0.04781
G1 X128.712 Y111.058 E0.04212
G1 X127.434 Y111.679 E0.04455
G1 X126.243 Y112.000 E0.03868
G1 X125.027 Y112.110 E0.03826
G1 X123.605 Y111.974 E0.04481
G1 X122.215 Y111.541 E0.04564
G1 X120.988 Y110.873 E0.04381
G1 X120.143 Y110.190 E0.03404
G1 X119.224 Y109.139 E0.04378
G1 X118.436 Y107.729 E0.05064
G1 X118.008 Y106.305 E0.04664
G1 X117.888 Y105.053 E0.03943
G1 X118.012 Y103.709 E0.04233
G1 X118.326 Y102.549 E0.03768
G1 X118.812 Y101.500 E0.03623
G1 X119.761 Y100.195 E0.05060
G1 X120.788 Y99.286 E0.04301
G1 X121.037 Y99.566 F10800.000
G1 F900
G1 X122.374 Y98.804 E0.04826
G1 X123.488 Y98.439 E0.03677
G1 X124.984 Y98.267 E0.04723
G1 X126.338 Y98.400 E0.04266
G1 X127.740 Y98.849 E0.04616
G1 X128.893 Y99.503 E0.04154
G1 X129.983 Y100.472 E0.04575
G1 X130.797 Y101.575 E0.04299
G1 X131.273 Y102.560 E0.03429
G1 X131.636 Y103.844 E0.04185
G1 X131.730 Y105.184 E0.04210
G1 X131.522 Y106.660 E0.04674
G1 X131.136 Y107.763 E0.03664
G1 X130.495 Y108.896 E0.04082
G1 X129.523 Y109.986 E0.04577
G1 X128.513 Y110.737 E0.03947
G1 X127.297 Y111.328 E0.04241
G1 X126.176 Y111.629 E0.03639
G1 X125.027 Y111.733 E0.03618
G1 X123.679 Y111.604 E0.04243
G1 X122.356 Y111.191 E0.04348
G1 X121.194 Y110.557 E0.04147
G1 X120.407 Y109.921 E0.03173
G1 X119.534 Y108.925 E0.04153
G1 X118.783 Y107.579 E0.04834
G1 X118.378 Y106.232 E0.04412
G1 X118.265 Y105.052 E0.03716
G1 X118.383 Y103.775 E0.04021
G1 X118.677 Y102.685 E0.03538
G1 X119.132 Y101.699 E0.03405
G1 X120.030 Y100.459 E0.04802
G1 X120.992 Y99.606 E0.04029
G1 F8640
G1 X122.374 Y98.804 E-0.36899
G1 X123.488 Y98.439 E-0.27076
G1 X124.005 Y98.379 E-0.12025
G1 E-0.04000 F2100.00000
G1 Z0.800 F10800.000
G1 X122.680 Y102.960
G1 Z0.200
G1 E0.80000 F2100.00000
G1 F900
G1 X123.134 Y102.546 E0.01924
G1 X123.516 Y102.291 E0.01439
G1 X124.022 Y102.074 E0.01729
G1 X124.767 Y101.922 E0.02384
G1 X125.343 Y101.932 E0.01803
G1 X125.966 Y102.072 E0.02004
G1 X126.642 Y102.387 E0.02338
G1 X127.210 Y102.846 E0.02289
G1 X127.556 Y103.272 E0.01719
G1 X127.922 Y104.005 E0.02571
G1 X128.078 Y104.767 E0.02439
G1 X128.068 Y105.343 E0.01804
G1 X127.928 Y105.966 E0.02004
G1 X127.613 Y106.642 E0.02338
G1 X127.154 Y107.210 E0.02289
G1 X126.728 Y107.556 E0.01719
G1 X126.001 Y107.919 E0.02551
G1 X125.343 Y108.068 E0.02114
G1 X124.769 Y108.078 E0.01801
G1 X124.040 Y107.931 E0.02331
G1 X123.372 Y107.620 E0.02310
G1 X122.960 Y107.320 E0.01600
G1 X122.546 Y106.866 E0.01924
G1 X122.291 Y106.484 E0.01439
G1 X122.077 Y105.984 E0.01708
G1 X121.932 Y105.343 E0.02059
G1 X121.922 Y104.769 E0.01801
G1 X122.069 Y104.040 E0.02331
G1 X122.380 Y103.372 E0.02310
G1 X122.645 Y103.008 E0.01412
G1 X122.950 Y103.230 F10800.000
G1 F900
G1 X123.367 Y102.844 E0.01781
G1 X123.696 Y102.624 E0.01241
G1 X124.135 Y102.436 E0.01498
G1 X124.802 Y102.300 E0.02134
G1 X125.298 Y102.308 E0.01553
G1 X125.844 Y102.431 E0.01755
G1 X126.441 Y102.709 E0.02066
G1 X126.942 Y103.114 E0.02021
G1 X127.237 Y103.477 E0.01465
G1 X127.563 Y104.129 E0.02286
G1 X127.700 Y104.802 E0.02154
G1 X127.692 Y105.298 E0.01553
G1 X127.569 Y105.844 E0.01755
G1 X127.291 Y106.441 E0.02066
G1 X126.886 Y106.942 E0.02021
G1 X126.523 Y107.237 E0.01465
G1 X125.873 Y107.562 E0.02278
G1 X125.298 Y107.692 E0.01849
G1 X124.803 Y107.700 E0.01551
G1 X124.159 Y107.570 E0.02062
G1 X123.565 Y107.293 E0.02055
G1 X123.212 Y107.037 E0.01365
G1 X122.844 Y106.633 E0.01715
G1 X122.624 Y106.304 E0.01241
G1 X122.437 Y105.867 E0.01490
G1 X122.308 Y105.298 E0.01829
G1 X122.300 Y104.803 E0.01551
G1 X122.430 Y104.159 E0.02062
G1 X122.707 Y103.565 E0.02055
G1 X122.915 Y103.278 E0.01110
G1 X122.822 Y102.851 F10800.000
G1 F8640
G1 X123.367 Y102.844 E-0.14475
G1 X123.696 Y102.624 E-0.09142
G1 X124.135 Y102.436 E-0.11032
G1 X124.802 Y102.300 E-0.15717
G1 X125.298 Y102.308 E-0.11440
G1 X125.844 Y102.431 E-0.12923
G1 X125.894 Y102.454 E-0.01271
G1 E-0.04000 F2100.00000
G1 Z0.800 F10800.000
G1 X121.649 Y103.111
G1 Z0.200
G1 E0.80000 F2100.00000
G1 F900
G1 X122.115 Y102.458 E0.02517
G1 X122.419 Y102.145 E0.01370
G1 X122.816 Y101.826 E0.01595
G1 X123.089 Y101.667 E0.00989
G1 X123.962 Y101.305 E0.02965
G1 X124.216 Y101.236 E0.00825
G1 X124.898 Y101.165 E0.02149
G1 X125.623 Y101.220 E0.02281
G1 X126.164 Y101.331 E0.01730
G1 X126.390 Y101.422 E0.00765
G1 X126.434 Y101.459 E0.00179
G1 X126.872 Y101.668 E0.01522
G1 X127.155 Y101.841 E0.01042
G1 X127.501 Y102.088 E0.01333
G1 X127.742 Y102.295 E0.00996
G1 X128.128 Y102.775 E0.01931
G1 X128.329 Y103.106 E0.01216
G1 X128.470 Y103.398 E0.01016
G1 X128.674 Y103.874 E0.01623
G1 X128.751 Y104.128 E0.00830
G1 X128.831 Y104.795 E0.02108
G1 X128.807 Y105.504 E0.02225
G1 X128.710 Y106.006 E0.01602
G1 X128.606 Y106.296 E0.00967
G1 X128.554 Y106.345 E0.00221
G1 X128.439 Y106.720 E0.01231
G1 X128.351 Y106.889 E0.00596
G1 X127.880 Y107.548 E0.02542
G1 X127.710 Y107.734 E0.00789
G1 X127.452 Y107.969 E0.01093
G1 X127.184 Y108.174 E0.01059
G1 X126.812 Y108.381 E0.01334
G1 X126.038 Y108.695 E0.02619
G1 X125.790 Y108.762 E0.00806
G1 X125.103 Y108.835 E0.02165
G1 X124.373 Y108.779 E0.02295
G1 X123.835 Y108.669 E0.01721
G1 X123.610 Y108.578 E0.00762
G1 X123.566 Y108.541 E0.00179
G1 X123.134 Y108.335 E0.01501
G1 X122.634 Y108.013 E0.01866
G1 X122.257 Y107.703 E0.01528
G1 X121.731 Y107.025 E0.02691
G1 X121.500 Y106.577 E0.01580
G1 X121.329 Y106.136 E0.01485
G1 X121.249 Y105.874 E0.00856
G1 X121.172 Y105.198 E0.02135
G1 X121.178 Y104.629 E0.01785
G1 X121.289 Y104.000 E0.02001
G1 X121.621 Y103.165 E0.02819
G1 X121.286 Y102.991 F10800.000
G1 F900
G1 X121.825 Y102.216 E0.02959
G1 X122.165 Y101.865 E0.01532
G1 X122.602 Y101.514 E0.01757
G1 X122.921 Y101.328 E0.01158
G1 X123.780 Y100.963 E0.02927
G1 X124.143 Y100.866 E0.01179
G1 X124.892 Y100.787 E0.02360
G1 X125.678 Y100.847 E0.02472
G1 X126.273 Y100.968 E0.01904
G1 X126.588 Y101.096 E0.01066
G1 X126.641 Y101.140 E0.00216
G1 X127.052 Y101.336 E0.01427
G1 X127.363 Y101.527 E0.01144
G1 X127.734 Y101.790 E0.01428
G1 X128.015 Y102.032 E0.01160
G1 X128.437 Y102.558 E0.02117
G1 X128.661 Y102.926 E0.01349
G1 X128.814 Y103.242 E0.01100
G1 X129.029 Y103.745 E0.01715
G1 X129.121 Y104.049 E0.00999
G1 X129.209 Y104.779 E0.02304
G1 X129.183 Y105.547 E0.02408
G1 X129.075 Y106.106 E0.01787
G1 X128.930 Y106.507 E0.01338
G1 X128.886 Y106.550 E0.00192
G1 X128.789 Y106.863 E0.01029
G1 X128.674 Y107.086 E0.00786
G1 X128.173 Y107.786 E0.02699
G1 X127.976 Y108.001 E0.00914
G1 X127.695 Y108.259 E0.01197
G1 X127.391 Y108.491 E0.01198
G1 X126.974 Y108.722 E0.01494
G1 X126.220 Y109.037 E0.02564
G1 X125.859 Y109.134 E0.01172
G1 X125.108 Y109.213 E0.02365
G1 X124.321 Y109.153 E0.02478
G1 X123.726 Y109.031 E0.01903
G1 X123.412 Y108.904 E0.01062
G1 X123.359 Y108.860 E0.00216
G1 X122.950 Y108.665 E0.01420
G1 X122.411 Y108.318 E0.02011
G1 X121.985 Y107.968 E0.01729
G1 X121.411 Y107.229 E0.02933
G1 X121.155 Y106.732 E0.01753
G1 X120.972 Y106.259 E0.01591
G1 X120.879 Y105.951 E0.01008
G1 X120.796 Y105.223 E0.02298
G1 X120.788 Y104.822 E0.01259
G1 X120.803 Y104.583 E0.00749
G1 X120.925 Y103.896 E0.02189
G1 X121.259 Y103.045 E0.02868
G1 X121.686 Y102.983 F10800.000
G1 X121.807 Y103.085
G1 F900
G1 X122.077 Y103.354 E0.01206
G1 X122.136 Y103.228 E0.00441
G1 X122.284 Y103.024 E0.00799
G1 X122.153 Y102.892 E0.00588
G1 X122.333 Y102.640 E0.00982
G1 X122.385 Y102.587 E0.00235
G1 X122.521 Y102.722 E0.00608
G1 X122.802 Y102.466 E0.01204
G1 X122.654 Y102.318 E0.00661
G1 X122.953 Y102.079 E0.01210
G1 X123.102 Y102.228 E0.00666
G1 X123.431 Y102.020 E0.01233
G1 X123.298 Y101.886 E0.00596
G1 X123.678 Y101.729 E0.01302
G1 X123.808 Y101.858 E0.00580
G1 X123.938 Y101.803 E0.00446
G1 X124.231 Y101.743 E0.00946
G1 X124.059 Y101.571 E0.00768
G1 X124.271 Y101.515 E0.00694
G1 X124.510 Y101.485 E0.00763
G1 X124.836 Y101.810 E0.01456
G1 X125.264 Y101.742 F10800.000
G1 F900
G1 X125.299 Y101.381 E0.00538
G1 X125.856 Y101.383 F10800.000
G1 F900
G1 X127.020 Y102.547 E0.05422
G1 X126.786 Y101.752 F10800.000
G1 F900
G1 X128.263 Y103.230 E0.06884
G1 F8640
G1 X126.786 Y101.752 E-0.48251
G1 E-0.31749 F2100.00000
G1 Z0.800 F10800.000
G1 X128.642 Y104.169
G1 Z0.200
G1 E0.80000 F2100.00000
G1 F900
G1 X127.999 Y103.526 E0.02997
G1 X128.192 Y103.912 E0.01423
G1 X128.286 Y104.373 E0.01549
G1 X128.525 Y104.612 E0.01112
G1 X128.548 Y104.807 E0.00648
G1 X128.535 Y105.182 E0.01237
G1 X128.357 Y105.004 E0.00831
G1 X128.350 Y105.376 E0.01226
G1 X128.317 Y105.525 E0.00502
G1 X128.483 Y105.691 E0.00773
G1 X128.437 Y105.931 E0.00805
G1 X128.364 Y106.132 E0.00705
G1 X128.215 Y105.983 E0.00697
G1 X128.198 Y106.058 E0.00255
G1 X128.049 Y106.377 E0.01159
G1 X128.201 Y106.530 E0.00711
G1 X128.176 Y106.612 E0.00284
G1 X128.002 Y106.891 E0.01082
G1 X127.870 Y106.759 E0.00614
G1 X127.626 Y107.075 E0.01316
G1 X127.769 Y107.218 E0.00663
G1 X127.517 Y107.526 E0.01312
G1 X127.376 Y107.385 E0.00655
G1 X127.072 Y107.641 E0.01310
G1 X127.221 Y107.790 E0.00695
G1 X127.029 Y107.937 E0.00797
G1 X126.886 Y108.016 E0.00536
G1 X126.611 Y107.741 E0.01282
G1 X126.132 Y108.064 F10800.000
G1 F900
G1 X126.260 Y108.400 E0.00342
G1 X125.712 Y108.656 F10800.000
G1 F900
G1 X125.239 Y108.183 E0.02225
G1 X124.786 Y108.266 F10800.000
G1 F900
G1 X124.756 Y108.619 E0.00424
G1 X124.117 Y108.611 F10800.000
G1 F900
G1 X123.704 Y108.198 E0.02198
G1 X123.605 Y108.143 F10800.000
G1 F900
G1 X123.201 Y107.943 E0.01398
G1
G1 X122.783 Y107.659 E0.01491
G1 X122.633 Y107.676 F10800.000
G1 F900
G1 X121.725 Y106.768 E0.04061
G1 F8640
G1 X122.633 Y107.676 E-0.29652
G1 E-0.50348 F2100.00000
G1 Z0.800 F10800.000
G1 X122.723 Y107.228
G1 Z0.200
G1 E0.80000 F2100.00000
G1 F900
G1 X121.633 Y106.138 E0.04875
G1 X121.597 Y106.043 E0.00322
G1 X121.528 Y105.817 E0.00749
G1 X121.486 Y105.453 E0.01157
G1 X121.720 Y105.687 E0.01044
G1 X121.650 Y105.377 E0.01004
G1 X121.645 Y105.074 E0.00959
G1 X121.449 Y104.878 E0.00875
G1 X121.459 Y104.662 E0.00683
G1 X121.506 Y104.397 E0.00851
G1 X121.819 Y104.710 E0.01398
G1 X121.723 Y103.807 F10800.000
G1 F900
G1 X121.590 Y103.758 E0.00072
M106 S255
;BEFORE_LAYER_CHANGE
G92 E0.0
;0.35


G1 F8640
G1 X121.723 Y103.807 E-0.03285
G1 E-0.76715 F2100.00000
G1 Z0.800 F10800.000
;AFTER_LAYER_CHANGE
;0.35
G1 X117.975 Y102.411
G1 Z0.350
G1 E0.80000 F2100.00000
G1 F900
G1 X118.493 Y101.299 E0.02965
G1 X118.899 Y100.655 E0.01841
G1 X119.495 Y99.927 E0.02277
G1 X120.629 Y98.926 E0.03659
G1 X122.072 Y98.113 E0.04005
G1 X123.334 Y97.700 E0.03210
G1 X124.985 Y97.513 E0.04018
G1 X126.491 Y97.661 E0.03662
G1 X128.028 Y98.152 E0.03902
G1 X129.328 Y98.887 E0.03611
G1 X130.521 Y99.943 E0.03852
G1 X131.427 Y101.159 E0.03669
G1 X131.977 Y102.288 E0.03035
G1 X132.378 Y103.710 E0.03575
G1 X132.484 Y105.183 E0.03571
G1 X132.257 Y106.825 E0.04008
G1 X131.826 Y108.068 E0.03183
G1 X131.109 Y109.334 E0.03520
G1 X130.053 Y110.522 E0.03844
G1 X128.934 Y111.364 E0.03388
G1 X127.575 Y112.029 E0.03657
G1 X126.313 Y112.371 E0.03162
G1 X125.028 Y112.487 E0.03121
G1 X123.534 Y112.344 E0.03631
G1 X122.077 Y111.892 E0.03688
G1 X120.784 Y111.190 E0.03560
G1 X119.876 Y110.457 E0.02822
G1 X118.913 Y109.352 E0.03543
G1 X118.399 Y108.537 E0.02332
G1 X118.090 Y107.877 E0.01761
G1 X117.639 Y106.381 E0.03780
G1 X117.511 Y105.054 E0.03223
G1 X117.641 Y103.642 E0.03431
G1 X117.959 Y102.469 E0.02940
G1 F8640
G1 X118.493 Y101.299 E-0.29676
G1 X118.899 Y100.655 E-0.17574
G1 X119.495 Y99.927 E-0.21740
G1 X119.723 Y99.726 E-0.07010
G1 E-0.04000 F2100.00000
G1 Z0.950 F10800.000
G1 X122.017 Y104.019
G1 Z0.350
G1 E0.80000 F2100.00000
M204 S800
G1 F900
G1 X122.332 Y103.345 E0.01938
G1 X122.638 Y102.923 E0.01357
G1 X123.097 Y102.505 E0.01618
G1 X123.487 Y102.243 E0.01226
G1 X124.006 Y102.020 E0.01470
G1 X124.755 Y101.868 E0.01992
G1 X125.344 Y101.876 E0.01536
G1 X125.987 Y102.020 E0.01718
G1 X126.670 Y102.339 E0.01963
G1 X127.244 Y102.802 E0.01922
G1 X127.604 Y103.242 E0.01481
G1 X127.976 Y103.987 E0.02170
G1 X128.133 Y104.763 E0.02061
G1 X128.124 Y105.345 E0.01518
G1 X127.980 Y105.987 E0.01715
G1 X127.661 Y106.670 E0.01963
G1 X127.198 Y107.244 E0.01923
G1 X126.758 Y107.604 E0.01481
G1 X126.019 Y107.973 E0.02152
G1 X125.348 Y108.124 E0.01792
G1 X124.766 Y108.134 E0.01517
G1 X124.019 Y107.983 E0.01985
G1 X123.345 Y107.668 E0.01938
G1 X122.923 Y107.362 E0.01357
G1 X122.505 Y106.903 E0.01618
G1 X122.243 Y106.513 E0.01226
G1 X122.023 Y106.000 E0.01452
G1 X121.876 Y105.348 E0.01743
G1 X121.866 Y104.766 E0.01517
G1 X122.005 Y104.078 E0.01828
M204 S1000
G1 X122.415 Y104.160 F10800.000
M204 S800
G1 F900
G1 X122.693 Y103.558 E0.01729
G1 X122.951 Y103.203 E0.01142
G1 X123.355 Y102.835 E0.01426
G1 X123.688 Y102.611 E0.01044
G1 X124.131 Y102.421 E0.01256
G1 X124.794 Y102.286 E0.01763
G1 X125.295 Y102.293 E0.01305
G1 X125.852 Y102.418 E0.01486
G1 X126.447 Y102.696 E0.01712
G1 X126.948 Y103.099 E0.01676
G1 X127.250 Y103.470 E0.01247
G1 X127.577 Y104.125 E0.01905
G1 X127.715 Y104.801 E0.01799
G1 X127.707 Y105.295 E0.01288
G1 X127.582 Y105.852 E0.01485
G1 X127.304 Y106.447 E0.01712
G1 X126.901 Y106.948 E0.01677
G1 X126.530 Y107.250 E0.01247
G1 X125.878 Y107.576 E0.01899
G1 X125.298 Y107.707 E0.01548
G1 X124.804 Y107.715 E0.01288
G1 X124.151 Y107.583 E0.01737
G1 X123.558 Y107.307 E0.01704
G1 X123.203 Y107.049 E0.01142
G1 X122.835 Y106.645 E0.01426
G1 X122.611 Y106.312 E0.01044
