; generated by PrusaSlicer 2.0.0+win64 on 2020-12-08 at 09:45:33

; 

; external perimeters extrusion width = 0.45mm
; perimeters extrusion width = 0.45mm
; infill extrusion width = 0.45mm
; solid infill extrusion width = 0.45mm
; top infill extrusion width = 0.40mm
; first layer extrusion width = 0.47mm

M73 P0 R17
M73 Q0 S17
M201 X1000 Y1000 Z1000 E5000 ; sets maximum accelerations, mm/sec^2
M203 X200 Y200 Z12 E120 ; sets maximum feedrates, mm/sec
M204 P1250 R1250 T1250 ; sets acceleration (P, T) and retract acceleration (R), mm/sec^2
M205 X8.00 Y8.00 Z0.40 E1.50 ; sets the jerk limits, mm/sec
M205 S0 T0 ; sets the minimum extruding and travel feed rate, mm/sec
M107
G90 ; use absolute coordinates
M83 ; extruder relative mode
M104 S215 ; set extruder temp
M140 S60 ; set bed temp
M190 S60 ; wait for bed temp
M109 S215 ; wait for extruder temp
G28 W ; home all without mesh bed level
G80 ; mesh bed leveling
G1 Y-3.0 F1000.0 ; go outside print area
G92 E0.0
G1 X60.0 E9.0 F1000.0 ; intro line
M73 Q0 S17
M73 P0 R17
G1 X100.0 E12.5 F1000.0 ; intro line
G92 E0.0
M221 S95
M900 K30 ; Filament gcode
G21 ; set units to millimeters
G90 ; use absolute coordinates
M83 ; use relative distances for extrusion
;BEFORE_LAYER_CHANGE
G92 E0.0
;0.2


G1 E-0.80000 F2100.00000
G1 Z0.600 F10800.000
;AFTER_LAYER_CHANGE
;0.2
G1 X117.957 Y100.026
G1 Z0.200
G1 E0.80000 F2100.00000
M204 S1000
G1 F900
G1 X118.958 Y98.847 E0.05492
G1 X120.169 Y97.858 E0.05553
G1 X120.801 Y97.470 E0.02632
G1 X121.886 Y96.960 E0.04260
G1 X123.376 Y96.531 E0.05507
G1 X124.889 Y96.378 E0.05400
G1 X125.663 Y96.404 E0.02749
G1 X126.855 Y96.581 E0.04281
G1 X128.334 Y97.048 E0.05507
G1 X129.711 Y97.780 E0.05538
G1 X130.313 Y98.211 E0.02631
G1 X131.205 Y99.015 E0.04260
G1 X132.180 Y100.226 E0.05522
G1 X132.918 Y101.590 E0.05507
G1 X133.182 Y102.286 E0.02647
G1 X133.481 Y103.453 E0.04275
G1 X133.622 Y105.001 E0.05522
G1 X133.481 Y106.546 E0.05507
G1 X133.182 Y107.714 E0.04281
G1 X132.918 Y108.409 E0.02641
G1 X132.181 Y109.773 E0.05507
G1 X131.203 Y110.987 E0.05537
G1 X130.313 Y111.789 E0.04251
G1 X129.709 Y112.222 E0.02641
G1 X128.332 Y112.953 E0.05538
G1 X126.853 Y113.420 E0.05507
G1 X125.660 Y113.596 E0.04281
G1 X124.882 Y113.622 E0.02764
G1 X123.289 Y113.451 E0.05690
G1 X122.563 Y113.270 E0.02656
G1 X121.441 Y112.853 E0.04251
G1 X120.084 Y112.085 E0.05537
G1 X118.898 Y111.092 E0.05492
G1 X118.390 Y110.535 E0.02678
G1 X117.685 Y109.565 E0.04260
G1 X116.985 Y108.181 E0.05507
G1 X116.545 Y106.690 E0.05522
G1 X116.432 Y105.959 E0.02626
G1 X116.381 Y104.767 E0.04235
G1 X116.563 Y103.214 E0.05553
G1 X117.021 Y101.733 E0.05507
G1 X117.335 Y101.052 E0.02662
G1 X117.926 Y100.078 E0.04047
G1 X118.301 Y100.284 F10800.000
G1 F900
G1 X119.258 Y99.152 E0.05263
G1 X120.400 Y98.218 E0.05240
G1 X122.047 Y97.356 E0.06601
G1 X123.458 Y96.951 E0.05211
G1 X124.886 Y96.805 E0.05098
G1 X125.620 Y96.829 E0.02608
G1 X126.771 Y96.999 E0.04131
G1 X128.170 Y97.442 E0.05211
G1 X129.469 Y98.132 E0.05226
G1 X130.902 Y99.316 E0.06601
G1 X131.825 Y100.463 E0.05225
G1 X132.523 Y101.753 E0.05211
G1 X133.063 Y103.540 E0.06629
G1 X133.195 Y105.002 E0.05211
G1 X133.062 Y106.463 E0.05211
G1 X132.523 Y108.246 E0.06615
G1 X131.825 Y109.537 E0.05211
G1 X130.902 Y110.683 E0.05225
G1 X129.470 Y111.868 E0.06601
G1 X128.170 Y112.558 E0.05226
G1 X126.771 Y113.001 E0.05211
G1 X125.616 Y113.171 E0.04145
G1 X124.882 Y113.195 E0.02608
G1 X123.379 Y113.033 E0.05367
G1 X121.607 Y112.459 E0.06615
G1 X120.324 Y111.731 E0.05240
G1 X119.205 Y110.794 E0.05183
G1 X118.042 Y109.329 E0.06644
G1 X117.380 Y108.019 E0.05211
G1 X116.965 Y106.612 E0.05211
G1 X116.808 Y104.767 E0.06573
G1 X116.982 Y103.298 E0.05254
G1 X117.414 Y101.900 E0.05197
G1 X118.272 Y100.336 E0.06334
G1 X118.645 Y100.541 F10800.000
G1 F900
G1 X119.561 Y99.453 E0.05051
G1 X120.632 Y98.576 E0.04916
G1 X122.212 Y97.750 E0.06331
G1 X123.539 Y97.370 E0.04903
G1 X124.887 Y97.233 E0.04812
G1 X126.690 Y97.419 E0.06435
G1 X128.006 Y97.837 E0.04903
G1 X129.229 Y98.485 E0.04916
G1 X130.603 Y99.621 E0.06331
G1 X131.470 Y100.700 E0.04916
G1 X132.128 Y101.914 E0.04903
G1 X132.644 Y103.624 E0.06344
G1 X132.768 Y104.999 E0.04903
G1 X132.645 Y106.374 E0.04903
G1 X132.128 Y108.085 E0.06344
G1 X131.471 Y109.298 E0.04903
G1 X130.601 Y110.381 E0.04929
G1 X129.230 Y111.514 E0.06318
G1 X128.004 Y112.164 E0.04929
G1 X126.688 Y112.582 E0.04903
G1 X124.882 Y112.767 E0.06448
G1 X123.472 Y112.616 E0.05033
G1 X121.773 Y112.066 E0.06344
G1 X120.569 Y111.382 E0.04916
G1 X119.513 Y110.499 E0.04890
G1 X118.398 Y109.093 E0.06370
G1 X117.778 Y107.864 E0.04890
G1 X117.385 Y106.537 E0.04916
G1 X117.236 Y104.767 E0.06305
G1 X117.400 Y103.386 E0.04942
G1 X117.807 Y102.066 E0.04903
G1 X118.616 Y100.594 E0.05967
G1 F8640
G1 X119.561 Y99.453 E-0.34202
G1 X120.632 Y98.576 E-0.31963
G1 X121.010 Y98.379 E-0.09836
G1 E-0.04000 F2100.00000
G1 Z0.800 F10800.000
G1 X121.573 Y102.558
G1 Z0.200
G1 E0.80000 F2100.00000
G1 F900
G1 X121.813 Y102.249 E0.01388
G1 X122.054 Y101.993 E0.01252
G1 X122.316 Y101.757 E0.01252
G1 X122.597 Y101.543 E0.01252
G1 X122.895 Y101.355 E0.01252
G1 X123.207 Y101.191 E0.01252
G1 X123.532 Y101.055 E0.01252
G1 X123.867 Y100.946 E0.01252
G1 X124.211 Y100.865 E0.01252
G1 X124.554 Y100.814 E0.01232
G1 X125.009 Y100.794 E0.01617
G1 X125.614 Y100.836 E0.02156
G1 X125.961 Y100.902 E0.01252
G1 X126.300 Y100.997 E0.01252
G1 X126.625 Y101.118 E0.01232
G1 X127.255 Y101.446 E0.02521
G1 X127.544 Y101.647 E0.01252
G1 X127.816 Y101.872 E0.01252
G1 X128.068 Y102.118 E0.01252
G1 X128.298 Y102.385 E0.01252
G1 X128.505 Y102.671 E0.01252
G1 X128.688 Y102.972 E0.01252
G1 X128.845 Y103.288 E0.01252
G1 X128.973 Y103.610 E0.01232
G1 X129.097 Y104.049 E0.01617
G1 X129.194 Y104.648 E0.02156
G1 X129.209 Y105.000 E0.01252
G1 X129.194 Y105.352 E0.01252
G1 X129.150 Y105.702 E0.01252
G1 X129.077 Y106.047 E0.01252
G1 X128.975 Y106.384 E0.01252
G1 X128.847 Y106.707 E0.01232
G1 X128.505 Y107.329 E0.02521
G1 X128.298 Y107.615 E0.01252
G1 X128.068 Y107.882 E0.01252
G1 X127.816 Y108.128 E0.01252
G1 X127.544 Y108.353 E0.01252
G1 X127.255 Y108.554 E0.01252
G1 X126.950 Y108.730 E0.01252
G1 X126.631 Y108.880 E0.01252
G1 X126.300 Y109.003 E0.01252
G1 X125.961 Y109.098 E0.01252
G1 X125.614 Y109.164 E0.01252
G1 X125.264 Y109.201 E0.01252
G1 X124.911 Y109.208 E0.01252
G1 X124.559 Y109.186 E0.01252
G1 X124.216 Y109.136 E0.01232
G1 X123.532 Y108.945 E0.02521
G1 X123.207 Y108.809 E0.01252
G1 X122.895 Y108.645 E0.01252
G1 X122.597 Y108.457 E0.01252
G1 X122.316 Y108.243 E0.01252
G1 X122.054 Y108.007 E0.01252
G1 X121.813 Y107.751 E0.01252
G1 X121.594 Y107.474 E0.01252
G1 X121.399 Y107.181 E0.01252
G1 X121.229 Y106.872 E0.01252
G1 X121.086 Y106.550 E0.01252
G1 X120.970 Y106.217 E0.01252
G1 X120.882 Y105.875 E0.01252
G1 X120.823 Y105.528 E0.01252
G1 X120.794 Y105.176 E0.01252
G1 X120.794 Y104.824 E0.01252
G1 X120.823 Y104.472 E0.01252
G1 X120.882 Y104.125 E0.01252
G1 X120.968 Y103.789 E0.01232
G1 X121.125 Y103.361 E0.01617
G1 X121.229 Y103.128 E0.00906
G1 X121.539 Y102.608 E0.02152
G1 X121.184 Y102.372 F10800.000
G1 F900
G1 X121.489 Y101.970 E0.01791
G1 X121.755 Y101.687 E0.01379
G1 X122.044 Y101.427 E0.01379
G1 X122.353 Y101.192 E0.01379
G1 X122.681 Y100.984 E0.01379
G1 X123.025 Y100.804 E0.01379
G1 X123.383 Y100.654 E0.01379
G1 X123.752 Y100.534 E0.01379
G1 X124.131 Y100.445 E0.01379
G1 X124.513 Y100.389 E0.01372
G1 X125.003 Y100.366 E0.01744
G1 X125.291 Y100.372 E0.01020
G1 X125.677 Y100.413 E0.01379
G1 X126.058 Y100.486 E0.01379
G1 X126.432 Y100.590 E0.01379
G1 X126.794 Y100.725 E0.01372
G1 X127.484 Y101.085 E0.02763
G1 X127.803 Y101.307 E0.01379
G1 X128.102 Y101.554 E0.01379
G1 X128.379 Y101.826 E0.01379
G1 X128.633 Y102.120 E0.01379
G1 X128.862 Y102.434 E0.01379
G1 X129.063 Y102.766 E0.01379
G1 X129.235 Y103.114 E0.01379
G1 X129.378 Y103.473 E0.01372
G1 X129.512 Y103.946 E0.01744
G1 X129.571 Y104.227 E0.01020
G1 X129.620 Y104.612 E0.01379
G1 X129.636 Y105.000 E0.01379
G1 X129.620 Y105.388 E0.01379
G1 X129.571 Y105.773 E0.01379
G1 X129.491 Y106.153 E0.01379
G1 X129.378 Y106.525 E0.01379
G1 X129.236 Y106.884 E0.01372
G1 X128.862 Y107.566 E0.02763
G1 X128.633 Y107.880 E0.01379
G1 X128.379 Y108.174 E0.01379
G1 X128.102 Y108.446 E0.01379
G1 X127.803 Y108.693 E0.01379
G1 X127.484 Y108.915 E0.01379
G1 X127.148 Y109.109 E0.01379
G1 X126.796 Y109.275 E0.01379
G1 X126.432 Y109.410 E0.01379
G1 X126.058 Y109.514 E0.01379
G1 X125.677 Y109.587 E0.01379
G1 X125.291 Y109.628 E0.01379
G1 X124.902 Y109.636 E0.01379
G1 X124.515 Y109.611 E0.01379
G1 X124.132 Y109.555 E0.01372
G1 X123.383 Y109.346 E0.02763
G1 X123.025 Y109.196 E0.01379
G1 X122.681 Y109.016 E0.01379
G1 X122.353 Y108.808 E0.01379
G1 X122.044 Y108.573 E0.01379
G1 X121.755 Y108.313 E0.01379
G1 X121.489 Y108.030 E0.01379
G1 X121.248 Y107.725 E0.01379
G1 X121.033 Y107.402 E0.01379
G1 X120.846 Y107.062 E0.01379
G1 X120.688 Y106.707 E0.01379
G1 X120.560 Y106.340 E0.01379
G1 X120.464 Y105.964 E0.01379
G1 X120.399 Y105.581 E0.01379
G1 X120.367 Y105.194 E0.01379
G1 X120.367 Y104.806 E0.01379
G1 X120.399 Y104.419 E0.01379
G1 X120.464 Y104.036 E0.01379
G1 X120.560 Y103.662 E0.01372
G1 X120.729 Y103.201 E0.01744
G1 X120.846 Y102.938 E0.01020
G1 X121.150 Y102.421 E0.02130
G1 X121.582 Y102.402 F10800.000
G1 F8640
G1 X121.489 Y101.970 E-0.13031
G1 X121.755 Y101.687 E-0.08967
G1 X122.044 Y101.427 E-0.08967
G1 X122.353 Y101.192 E-0.08967
G1 X122.681 Y100.984 E-0.08967
G1 X123.025 Y100.804 E-0.08967
G1 X123.383 Y100.654 E-0.08967
G1 X123.752 Y100.534 E-0.08967
G1 X123.761 Y100.532 E-0.00201
G1 E-0.04000 F2100.00000
G1 Z0.800 F10800.000
G1 X121.023 Y105.909
G1 Z0.200
G1 E0.80000 F2100.00000
G1 F900
G1 X123.808 Y108.694 E0.14138
G1 X124.279 Y108.821 E0.01752
G1 X124.591 Y108.867 E0.01134
G1 X121.135 Y105.411 E0.17549
G1 X121.114 Y105.163 E0.00893
G1 X121.118 Y104.784 E0.01361
G1 X125.216 Y108.882 E0.20805
G1 X125.756 Y108.811 E0.01955
G1 X121.187 Y104.242 E0.23197
G1 X121.274 Y103.888 E0.01308
G1 X121.322 Y103.766 E0.00471
G1 X126.240 Y108.684 E0.24969
G1 X126.673 Y108.507 E0.01680
G1 X121.494 Y103.328 E0.26290
G1 X121.709 Y102.932 E0.01617
G1 X127.069 Y108.292 E0.27212
G1 X127.424 Y108.037 E0.01571
G1 X121.963 Y102.576 E0.27725
G1 X122.250 Y102.252 E0.01553
G1 X127.746 Y107.748 E0.27903
G1 X128.036 Y107.428 E0.01552
G1 X122.573 Y101.964 E0.27738
G1 X122.930 Y101.711 E0.01573
G1 X128.285 Y107.066 E0.27183
G1 X128.501 Y106.671 E0.01614
G1 X123.322 Y101.492 E0.26292
G1 X123.758 Y101.318 E0.01686
G1 X128.683 Y106.243 E0.25001
G1 X128.810 Y105.759 E0.01794
G1 X124.238 Y101.188 E0.23210
G1 X124.581 Y101.134 E0.01244
G1 X124.791 Y101.130 E0.00755
G1 X128.879 Y105.218 E0.20754
G1 X128.888 Y105.000 E0.00782
G1 X128.864 Y104.592 E0.01466
G1 X125.408 Y101.136 E0.17546
G1 X125.887 Y101.214 E0.01743
G1 X126.177 Y101.295 E0.01081
G1 X128.961 Y104.078 E0.14131
G1 F8640
G1 X126.634 Y101.751 E-0.76000
G1 E-0.04000 F2100.00000
G1 Z0.800 F10800.000
G1 X128.624 Y103.131
G1 Z0.200
G1 E0.80000 F2100.00000
G1 F900
G1 X126.877 Y101.384 E0.08868
G1 F8640
G1 X128.624 Y103.131 E-0.57043
G1 E-0.22957 F2100.00000
G1 Z0.800 F10800.000
G1 X121.376 Y106.873
G1 Z0.200
G1 E0.80000 F2100.00000
G1 F900
G1 X123.124 Y108.621 E0.08874
M106 S255
;BEFORE_LAYER_CHANGE
G92 E0.0
;0.4


G1 F8640
G1 X121.376 Y106.873 E-0.57076
G1 E-0.22924 F2100.00000
G1 Z0.800 F10800.000
;AFTER_LAYER_CHANGE
;0.4
G1 X116.985 Y108.181
G1 Z0.400
G1 E0.80000 F2100.00000
G1 F900
G1 X116.545 Y106.690 E0.05522
G1 X116.432 Y105.959 E0.02626
G1 X116.381 Y104.767 E0.04235
G1 X116.563 Y103.214 E0.05553
G1 X117.021 Y101.733 E0.05507
G1 X117.335 Y101.052 E0.02662
G1 X117.957 Y100.026 E0.04260
G1 X118.958 Y98.847 E0.05492
G1 X120.169 Y97.858 E0.05553
G1 X120.801 Y97.470 E0.02632
G1 X121.886 Y96.960 E0.04260
G1 X123.376 Y96.531 E0.05507
G1 X124.889 Y96.378 E0.05400
G1 X125.663 Y96.404 E0.02749
G1 X126.855 Y96.581 E0.04281
G1 X128.334 Y97.048 E0.05507
G1 X129.711 Y97.780 E0.05538
G1 X130.313 Y98.211 E0.02631
G1 X131.205 Y99.015 E0.04260
G1 X132.180 Y100.226 E0.05522
G1 X132.918 Y101.590 E0.05507
G1 X133.182 Y102.286 E0.02647
G1 X133.481 Y103.453 E0.04275
G1 X133.622 Y105.001 E0.05522
G1 X133.481 Y106.546 E0.05507
G1 X133.182 Y107.714 E0.04281
G1 X132.918 Y108.409 E0.02641
G1 X132.181 Y109.773 E0.05507
G1 X131.203 Y110.987 E0.05537
G1 X130.313 Y111.789 E0.04251
G1 X129.709 Y112.222 E0.02641
G1 X128.332 Y112.953 E0.05538
G1 X126.853 Y113.420 E0.05507
G1 X125.660 Y113.596 E0.04281
G1 X124.882 Y113.622 E0.02764
G1 X123.289 Y113.451 E0.05690
G1 X122.563 Y113.270 E0.02656
G1 X121.441 Y112.853 E0.04251
G1 X120.084 Y112.085 E0.05537
G1 X118.898 Y111.092 E0.05492
G1 X118.390 Y110.535 E0.02678
G1 X117.685 Y109.565 E0.04260
G1 X117.012 Y108.235 E0.05294
G1 F8640
G1 X116.545 Y106.690 E-0.37270
G1 X116.432 Y105.959 E-0.17072
G1 X116.392 Y105.022 E-0.21658
G1 E-0.04000 F2100.00000
G1 Z1.000 F10800.000
G1 X120.660 Y106.718
G1 Z0.400
G1 E0.80000 F2100.00000
M204 S800
G1 F900
G1 X120.532 Y106.349 E0.01323
G1 X120.435 Y105.970 E0.01323
G1 X120.370 Y105.585 E0.01323
G1 X120.337 Y105.195 E0.01323
G1 X120.337 Y104.805 E0.01323
G1 X120.370 Y104.415 E0.01323
G1 X120.435 Y104.030 E0.01323
G1 X120.532 Y103.651 E0.01323
G1 X120.660 Y103.282 E0.01323
G1 X120.817 Y102.930 E0.01306
G1 X121.008 Y102.582 E0.01341
G1 X121.224 Y102.257 E0.01322
G1 X121.467 Y101.951 E0.01323
G1 X121.734 Y101.666 E0.01323
G1 X122.025 Y101.404 E0.01323
G1 X122.336 Y101.168 E0.01323
G1 X122.666 Y100.959 E0.01323
G1 X123.012 Y100.778 E0.01323
G1 X123.373 Y100.626 E0.01323
G1 X123.744 Y100.505 E0.01323
G1 X124.125 Y100.416 E0.01323
G1 X124.512 Y100.359 E0.01323
G1 X124.902 Y100.334 E0.01323
G1 X125.287 Y100.342 E0.01306
G1 X125.681 Y100.384 E0.01341
G1 X126.065 Y100.457 E0.01322
G1 X126.441 Y100.562 E0.01323
G1 X126.808 Y100.698 E0.01323
G1 X127.161 Y100.864 E0.01323
G1 X127.500 Y101.060 E0.01323
G1 X127.821 Y101.283 E0.01323
G1 X128.118 Y101.529 E0.01306
G1 X128.401 Y101.806 E0.01341
G1 X128.657 Y102.101 E0.01322
G1 X128.886 Y102.418 E0.01323
G1 X129.089 Y102.752 E0.01323
G1 X129.263 Y103.102 E0.01323
G1 X129.406 Y103.465 E0.01323
G1 X129.519 Y103.839 E0.01323
G1 X129.601 Y104.222 E0.01323
G1 X129.650 Y104.610 E0.01323
G1 X129.666 Y105.000 E0.01323
G1 X129.650 Y105.390 E0.01323
G1 X129.601 Y105.778 E0.01323
G1 X129.519 Y106.161 E0.01323
G1 X129.408 Y106.530 E0.01306
G1 X129.262 Y106.898 E0.01341
G1 X129.089 Y107.248 E0.01322
G1 X128.886 Y107.582 E0.01323
G1 X128.657 Y107.899 E0.01323
G1 X128.401 Y108.195 E0.01323
G1 X128.122 Y108.468 E0.01323
G1 X127.821 Y108.717 E0.01323
G1 X127.500 Y108.940 E0.01323
G1 X127.166 Y109.133 E0.01306
G1 X126.807 Y109.302 E0.01341
G1 X126.441 Y109.438 E0.01322
G1 X126.065 Y109.543 E0.01323
G1 X125.686 Y109.616 E0.01306
G1 X125.292 Y109.657 E0.01341
G1 X124.902 Y109.666 E0.01322
G1 X124.512 Y109.641 E0.01323
G1 X124.125 Y109.584 E0.01323
G1 X123.749 Y109.496 E0.01306
G1 X123.372 Y109.374 E0.01341
G1 X123.012 Y109.222 E0.01322
G1 X122.666 Y109.041 E0.01323
G1 X122.336 Y108.832 E0.01323
G1 X122.025 Y108.596 E0.01323
G1 X121.734 Y108.334 E0.01323
G1 X121.467 Y108.049 E0.01323
G1 X121.224 Y107.743 E0.01323
G1 X121.010 Y107.422 E0.01306
G1 X120.819 Y107.075 E0.01341
G1 X120.685 Y106.773 E0.01119
M204 S1000
G1 X120.313 Y106.938 F10800.000
M204 S800
G1 F900
G1 X120.142 Y106.467 E0.01698
G1 X120.036 Y106.055 E0.01438
G1 X119.965 Y105.636 E0.01438
G1 X119.930 Y105.212 E0.01438
G1 X119.930 Y104.788 E0.01438
G1 X119.965 Y104.364 E0.01438
G1 X120.036 Y103.945 E0.01438
G1 X120.142 Y103.533 E0.01438
G1 X120.282 Y103.132 E0.01438
G1 X120.452 Y102.749 E0.01421
G1 X120.659 Y102.371 E0.01456
G1 X120.894 Y102.018 E0.01438
G1 X121.158 Y101.685 E0.01438
G1 X121.449 Y101.375 E0.01438
G1 X121.765 Y101.090 E0.01438
G1 X122.104 Y100.833 E0.01438
G1 X122.462 Y100.606 E0.01438
G1 X122.839 Y100.409 E0.01438
G1 X123.231 Y100.244 E0.01438
G1 X123.635 Y100.113 E0.01438
G1 X124.049 Y100.016 E0.01438
G1 X124.469 Y99.954 E0.01438
G1 X124.893 Y99.927 E0.01438
G1 X125.313 Y99.936 E0.01421
G1 X125.741 Y99.980 E0.01456
G1 X126.158 Y100.060 E0.01438
G1 X126.567 Y100.174 E0.01438
G1 X126.966 Y100.322 E0.01438
