; generated by PrusaSlicer 2.0.0+win64 on 2020-12-02 at 17:01:17

; 

; external perimeters extrusion width = 0.45mm
; perimeters extrusion width = 0.45mm
; infill extrusion width = 0.45mm
; solid infill extrusion width = 0.45mm
; top infill extrusion width = 0.40mm
; first layer extrusion width = 0.47mm

M73 P0 R2
M73 Q0 S2
M201 X1000 Y1000 Z1000 E5000 ; sets maximum accelerations, mm/sec^2
M203 X200 Y200 Z12 E120 ; sets maximum feedrates, mm/sec
M204 P1250 R1250 T1250 ; sets acceleration (P, T) and retract acceleration (R), mm/sec^2
M205 X8.00 Y8.00 Z0.40 E1.50 ; sets the jerk limits, mm/sec
M205 S0 T0 ; sets the minimum extruding and travel feed rate, mm/sec
M107
G90 ; use absolute coordinates
M83 ; extruder relative mode
M104 S215 ; set extruder temp
M140 S60 ; set bed temp
M190 S60 ; wait for bed temp
M109 S215 ; wait for extruder temp
G28 W ; home all without mesh bed level
G80 ; mesh bed leveling
G1 Y-3.0 F1000.0 ; go outside print area
G92 E0.0
G1 X60.0 E9.0 F1000.0 ; intro line
M73 Q2 S2
M73 P2 R2
G1 X100.0 E12.5 F1000.0 ; intro line
G92 E0.0
M221 S95
M900 K30 ; Filament gcode
G21 ; set units to millimeters
G90 ; use absolute coordinates
M83 ; use relative distances for extrusion
;BEFORE_LAYER_CHANGE
G92 E0.0
;0.2


G1 E-0.80000 F2100.00000
G1 Z0.600 F10800.000
;AFTER_LAYER_CHANGE
;0.2
G1 X72.212 Y81.002
G1 Z0.200
G1 E0.80000 F2100.00000
M204 S1000
G1 F900
G1 X73.267 Y80.256 E0.04588
G1 X74.314 Y79.728 E0.04164
G1 X75.237 Y79.403 E0.03475
G1 X76.416 Y79.156 E0.04279
G1 X77.392 Y79.089 E0.03473
G1 X172.421 Y79.089 E3.37467
G1 X173.993 Y79.253 E0.05611
G1 X175.497 Y79.718 E0.05591
G1 X176.867 Y80.443 E0.05506
G1 X178.178 Y81.500 E0.05979
G1 X179.264 Y82.771 E0.05935
G1 X180.120 Y84.213 E0.05956
G1 X180.763 Y85.872 E0.06319
G1 X181.143 Y87.696 E0.06618
G1 X181.231 Y89.120 E0.05065
G1 X181.230 Y138.547 E1.75524
G1 X181.147 Y139.105 E0.02005
G1 X180.926 Y139.624 E0.02005
G1 X180.583 Y140.068 E0.01992
G1 X180.136 Y140.413 E0.02005
G1 X179.598 Y140.639 E0.02069
G1 X179.025 Y140.716 E0.02056
G1 X70.803 Y140.716 E3.84316
G1 X70.240 Y140.640 E0.02018
G1 X69.712 Y140.420 E0.02031
G1 X69.257 Y140.073 E0.02031
G1 X68.907 Y139.621 E0.02031
G1 X68.682 Y139.087 E0.02056
G1 X68.604 Y138.514 E0.02056
G1 X68.627 Y88.387 E1.78007
G1 X68.802 Y86.989 E0.05006
G1 X69.072 Y85.871 E0.04084
G1 X69.463 Y84.772 E0.04140
G1 X70.030 Y83.616 E0.04574
G1 X70.747 Y82.532 E0.04615
G1 X71.436 Y81.724 E0.03772
G1 X72.168 Y81.043 E0.03550
G1 F8640
G1 X73.267 Y80.256 E-0.31203
G1 X74.314 Y79.728 E-0.27077
G1 X75.038 Y79.473 E-0.17720
G1 E-0.04000 F2100.00000
G1 Z0.800 F10800.000
G1 X178.652 Y138.138
G1 Z0.200
G1 E0.80000 F2100.00000
G1 F900
G1 X71.182 Y138.138 E3.81645
G1 X71.182 Y89.119 E1.74075
G1 X71.220 Y88.294 E0.02934
G1 X71.340 Y87.444 E0.03047
G1 X71.468 Y86.877 E0.02066
G1 X71.633 Y86.322 E0.02055
G1 X71.837 Y85.778 E0.02062
G1 X72.152 Y85.108 E0.02630
G1 X72.528 Y84.474 E0.02619
G1 X72.967 Y83.881 E0.02617
G1 X73.295 Y83.511 E0.01759
G1 X73.828 Y83.011 E0.02596
G1 X74.222 Y82.708 E0.01766
G1 X74.756 Y82.373 E0.02238
G1 X75.140 Y82.179 E0.01527
G1 X75.735 Y81.945 E0.02269
G1 X76.355 Y81.779 E0.02281
G1 X76.988 Y81.686 E0.02271
G1 X77.412 Y81.668 E0.01509
G1 X172.425 Y81.668 E3.37407
G1 X173.057 Y81.708 E0.02251
G1 X173.689 Y81.826 E0.02281
G1 X174.300 Y82.016 E0.02272
G1 X174.696 Y82.180 E0.01525
G1 X175.077 Y82.372 E0.01512
G1 X175.440 Y82.590 E0.01505
G1 X175.813 Y82.856 E0.01625
G1 X176.190 Y83.170 E0.01745
G1 X176.543 Y83.514 E0.01748
G1 X177.019 Y84.071 E0.02602
G1 X177.306 Y84.474 E0.01758
G1 X177.564 Y84.893 E0.01746
G1 X177.795 Y85.328 E0.01749
G1 X178.000 Y85.782 E0.01768
G1 X178.289 Y86.598 E0.03075
G1 X178.494 Y87.440 E0.03079
G1 X178.585 Y88.018 E0.02078
G1 X178.636 Y88.570 E0.01968
G1 X178.652 Y89.121 E0.01956
G1 X178.652 Y138.078 E1.73855
G1 X178.652 Y138.538 F10800.000
G1 X178.782 Y138.078
G1 F900
G1 X178.782 Y138.268 E0.00675
G1 X71.052 Y138.268 E3.82569
G1 X71.052 Y89.128 E1.74504
G1 X71.070 Y88.562 E0.02010
G1 X71.121 Y88.003 E0.01995
G1 X71.213 Y87.420 E0.02096
G1 X71.421 Y86.561 E0.03136
G1 X71.717 Y85.727 E0.03143
G1 X71.924 Y85.271 E0.01779
G1 X72.158 Y84.828 E0.01778
G1 X72.420 Y84.403 E0.01775
G1 X72.710 Y83.996 E0.01775
G1 X73.201 Y83.421 E0.02682
G1 X73.557 Y83.074 E0.01767
M73 Q46 S1
G1 X73.943 Y82.753 E0.01782
G1 X74.323 Y82.483 E0.01657
G1 X74.693 Y82.260 E0.01532
G1 X75.082 Y82.064 E0.01548
G1 X75.485 Y81.897 E0.01549
G1 X76.117 Y81.701 E0.02349
G1 X76.764 Y81.580 E0.02337
G1 X77.425 Y81.538 E0.02352
G1 X172.560 Y81.541 E3.37843
M73 P51 R1
G1 X173.069 Y81.580 E0.01813
G1 X173.720 Y81.702 E0.02350
G1 X174.138 Y81.823 E0.01546
G1 X174.754 Y82.065 E0.02352
G1 X175.140 Y82.259 E0.01532
G1 X175.690 Y82.604 E0.02307
G1 X176.087 Y82.909 E0.01775
G1 X176.637 Y83.424 E0.02678
G1 X176.966 Y83.796 E0.01761
G1 X177.416 Y84.404 E0.02688
G1 X177.676 Y84.827 E0.01762
G1 X178.018 Y85.498 E0.02674
G1 X178.326 Y86.283 E0.02995
G1 X178.493 Y86.844 E0.02078
G1 X178.622 Y87.418 E0.02088
G1 X178.713 Y88.003 E0.02103
G1 X178.765 Y88.562 E0.01995
G1 X178.782 Y89.128 E0.02010
G1 X178.782 Y138.018 E1.73616
G1 X178.618 Y138.173 F10800.000
G1 F8640
G1 X178.782 Y138.268 E-0.05773
G1 X175.741 Y138.268 E-0.70227
G1 E-0.04000 F2100.00000
G1 Z0.800 F10800.000
G1 X141.839 Y127.507
G1 Z0.200
G1 E0.80000 F2100.00000
G1 F900
G1 X141.690 Y127.858 E0.01355
G1 X141.466 Y128.194 E0.01434
G1 X141.183 Y128.467 E0.01397
G1 X140.848 Y128.691 E0.01431
G1 X140.472 Y128.837 E0.01433
G1 X140.085 Y128.911 E0.01397
G1 X139.681 Y128.902 E0.01434
G1 X139.297 Y128.820 E0.01397
G1 X138.927 Y128.657 E0.01434
G1 X138.605 Y128.431 E0.01397
G1 X138.326 Y128.139 E0.01434
G1 X138.118 Y127.805 E0.01397
G1 X137.971 Y127.429 E0.01434
G1 X137.910 Y127.040 E0.01397
G1 X137.919 Y126.638 E0.01429
G1 X138.015 Y126.245 E0.01435
G1 X138.177 Y125.887 E0.01397
G1 X138.416 Y125.561 E0.01434
G1 X138.704 Y125.294 E0.01397
G1 X139.050 Y125.084 E0.01434
G1 X139.420 Y124.951 E0.01397
G1 X139.819 Y124.890 E0.01434
G1 X140.212 Y124.911 E0.01397
G1 X140.605 Y125.008 E0.01437
G1 X140.965 Y125.185 E0.01427
G1 X141.282 Y125.419 E0.01397
G1 X141.548 Y125.723 E0.01434
G1 X141.749 Y126.061 E0.01397
G1 X141.878 Y126.444 E0.01434
G1 X141.931 Y126.834 E0.01397
G1 X141.905 Y127.225 E0.01392
G1 X141.853 Y127.448 E0.00815
G1 X141.437 Y127.350 F10800.000
G1 F900
G1 X141.312 Y127.654 E0.01167
G1 X141.136 Y127.919 E0.01129
G1 X140.913 Y128.134 E0.01098
G1 X140.649 Y128.310 E0.01128
G1 X140.353 Y128.425 E0.01129
G1 X140.049 Y128.483 E0.01098
G1 X139.732 Y128.476 E0.01129
G1 X139.429 Y128.411 E0.01099
G1 X139.138 Y128.283 E0.01129
G1 X138.885 Y128.105 E0.01099
G1 X138.665 Y127.876 E0.01129
G1 X138.501 Y127.613 E0.01099
G1 X138.386 Y127.317 E0.01129
G1 X138.338 Y127.011 E0.01098
G1 X138.345 Y126.694 E0.01127
G1 X138.420 Y126.385 E0.01129
G1 X138.548 Y126.103 E0.01099
G1 X138.736 Y125.847 E0.01129
G1 X138.963 Y125.637 E0.01099
G1 X139.235 Y125.472 E0.01129
G1 X139.526 Y125.367 E0.01099
G1 X139.840 Y125.319 E0.01129
G1 X140.149 Y125.336 E0.01099
G1 X140.458 Y125.411 E0.01130
G1 X140.742 Y125.552 E0.01126
G1 X140.991 Y125.735 E0.01098
G1 X141.201 Y125.974 E0.01129
G1 X141.359 Y126.240 E0.01099
G1 X141.461 Y126.542 E0.01129
G1 X141.502 Y126.848 E0.01099
G1 X141.481 Y127.161 E0.01114
G1 X141.451 Y127.292 E0.00475
G1 X141.660 Y127.592 F10800.000
G1 F8640
G1 X141.312 Y127.654 E-0.08959
G1 X141.136 Y127.919 E-0.07342
G1 X140.913 Y128.134 E-0.07142
G1 X140.649 Y128.310 E-0.07333
G1 X140.353 Y128.425 E-0.07338
G1 X140.049 Y128.483 E-0.07143
G1 X139.732 Y128.476 E-0.07342
G1 X139.429 Y128.411 E-0.07144
G1 X139.138 Y128.283 E-0.07342
G1 X138.885 Y128.105 E-0.07144
G1 X138.832 Y128.050 E-0.01771
G1 E-0.04000 F2100.00000
G1 Z0.800 F10800.000
G1 X144.128 Y127.940
G1 Z0.200
G1 E0.80000 F2100.00000
G1 F900
G1 X143.945 Y128.510 E0.02125
G1 X143.680 Y129.060 E0.02166
G1 X143.535 Y129.295 E0.00982
G1 X143.156 Y129.787 E0.02206
G1 X142.966 Y129.988 E0.00982
G1 X142.494 Y130.392 E0.02206
G1 X142.257 Y130.555 E0.01023
G1 X142.009 Y130.702 E0.01023
G1 X141.455 Y130.957 E0.02166
G1 X140.871 Y131.134 E0.02166
G1 X140.600 Y131.186 E0.00982
G1 X139.981 Y131.239 E0.02206
G1 X139.704 Y131.235 E0.00982
G1 X139.088 Y131.160 E0.02206
G1 X138.807 Y131.096 E0.01023
G1 X138.531 Y131.012 E0.01023
G1 X137.969 Y130.777 E0.02166
G1 X137.444 Y130.466 E0.02166
G1 X137.213 Y130.294 E0.01023
G1 X136.994 Y130.107 E0.01023
G1 X136.566 Y129.656 E0.02206
G1 X136.398 Y129.437 E0.00982
G1 X136.072 Y128.908 E0.02206
G1 X135.952 Y128.659 E0.00982
G1 X135.741 Y128.074 E0.02206
G1 X135.675 Y127.806 E0.00982
G1 X135.591 Y127.202 E0.02166
G1 X135.591 Y126.604 E0.02125
G1 X135.675 Y126.000 E0.02166
G1 X135.741 Y125.731 E0.00982
G1 X135.952 Y125.146 E0.02206
G1 X136.072 Y124.897 E0.00982
G1 X136.398 Y124.368 E0.02206
G1 X136.566 Y124.149 E0.00982
G1 X136.986 Y123.707 E0.02166
G1 X137.463 Y123.327 E0.02166
G1 X137.706 Y123.172 E0.01023
G1 X137.958 Y123.033 E0.01023
G1 X138.521 Y122.797 E0.02166
G1 X139.110 Y122.641 E0.02166
G1 X139.687 Y122.571 E0.02064
G1 X140.088 Y122.571 E0.01422
G1 X140.598 Y122.619 E0.01818
G1 X140.877 Y122.673 E0.01010
G1 X141.262 Y122.782 E0.01422
G1 X141.740 Y122.967 E0.01818
G1 X141.989 Y123.092 E0.00990
G1 X142.512 Y123.427 E0.02206
G1 X142.728 Y123.600 E0.00982
G1 X143.163 Y124.027 E0.02166
G1 X143.535 Y124.510 E0.02166
G1 X143.680 Y124.746 E0.00982
G1 X143.945 Y125.295 E0.02166
G1 X144.131 Y125.876 E0.02166
G1 X144.190 Y126.158 E0.01023
G1 X144.230 Y126.443 E0.01023
G1 X144.252 Y127.064 E0.02206
G1 X144.232 Y127.340 E0.00982
G1 X144.138 Y127.881 E0.01952
G1 X144.559 Y127.955 F10800.000
G1 F900
G1 X144.342 Y128.669 E0.02650
G1 X144.055 Y129.265 E0.02349
G1 X143.887 Y129.538 E0.01139
G1 X143.481 Y130.065 E0.02363
G1 X143.260 Y130.298 E0.01139
G1 X142.755 Y130.731 E0.02364
G1 X142.487 Y130.915 E0.01154
G1 X142.208 Y131.081 E0.01154
G1 X141.607 Y131.358 E0.02349
G1 X140.974 Y131.549 E0.02349
G1 X140.659 Y131.609 E0.01139
G1 X139.996 Y131.667 E0.02363
G1 X139.675 Y131.661 E0.01139
G1 X139.014 Y131.581 E0.02363
G1 X138.386 Y131.415 E0.02306
G1 X137.776 Y131.159 E0.02349
G1 X137.207 Y130.822 E0.02349
G1 X136.700 Y130.417 E0.02306
G1 X136.241 Y129.934 E0.02363
G1 X136.046 Y129.680 E0.01139
G1 X135.697 Y129.113 E0.02363
G1 X135.557 Y128.824 E0.01139
G1 X135.332 Y128.198 E0.02363
G1 X135.255 Y127.887 E0.01139
G1 X135.164 Y127.231 E0.02349
G1 X135.164 Y126.574 E0.02335
G1 X135.255 Y125.919 E0.02349
G1 X135.332 Y125.607 E0.01139
G1 X135.557 Y124.981 E0.02363
G1 X135.697 Y124.692 E0.01139
G1 X136.046 Y124.125 E0.02363
G1 X136.241 Y123.871 E0.01139
G1 X136.697 Y123.392 E0.02349
G1 X137.214 Y122.979 E0.02349
G1 X137.488 Y122.804 E0.01154
G1 X137.773 Y122.648 E0.01154
G1 X138.383 Y122.392 E0.02349
G1 X139.022 Y122.223 E0.02349
G1 X139.669 Y122.144 E0.02313
G1 X140.108 Y122.144 E0.01559
G1 X140.658 Y122.196 E0.01962
G1 X140.976 Y122.257 E0.01149
G1 X141.398 Y122.377 E0.01559
G1 X141.913 Y122.576 E0.01962
G1 X142.201 Y122.721 E0.01142
G1 X142.761 Y123.080 E0.02363
G1 X143.012 Y123.280 E0.01139
G1 X143.484 Y123.743 E0.02349
G1 X143.887 Y124.268 E0.02349
G1 X144.055 Y124.541 E0.01139
G1 X144.342 Y125.137 E0.02349
G1 X144.545 Y125.766 E0.02349
G1 X144.611 Y126.084 E0.01154
G1 X144.656 Y126.406 E0.01154
G1 X144.679 Y127.071 E0.02364
G1 X144.657 Y127.391 E0.01139
G1 X144.569 Y127.896 E0.01818
G1 X144.175 Y128.066 F10800.000
G1 F8640
G1 X144.342 Y128.669 E-0.18606
G1 X144.055 Y129.265 E-0.15274
G1 X143.887 Y129.538 E-0.07407
G1 X143.481 Y130.065 E-0.15368
G1 X143.260 Y130.298 E-0.07407
G1 X142.867 Y130.634 E-0.11938
G1 E-0.04000 F2100.00000
G1 Z0.800 F10800.000
G1 X111.931 Y126.834
G1 Z0.200
G1 E0.80000 F2100.00000
G1 F900
G1 X111.905 Y127.225 E0.01392
G1 X111.839 Y127.506 E0.01028
G1 X111.690 Y127.858 E0.01355
G1 X111.466 Y128.194 E0.01434
G1 X111.183 Y128.467 E0.01397
G1 X110.848 Y128.691 E0.01431
G1 X110.472 Y128.837 E0.01433
G1 X110.085 Y128.911 E0.01397
G1 X109.681 Y128.902 E0.01434
G1 X109.297 Y128.820 E0.01397
G1 X108.927 Y128.657 E0.01434
G1 X108.605 Y128.431 E0.01397
G1 X108.326 Y128.139 E0.01434
G1 X108.118 Y127.805 E0.01397
G1 X107.971 Y127.429 E0.01434
G1 X107.910 Y127.040 E0.01397
G1 X107.919 Y126.638 E0.01429
G1 X108.015 Y126.245 E0.01435
G1 X108.177 Y125.887 E0.01397
G1 X108.416 Y125.561 E0.01434
G1 X108.704 Y125.294 E0.01397
G1 X109.050 Y125.084 E0.01434
G1 X109.420 Y124.951 E0.01397
G1 X109.819 Y124.890 E0.01434
G1 X110.212 Y124.911 E0.01397
G1 X110.605 Y125.008 E0.01437
G1 X110.965 Y125.185 E0.01427
G1 X111.282 Y125.419 E0.01397
G1 X111.548 Y125.723 E0.01434
G1 X111.749 Y126.061 E0.01397
G1 X111.878 Y126.444 E0.01434
G1 X111.923 Y126.774 E0.01184
G1 X111.500 Y126.831 F10800.000
G1 F900
G1 X111.481 Y127.161 E0.01175
G1 X111.431 Y127.373 E0.00773
G1 X111.312 Y127.654 E0.01084
G1 X111.136 Y127.919 E0.01129
G1 X110.913 Y128.134 E0.01098
G1 X110.649 Y128.310 E0.01128
G1 X110.353 Y128.425 E0.01129
G1 X110.049 Y128.483 E0.01098
G1 X109.732 Y128.476 E0.01129
G1 X109.429 Y128.411 E0.01099
G1 X109.138 Y128.283 E0.01129
G1 X108.885 Y128.105 E0.01099
G1 X108.665 Y127.876 E0.01129
G1 X108.501 Y127.613 E0.01099
G1 X108.386 Y127.317 E0.01129
G1 X108.338 Y127.011 E0.01098
G1 X108.345 Y126.694 E0.01127
G1 X108.420 Y126.385 E0.01129
G1 X108.548 Y126.103 E0.01099
G1 X108.736 Y125.847 E0.01129
G1 X108.963 Y125.637 E0.01099
G1 X109.235 Y125.472 E0.01129
G1 X109.526 Y125.367 E0.01099
G1 X109.840 Y125.319 E0.01129
G1 X110.149 Y125.336 E0.01099
G1 X110.458 Y125.411 E0.01130
G1 X110.742 Y125.552 E0.01126
G1 X110.991 Y125.735 E0.01098
G1 X111.201 Y125.974 E0.01129
G1 X111.359 Y126.240 E0.01099
G1 X111.461 Y126.542 E0.01129
G1 X111.492 Y126.772 E0.00824
G1 X111.793 Y126.984 F10800.000
G1 F8640
G1 X111.481 Y127.161 E-0.09003
G1 X111.431 Y127.373 E-0.05026
G1 X111.312 Y127.654 E-0.07046
G1 X111.136 Y127.919 E-0.07342
G1 X110.913 Y128.134 E-0.07142
G1 X110.649 Y128.310 E-0.07333
G1 X110.353 Y128.425 E-0.07338
G1 X110.049 Y128.483 E-0.07142
G1 X109.732 Y128.476 E-0.07342
G1 X109.429 Y128.411 E-0.07144
G1 X109.265 Y128.339 E-0.04142
G1 E-0.04000 F2100.00000
G1 Z0.800 F10800.000
G1 X114.245 Y126.615
G1 Z0.200
G1 E0.80000 F2100.00000
G1 F900
G1 X114.245 Y127.191 E0.02044
G1 X114.159 Y127.806 E0.02206
G1 X114.093 Y128.074 E0.00982
G1 X113.887 Y128.648 E0.02166
G1 X113.604 Y129.188 E0.02166
G1 X113.268 Y129.656 E0.02044
G1 X112.849 Y130.098 E0.02166
G1 X112.372 Y130.479 E0.02166
G1 X111.877 Y130.772 E0.02044
G1 X111.314 Y131.008 E0.02166
G1 X110.736 Y131.161 E0.02125
G1 X110.130 Y131.235 E0.02166
G1 X109.854 Y131.239 E0.00982
G1 X109.235 Y131.186 E0.02206
G1 X108.963 Y131.134 E0.00982
G1 X108.369 Y130.954 E0.02206
G1 X107.846 Y130.713 E0.02044
G1 X107.332 Y130.384 E0.02166
G1 X106.869 Y129.988 E0.02166
G1 X106.679 Y129.787 E0.00982
G1 X106.300 Y129.295 E0.02206
G1 X106.015 Y128.795 E0.02044
G1 X105.784 Y128.218 E0.02206
G1 X105.709 Y127.952 E0.00982
G1 X105.604 Y127.351 E0.02166
G1 X105.583 Y126.742 E0.02166
G1 X105.602 Y126.466 E0.00982
G1 X105.709 Y125.854 E0.02206
G1 X105.784 Y125.588 E0.00982
G1 X106.010 Y125.021 E0.02166
G1 X106.312 Y124.491 E0.02166
G1 X106.480 Y124.257 E0.01023
G1 X106.663 Y124.035 E0.01023
G1 X107.106 Y123.600 E0.02206
G1 X107.323 Y123.427 E0.00982
G1 X107.836 Y123.098 E0.02166
G1 X108.385 Y122.846 E0.02145
G1 X108.755 Y122.727 E0.01382
G1 X109.255 Y122.616 E0.01818
G1 X109.532 Y122.583 E0.00990
G1 X110.142 Y122.572 E0.02166
G1 X110.747 Y122.646 E0.02166
G1 X111.304 Y122.793 E0.02044
G1 X111.866 Y123.029 E0.02166
G1 X112.381 Y123.334 E0.02125
G1 X112.857 Y123.714 E0.02166
G1 X113.055 Y123.908 E0.00982
G1 X113.450 Y124.387 E0.02206
G1 X113.604 Y124.617 E0.00982
G1 X113.887 Y125.157 E0.02166
G1 X114.093 Y125.731 E0.02166
G1 X114.159 Y126.000 E0.00982
G1 X114.237 Y126.555 E0.01993
G1 X114.660 Y126.497 F10800.000
G1 F900
G1 X114.682 Y126.903 E0.01444
G1 X114.671 Y127.227 E0.01154
G1 X114.579 Y127.887 E0.02363
G1 X114.503 Y128.198 E0.01139
G1 X114.279 Y128.821 E0.02349
G1 X113.971 Y129.406 E0.02349
G1 X113.593 Y129.934 E0.02306
G1 X113.138 Y130.414 E0.02349
G1 X112.621 Y130.826 E0.02349
G1 X112.062 Y131.157 E0.02306
