; generated by PrusaSlicer 2.0.0+win64 on 2020-12-10 at 09:22:32

; 

; external perimeters extrusion width = 0.60mm
; perimeters extrusion width = 0.50mm
; infill extrusion width = 0.50mm
; solid infill extrusion width = 0.50mm
; top infill extrusion width = 0.45mm
; first layer extrusion width = 0.42mm

M73 P0 R74
M73 Q0 S74
M201 X1000 Y1000 Z1000 E5000 ; sets maximum accelerations, mm/sec^2
M203 X200 Y200 Z12 E120 ; sets maximum feedrates, mm/sec
M204 P1250 R1250 T1250 ; sets acceleration (P, T) and retract acceleration (R), mm/sec^2
M205 X8.00 Y8.00 Z0.40 E1.50 ; sets the jerk limits, mm/sec
M205 S0 T0 ; sets the minimum extruding and travel feed rate, mm/sec
M107
G90 ; use absolute coordinates
M83 ; extruder relative mode
M104 S215 ; set extruder temp
M140 S60 ; set bed temp
M190 S60 ; wait for bed temp
M109 S215 ; wait for extruder temp
G28 W ; home all without mesh bed level
G80 ; mesh bed leveling
G1 Y-3.0 F1000.0 ; go outside print area
G92 E0.0
G1 X60.0 E9.0 F1000.0 ; intro line
M73 Q0 S74
M73 P0 R74
G1 X100.0 E12.5 F1000.0 ; intro line
G92 E0.0
M221 S95
M900 K30 ; Filament gcode
G21 ; set units to millimeters
G90 ; use absolute coordinates
M83 ; use relative distances for extrusion
;BEFORE_LAYER_CHANGE
G92 E0.0
;0.2


G1 E-0.80000 F2100.00000
G1 Z0.600 F10800.000
;AFTER_LAYER_CHANGE
;0.2
G1 X179.916 Y141.586
G1 Z0.200
G1 E0.80000 F2100.00000
M204 S1000
G1 F1200
G1 X179.146 Y141.936 E0.02653
G1 X178.326 Y142.057 E0.02599
G1 X125.346 Y142.395 E1.66117
G1 X93.603 Y142.363 E0.99530
G1 X91.784 Y142.190 E0.05729
G1 X90.359 Y141.900 E0.04557
G1 X88.864 Y141.451 E0.04894
G1 X87.660 Y140.969 E0.04066
G1 X86.384 Y140.331 E0.04473
G1 X85.338 Y139.709 E0.03816
G1 X84.096 Y138.830 E0.04771
G1 X82.952 Y137.832 E0.04760
G1 X81.676 Y136.445 E0.05909
G1 X80.550 Y134.951 E0.05867
G1 X79.439 Y132.983 E0.07084
G1 X78.636 Y130.993 E0.06729
G1 X78.189 Y129.264 E0.05601
G1 X77.864 Y126.951 E0.07323
G1 X77.197 Y90.469 E1.14404
G1 X77.224 Y88.925 E0.04844
G1 X77.408 Y87.348 E0.04976
G1 X77.657 Y86.111 E0.03956
G1 X78.041 Y84.773 E0.04365
G1 X78.621 Y83.311 E0.04932
G1 X79.645 Y81.376 E0.06865
G1 X80.778 Y79.736 E0.06248
G1 X81.780 Y78.596 E0.04761
G1 X83.132 Y77.358 E0.05749
G1 X84.624 Y76.234 E0.05856
G1 X86.591 Y75.123 E0.07084
G1 X88.592 Y74.317 E0.06764
G1 X90.683 Y73.809 E0.06746
G1 X92.799 Y73.526 E0.06695
G1 X146.438 Y72.482 E1.68211
G1 X177.719 Y72.482 E0.98081
G1 X178.371 Y72.555 E0.02055
G1 X179.026 Y72.785 E0.02177
G1 X179.590 Y73.139 E0.02089
G1 X180.087 Y73.625 E0.02182
G1 X180.469 Y74.193 E0.02144
G1 X180.758 Y74.871 E0.02310
G1 X180.923 Y75.558 E0.02218
G1 X180.998 Y76.363 E0.02533
G1 X181.589 Y112.983 E1.14836
G1 X181.587 Y138.145 E0.78893
G1 X181.468 Y139.216 E0.03381
G1 X181.140 Y140.186 E0.03210
G1 X180.623 Y140.975 E0.02958
G1 X179.961 Y141.546 E0.02741
G1 F8640
G1 X179.146 Y141.936 E-0.20870
G1 X178.326 Y142.057 E-0.19141
G1 X176.767 Y142.067 E-0.35989
G1 E-0.04000 F2100.00000
G1 Z0.800 F10800.000
G1 X124.827 Y102.656
G1 Z0.200
G1 E0.80000 F2100.00000
G1 F1200
G1 X124.599 Y102.484 E0.00896
G1 X123.757 Y102.108 E0.02890
G1 X122.857 Y101.944 E0.02869
G1 X122.595 Y101.988 E0.00835
G1 X122.288 Y101.974 E0.00964
G1 X122.097 Y102.022 E0.00618
G1 X121.974 Y102.032 E0.00386
G1 X121.753 Y102.008 E0.00698
G1 X121.343 Y101.925 E0.01309
G1 X120.890 Y101.965 E0.01428
G1 X120.446 Y102.041 E0.01411
G1 X119.847 Y101.968 E0.01893
G1 X119.054 Y102.043 E0.02498
G1 X118.729 Y101.924 E0.01086
G1 X117.908 Y101.972 E0.02578
G1 X117.455 Y102.041 E0.01435
G1 X116.802 Y101.956 E0.02066
G1 X116.521 Y102.000 E0.00890
G1 X116.005 Y101.994 E0.01619
G1 X115.914 Y102.031 E0.00306
G1 X115.401 Y101.946 E0.01631
G1 X114.675 Y101.980 E0.02278
G1 X114.434 Y102.036 E0.00777
G1 X113.906 Y101.979 E0.01663
G1 X113.027 Y102.006 E0.02759
G1 X112.946 Y102.035 E0.00269
G1 X112.629 Y101.995 E0.01000
G1 X111.917 Y101.979 E0.02236
G1 X111.453 Y102.061 E0.01475
G1 X110.565 Y101.950 E0.02805
G1 X109.937 Y102.043 E0.01993
G1 X109.674 Y102.005 E0.00831
G1 X108.839 Y101.938 E0.02628
G1 X108.439 Y102.047 E0.01299
G1 X107.588 Y101.943 E0.02687
G1 X106.955 Y102.045 E0.02011
G1 X106.710 Y101.997 E0.00781
G1 X105.858 Y101.964 E0.02675
G1 X105.389 Y102.025 E0.01481
G1 X105.244 Y101.999 E0.00463
G1 X104.399 Y101.982 E0.02651
G1 X104.031 Y102.032 E0.01163
G1 X103.986 Y102.014 E0.00151
G1 X103.441 Y101.964 E0.01716
G1 X103.124 Y101.971 E0.00997
G1 X102.474 Y102.051 E0.02053
G1 X101.758 Y101.951 E0.02266
G1 X101.373 Y101.985 E0.01210
G1 X100.943 Y102.055 E0.01367
G1 X100.019 Y101.974 E0.02908
G1 X99.499 Y102.044 E0.01647
G1 X99.337 Y102.005 E0.00522
G1 X98.401 Y101.934 E0.02941
G1 X97.967 Y102.034 E0.01398
G1 X97.707 Y101.974 E0.00835
G1 X97.093 Y101.942 E0.01930
G1 X96.168 Y102.109 E0.02945
G1 X95.319 Y102.515 E0.02951
G1 X95.053 Y102.697 E0.01010
G1 X93.185 Y102.682 E0.05856
G1 X91.451 Y102.492 E0.05468
G1 X89.762 Y102.066 E0.05465
G1 X89.572 Y102.001 E0.00627
G1 X88.103 Y101.351 E0.05039
G1 X87.297 Y100.914 E0.02872
G1 X86.675 Y100.542 E0.02273
G1 X85.186 Y99.350 E0.05982
G1 X84.561 Y98.746 E0.02725
G1 X83.478 Y97.474 E0.05237
G1 X82.936 Y96.669 E0.03044
G1 X82.130 Y95.139 E0.05421
G1 X81.490 Y93.271 E0.06193
G1 X81.203 Y91.817 E0.04645
G1 X81.078 Y90.284 E0.04822
G1 X81.256 Y87.866 E0.07602
G1 X81.774 Y85.877 E0.06444
G1 X82.415 Y84.428 E0.04970
G1 X82.852 Y83.622 E0.02872
G1 X83.224 Y83.000 E0.02273
G1 X84.416 Y81.511 E0.05982
G1 X85.020 Y80.886 E0.02725
G1 X86.291 Y79.803 E0.05236
G1 X87.107 Y79.256 E0.03079
G1 X88.611 Y78.462 E0.05333
G1 X90.787 Y77.763 E0.07167
G1 X92.153 Y77.477 E0.04374
G1 X93.375 Y77.410 E0.03838
G1 X94.957 Y77.398 E0.04961
G1 X95.411 Y77.630 E0.01598
G1 X95.516 Y77.709 E0.00412
G1 X96.300 Y78.014 E0.02638
G1 X96.481 Y78.067 E0.00590
G1 X96.814 Y78.081 E0.01045
G1 X97.478 Y78.153 E0.02094
G1 X97.988 Y78.051 E0.01631
G1 X98.349 Y78.099 E0.01142
G1 X98.938 Y78.130 E0.01851
G1 X99.516 Y78.047 E0.01830
G1 X99.979 Y78.116 E0.01469
G1 X100.261 Y78.125 E0.00884
G1 X100.879 Y78.078 E0.01943
G1 X100.987 Y78.054 E0.00348
G1 X101.332 Y78.114 E0.01099
G1 X102.127 Y78.114 E0.02493
G1 X102.493 Y78.042 E0.01169
G1 X103.020 Y78.151 E0.01688
G1 X103.779 Y78.090 E0.02387
G1 X103.989 Y78.040 E0.00677
G1 X104.416 Y78.110 E0.01356
G1 X104.600 Y78.102 E0.00577
G1 X105.270 Y78.147 E0.02104
G1 X105.513 Y78.055 E0.00814
G1 X105.920 Y78.136 E0.01301
G1 X106.354 Y78.109 E0.01364
G1 X106.570 Y78.131 E0.00681
G1 X106.994 Y78.040 E0.01359
G1 X107.703 Y78.151 E0.02252
G1 X108.432 Y78.051 E0.02307
G1 X108.892 Y78.115 E0.01456
G1 X109.719 Y78.099 E0.02593
G1 X109.982 Y78.056 E0.00835
G1 X110.363 Y78.107 E0.01206
G1 X111.041 Y78.103 E0.02125
G1 X111.483 Y78.046 E0.01398
G1 X112.082 Y78.131 E0.01898
G1 X112.504 Y78.143 E0.01324
G1 X113.041 Y78.050 E0.01708
G1 X113.302 Y78.122 E0.00847
G1 X114.036 Y78.109 E0.02302
G1 X114.466 Y78.039 E0.01368
G1 X114.794 Y78.097 E0.01042
G1 X115.580 Y78.127 E0.02467
G1 X116.030 Y78.058 E0.01429
G1 X116.292 Y78.100 E0.00830
G1 X116.928 Y78.123 E0.01995
G1 X117.469 Y78.041 E0.01715
G1 X118.065 Y78.137 E0.01896
G1 X118.742 Y78.104 E0.02122
G1 X118.976 Y78.047 E0.00756
G1 X119.463 Y78.145 E0.01557
G1 X120.457 Y78.056 E0.03129
G1 X120.778 Y78.065 E0.01009
G1 X121.183 Y78.134 E0.01288
G1 X121.837 Y78.091 E0.02055
G1 X122.028 Y78.045 E0.00616
G1 X122.552 Y78.118 E0.01658
G1 X123.685 Y78.003 E0.03573
G1 X124.562 Y77.628 E0.02989
G1 X124.831 Y77.435 E0.01040
G1 X124.851 Y77.498 E0.00208
G1 X124.848 Y102.600 E0.78705
G1 X124.982 Y103.078 F10800.000
G1 F1200
G1 X124.768 Y103.084 E0.00670
G1 X124.404 Y102.809 E0.01431
G1 X123.651 Y102.472 E0.02585
G1 X122.855 Y102.327 E0.02539
G1 X122.618 Y102.367 E0.00755
G1 X122.326 Y102.353 E0.00917
G1 X122.158 Y102.395 E0.00541
G1 X121.968 Y102.411 E0.00597
G1 X121.695 Y102.381 E0.00864
G1 X121.322 Y102.305 E0.01191
G1 X120.938 Y102.339 E0.01208
G1 X120.456 Y102.422 E0.01536
G1 X119.842 Y102.347 E0.01939
G1 X119.004 Y102.426 E0.02637
G1 X118.673 Y102.305 E0.01108
G1 X117.947 Y102.347 E0.02278
G1 X117.460 Y102.421 E0.01547
G1 X116.807 Y102.337 E0.02065
G1 X116.548 Y102.377 E0.00821
G1 X116.077 Y102.372 E0.01477
G1 X115.958 Y102.420 E0.00402
G1 X115.379 Y102.324 E0.01841
G1 X114.727 Y102.355 E0.02047
G1 X114.456 Y102.418 E0.00871
G1 X113.892 Y102.356 E0.01780
G1 X113.098 Y102.381 E0.02491
G1 X112.988 Y102.420 E0.00364
G1 X112.602 Y102.372 E0.01221
G1 X111.945 Y102.357 E0.02059
G1 X111.463 Y102.442 E0.01536
G1 X110.567 Y102.330 E0.02831
G1 X110.074 Y102.396 E0.01560
G1 X109.965 Y102.428 E0.00356
G1 X109.632 Y102.380 E0.01054
G1 X108.874 Y102.319 E0.02384
G1 X108.466 Y102.430 E0.01325
G1 X107.592 Y102.323 E0.02762
G1 X107.124 Y102.389 E0.01480
G1 X106.969 Y102.432 E0.00505
G1 X106.667 Y102.372 E0.00965
G1 X105.875 Y102.342 E0.02484
G1 X105.496 Y102.391 E0.01199
G1 X105.441 Y102.417 E0.00189
G1 X105.208 Y102.376 E0.00743
G1 X104.420 Y102.359 E0.02468
G1 X103.984 Y102.419 E0.01380
G1 X103.898 Y102.385 E0.00291
G1 X103.428 Y102.342 E0.01479
G1 X103.151 Y102.348 E0.00870
G1 X102.470 Y102.431 E0.02149
G1 X101.748 Y102.330 E0.02286
G1 X101.421 Y102.359 E0.01031
G1 X100.957 Y102.435 E0.01472
G1 X100.028 Y102.354 E0.02926
G1 X99.479 Y102.427 E0.01736
G1 X99.278 Y102.378 E0.00647
G1 X98.430 Y102.314 E0.02667
G1 X97.967 Y102.420 E0.01490
G1 X97.655 Y102.349 E0.01003
G1 X97.117 Y102.321 E0.01690
G1 X96.285 Y102.471 E0.02650
G1 X95.508 Y102.842 E0.02701
G1 X95.168 Y103.075 E0.01290
G1 X93.163 Y103.059 E0.06287
G1 X91.385 Y102.864 E0.05610
G1 X89.654 Y102.427 E0.05596
G1 X89.435 Y102.352 E0.00727
G1 X87.936 Y101.689 E0.05138
G1 X87.111 Y101.242 E0.02944
G1 X86.460 Y100.853 E0.02379
G1 X84.937 Y99.633 E0.06118
G1 X84.286 Y99.004 E0.02838
G1 X83.177 Y97.703 E0.05361
G1 X82.612 Y96.862 E0.03175
G1 X81.783 Y95.290 E0.05572
G1 X81.177 Y93.557 E0.05758
G1 X81.123 Y93.357 E0.00648
G1 X80.829 Y91.871 E0.04749
G1 X80.728 Y90.782 E0.03430
G1 X80.701 Y90.281 E0.01574
G1 X80.883 Y87.804 E0.07786
G1 X81.417 Y85.752 E0.06648
G1 X82.077 Y84.261 E0.05113
G1 X82.524 Y83.436 E0.02944
G1 X82.913 Y82.785 E0.02379
G1 X84.133 Y81.262 E0.06118
G1 X84.762 Y80.611 E0.02838
G1 X86.063 Y79.502 E0.05361
G1 X86.913 Y78.932 E0.03209
G1 X88.464 Y78.113 E0.05499
G1 X90.691 Y77.398 E0.07333
G1 X92.104 Y77.102 E0.04525
G1 X93.362 Y77.033 E0.03951
G1 X95.132 Y77.023 E0.05551
G1 X95.201 Y77.103 E0.00332
G1 X95.609 Y77.308 E0.01430
G1 X95.700 Y77.376 E0.00356
G1 X96.421 Y77.657 E0.02428
G1 X96.542 Y77.692 E0.00394
G1 X96.842 Y77.705 E0.00941
G1 X97.461 Y77.772 E0.01952
G1 X97.975 Y77.669 E0.01645
G1 X98.384 Y77.723 E0.01291
G1 X98.924 Y77.752 E0.01696
G1 X99.392 Y77.691 E0.01481
G1 X99.480 Y77.661 E0.00292
G1 X100.013 Y77.740 E0.01689
G1 X100.252 Y77.747 E0.00751
G1 X100.822 Y77.704 E0.01792
G1 X100.977 Y77.669 E0.00498
G1 X101.365 Y77.737 E0.01234
G1 X102.091 Y77.737 E0.02276
G1 X102.479 Y77.660 E0.01239
G1 X103.047 Y77.771 E0.01816
G1 X103.721 Y77.716 E0.02118
G1 X103.976 Y77.656 E0.00823
G1 X104.439 Y77.731 E0.01472
G1 X104.605 Y77.725 E0.00521
G1 X105.213 Y77.765 E0.01911
G1 X105.481 Y77.664 E0.00896
G1 X105.946 Y77.757 E0.01486
G1 X106.361 Y77.731 E0.01306
G1 X106.549 Y77.750 E0.00591
G1 X106.983 Y77.657 E0.01393
G1 X107.707 Y77.770 E0.02297
G1 X108.452 Y77.667 E0.02359
G1 X108.591 Y77.702 E0.00449
G1 X108.910 Y77.737 E0.01005
G1 X109.685 Y77.722 E0.02431
G1 X109.976 Y77.675 E0.00927
G1 X110.387 Y77.730 E0.01299
G1 X111.015 Y77.726 E0.01969
G1 X111.485 Y77.665 E0.01486
G1 X112.114 Y77.754 E0.01993
G1 X112.479 Y77.765 E0.01145
G1 X112.916 Y77.694 E0.01387
G1 X112.996 Y77.664 E0.00268
G1 X113.139 Y77.683 E0.00452
G1 X113.352 Y77.744 E0.00694
G1 X114.002 Y77.733 E0.02039
G1 X114.469 Y77.656 E0.01483
G1 X114.834 Y77.721 E0.01163
G1 X115.563 Y77.749 E0.02289
G1 X115.891 Y77.708 E0.01035
G1 X115.994 Y77.671 E0.00344
G1 X116.328 Y77.724 E0.01060
G1 X116.906 Y77.745 E0.01813
G1 X117.470 Y77.659 E0.01789
G1 X118.086 Y77.759 E0.01956
G1 X118.687 Y77.729 E0.01886
G1 X118.968 Y77.661 E0.00906
G1 X119.485 Y77.765 E0.01652
G1 X120.348 Y77.694 E0.02715
G1 X120.464 Y77.665 E0.00374
G1 X120.816 Y77.688 E0.01106
G1 X121.203 Y77.755 E0.01232
G1 X121.780 Y77.717 E0.01813
G1 X122.009 Y77.661 E0.00740
G1 X122.559 Y77.738 E0.01741
G1 X123.590 Y77.634 E0.03249
G1 X124.370 Y77.300 E0.02661
G1 X124.541 Y77.169 E0.00675
G1 X124.768 Y77.033 E0.00830
G1 X124.969 Y77.032 E0.00630
G1 X125.048 Y77.054 E0.00256
G1 X125.173 Y77.264 E0.00768
G1 X125.228 Y77.441 E0.00581
G1 X125.231 Y102.655 E0.79057
G1 X125.109 Y102.974 E0.01071
G1 X125.028 Y103.041 E0.00328
G1 X124.816 Y102.944 F10800.000
G1 F8640
G1 X124.768 Y103.084 E-0.06087
G1 X124.404 Y102.809 E-0.10540
G1 X123.651 Y102.472 E-0.19036
G1 X122.855 Y102.327 E-0.18696
G1 X122.618 Y102.367 E-0.05557
G1 X122.326 Y102.353 E-0.06750
G1 X122.158 Y102.395 E-0.03985
G1 X121.968 Y102.411 E-0.04399
G1 X121.928 Y102.406 E-0.00950
G1 E-0.04000 F2100.00000
G1 Z0.800 F10800.000
G1 X124.738 Y78.433
G1 Z0.200
G1 E0.80000 F2100.00000
G1 F1200
G1 X124.337 Y78.032 E0.01790
G1 X123.961 Y78.193 E0.01289
G1 X124.568 Y78.800 E0.02709
G1 X124.568 Y79.337 E0.01693
G1 X123.534 Y78.303 E0.04613
G1 X123.047 Y78.352 E0.01544
G1 X124.569 Y79.873 E0.06785
G1 X124.569 Y80.410 E0.01693
G1 X122.560 Y78.402 E0.08958
G1 X122.042 Y78.332 E0.01650
G1 X121.972 Y78.349 E0.00229
G1 X124.569 Y80.946 E0.11585
G1 X124.569 Y81.483 E0.01693
G1 X121.484 Y78.398 E0.13763
G1 X121.168 Y78.418 E0.00996
G1 X120.926 Y78.377 E0.00775
G1 X124.569 Y82.019 E0.16249
G1 X124.569 Y82.556 E0.01693
G1 X120.361 Y78.348 E0.18771
G1 X119.869 Y78.392 E0.01559
G1 X124.569 Y83.092 E0.20967
G1 X124.569 Y83.629 E0.01693
G1 X119.351 Y78.411 E0.23278
G1 X118.982 Y78.337 E0.01188
G1 X118.787 Y78.384 E0.00631
G1 X124.569 Y84.166 E0.25791
G1 X124.569 Y84.702 E0.01693
G1 X118.277 Y78.410 E0.28068
G1 X118.050 Y78.421 E0.00718
G1 X117.694 Y78.364 E0.01135
G1 X124.569 Y85.239 E0.30668
G1 X124.569 Y85.775 E0.01693
G1 X117.167 Y78.373 E0.33023
G1 X116.944 Y78.406 E0.00710
G1 X116.653 Y78.396 E0.00917
G1 X124.569 Y86.312 E0.35313
G1 X124.569 Y86.848 E0.01693
G1 X116.072 Y78.351 E0.37905
G1 X115.595 Y78.410 E0.01518
G1 X124.569 Y87.385 E0.40035
G1 X124.569 Y87.921 E0.01693
G1 X115.037 Y78.389 E0.42524
G1 X114.763 Y78.378 E0.00864
G1 X114.441 Y78.329 E0.01029
G1 X124.569 Y88.458 E0.45183
G1 X124.570 Y88.995 E0.01693
G1 X113.968 Y78.393 E0.47292
G1 X113.441 Y78.402 E0.01664
G1 X124.570 Y89.531 E0.49645
G1 X124.570 Y90.068 E0.01693
G1 X112.869 Y78.367 E0.52197
G1 X112.524 Y78.426 E0.01103
G1 X112.388 Y78.422 E0.00431
G1 X124.570 Y90.604 E0.54343
G1 X124.570 Y91.141 E0.01693
G1 X111.806 Y78.377 E0.56938
G1 X111.481 Y78.331 E0.01036
G1 X111.253 Y78.361 E0.00725
G1 X124.570 Y91.677 E0.59405
G1 X124.570 Y92.214 E0.01693
G1 X110.744 Y78.388 E0.61678
G1 X110.345 Y78.390 E0.01258
G1 X110.189 Y78.369 E0.00497
G1 X124.570 Y92.750 E0.64155
G1 X124.570 Y93.287 E0.01693
G1 X109.666 Y78.383 E0.66488
G1 X109.139 Y78.393 E0.01660
G1 X124.570 Y93.824 E0.68836
G1 X124.570 Y94.360 E0.01693
G1 X108.565 Y78.355 E0.71399
G1 X108.432 Y78.336 E0.00423
G1 X108.061 Y78.387 E0.01182
G1 X124.570 Y94.897 E0.73647
G1 X124.570 Y95.433 E0.01693
G1 X107.551 Y78.414 E0.75925
G1 X107.002 Y78.328 E0.01752
G1 X106.941 Y78.341 E0.00196
G1 X124.570 Y95.970 E0.78643
G1 X124.570 Y96.506 E0.01693
G1 X106.469 Y78.405 E0.80749
G1 X106.348 Y78.393 E0.00383
G1 X105.945 Y78.418 E0.01274
G1 X124.570 Y97.043 E0.83086
M73 Q1 S73
G1 X124.570 Y97.579 E0.01693
G1 X105.393 Y78.402 E0.85549
M73 P1 R73
G1 X105.313 Y78.433 E0.00272
G1 X104.857 Y78.403 E0.01439
G1 X124.571 Y98.116 E0.87940
G1 X124.571 Y98.653 E0.01693
G1 X104.294 Y78.376 E0.90451
G1 X104.000 Y78.329 E0.00942
G1 X103.757 Y78.375 E0.00779
G1 X124.571 Y99.189 E0.92849
G1 X124.571 Y99.726 E0.01693
G1 X103.261 Y78.416 E0.95064
G1 X103.003 Y78.436 E0.00816
G1 X102.677 Y78.369 E0.01048
G1 X124.571 Y100.262 E0.97666
G1 X124.571 Y100.799 E0.01693
G1 X102.166 Y78.394 E0.99946
G1 X101.632 Y78.397 E0.01685
G1 X124.571 Y101.335 E1.02330
G1 X124.571 Y101.872 E0.01693
G1 X101.051 Y78.352 E1.04923
G1 X100.994 Y78.342 E0.00180
G1 X100.549 Y78.387 E0.01411
G1 X124.125 Y101.962 E1.05171
G1 X123.842 Y101.836 E0.00979
