; generated by PrusaSlicer 2.0.0+win64 on 2020-12-08 at 10:28:30

; 

; external perimeters extrusion width = 0.45mm
; perimeters extrusion width = 0.45mm
; infill extrusion width = 0.45mm
; solid infill extrusion width = 0.45mm
; top infill extrusion width = 0.40mm
; first layer extrusion width = 0.47mm

M73 P0 R44
M73 Q0 S45
M201 X1000 Y1000 Z1000 E5000 ; sets maximum accelerations, mm/sec^2
M203 X200 Y200 Z12 E120 ; sets maximum feedrates, mm/sec
M204 P1250 R1250 T1250 ; sets acceleration (P, T) and retract acceleration (R), mm/sec^2
M205 X8.00 Y8.00 Z0.40 E1.50 ; sets the jerk limits, mm/sec
M205 S0 T0 ; sets the minimum extruding and travel feed rate, mm/sec
M107
G90 ; use absolute coordinates
M83 ; extruder relative mode
M104 S215 ; set extruder temp
M140 S60 ; set bed temp
M190 S60 ; wait for bed temp
M109 S215 ; wait for extruder temp
G28 W ; home all without mesh bed level
G80 ; mesh bed leveling
G1 Y-3.0 F1000.0 ; go outside print area
G92 E0.0
G1 X60.0 E9.0 F1000.0 ; intro line
M73 Q0 S45
M73 P0 R44
G1 X100.0 E12.5 F1000.0 ; intro line
G92 E0.0
M221 S95
M900 K30 ; Filament gcode
G21 ; set units to millimeters
G90 ; use absolute coordinates
M83 ; use relative distances for extrusion
;BEFORE_LAYER_CHANGE
G92 E0.0
;0.2


G1 E-0.80000 F2100.00000
G1 Z0.600 F10800.000
;AFTER_LAYER_CHANGE
;0.2
G1 X149.843 Y120.418
G1 Z0.200
G1 E0.80000 F2100.00000
M204 S1000
G1 F900
G1 X149.152 Y120.942 E0.03078
G1 X148.262 Y121.295 E0.03401
G1 X147.295 Y121.363 E0.03444
G1 X118.118 Y121.363 E1.03611
G1 X115.454 Y121.315 E0.09463
G1 X113.596 Y121.112 E0.06635
G1 X111.378 Y120.546 E0.08128
G1 X109.782 Y119.944 E0.06060
G1 X108.402 Y119.247 E0.05489
G1 X106.441 Y117.947 E0.08357
G1 X105.095 Y116.784 E0.06315
G1 X103.528 Y115.049 E0.08302
G1 X102.529 Y113.612 E0.06216
G1 X101.778 Y112.285 E0.05414
G1 X101.220 Y111.004 E0.04961
G1 X100.656 Y109.290 E0.06408
G1 X100.308 Y107.730 E0.05677
G1 X100.124 Y106.079 E0.05898
G1 X100.106 Y104.213 E0.06628
G1 X100.227 Y102.882 E0.04745
G1 X100.484 Y101.429 E0.05242
G1 X100.907 Y99.890 E0.05669
G1 X101.485 Y98.362 E0.05799
G1 X102.135 Y97.062 E0.05163
G1 X103.587 Y94.885 E0.09292
G1 X104.659 Y93.655 E0.05795
G1 X106.391 Y92.090 E0.08289
G1 X107.823 Y91.096 E0.06190
G1 X109.150 Y90.345 E0.05414
G1 X110.765 Y89.663 E0.06227
G1 X112.742 Y89.069 E0.07329
G1 X114.606 Y88.738 E0.06724
G1 X115.934 Y88.659 E0.04725
G1 X147.073 Y88.633 E1.10581
G1 X147.952 Y88.650 E0.03120
G1 X148.583 Y88.793 E0.02299
G1 X149.123 Y89.037 E0.02104
G1 X149.772 Y89.509 E0.02849
G1 X150.292 Y90.187 E0.03033
G1 X150.550 Y90.725 E0.02122
G1 X150.773 Y91.438 E0.02650
G1 X150.887 Y92.279 E0.03014
G1 X150.880 Y117.692 E0.90249
G1 X150.796 Y118.467 E0.02768
G1 X150.416 Y119.600 E0.04242
G1 X149.877 Y120.369 E0.03334
G1 F8640
G1 X149.152 Y120.942 E-0.21339
G1 X148.262 Y121.295 E-0.22114
G1 X147.295 Y121.363 E-0.22393
G1 X146.855 Y121.363 E-0.10153
G1 E-0.04000 F2100.00000
G1 Z0.800 F10800.000
G1 X147.255 Y114.656
G1 Z0.200
G1 E0.80000 F2100.00000
G1 F900
G1 X146.951 Y114.873 E0.01325
G1 X146.697 Y114.968 E0.00962
G1 X146.479 Y115.002 E0.00786
G1 X140.309 Y115.004 E0.21910
G1 X140.009 Y114.951 E0.01083
G1 X139.694 Y114.796 E0.01245
G1 X139.488 Y114.629 E0.00944
G1 X139.302 Y114.381 E0.01100
G1 X139.184 Y114.094 E0.01102
G1 X139.141 Y113.787 E0.01100
G1 X139.170 Y113.523 E0.00945
G1 X139.284 Y113.191 E0.01244
G1 X139.465 Y112.936 E0.01111
G1 X139.663 Y112.765 E0.00929
G1 X139.882 Y112.639 E0.00900
G1 X140.091 Y112.567 E0.00784
G1 X140.355 Y112.535 E0.00942
G1 X146.441 Y112.536 E0.21612
G1 X146.694 Y112.571 E0.00909
G1 X147.037 Y112.714 E0.01322
G1 X147.311 Y112.942 E0.01262
G1 X147.506 Y113.242 E0.01272
G1 X147.597 Y113.495 E0.00956
G1 X147.628 Y113.811 E0.01128
G1 X147.560 Y114.161 E0.01264
G1 X147.452 Y114.407 E0.00954
G1 X147.292 Y114.609 E0.00915
G1 X147.340 Y115.019 F10800.000
G1 F8640
G1 X146.951 Y114.873 E-0.09953
G1 X146.697 Y114.968 E-0.06255
G1 X146.479 Y115.002 E-0.05111
G1 X144.111 Y115.003 E-0.54681
G1 E-0.04000 F2100.00000
G1 Z0.800 F10800.000
G1 X147.042 Y111.320
G1 Z0.200
G1 E0.80000 F2100.00000
G1 F900
G1 X146.800 Y111.436 E0.00953
G1 X146.628 Y111.482 E0.00632
G1 X146.403 Y111.505 E0.00805
G1 X140.288 Y111.501 E0.21717
G1 X139.999 Y111.442 E0.01046
G1 X139.857 Y111.383 E0.00547
G1 X139.632 Y111.244 E0.00939
G1 X139.465 Y111.088 E0.00812
G1 X139.307 Y110.864 E0.00972
G1 X139.196 Y110.588 E0.01057
G1 X139.155 Y110.293 E0.01059
G1 X139.180 Y110.038 E0.00909
G1 X139.295 Y109.695 E0.01285
G1 X139.484 Y109.429 E0.01159
G1 X139.731 Y109.224 E0.01141
G1 X139.987 Y109.103 E0.01004
G1 X140.161 Y109.056 E0.00641
G1 X140.380 Y109.035 E0.00780
G1 X146.307 Y109.035 E0.21050
G1 X146.621 Y109.056 E0.01118
G1 X146.809 Y109.108 E0.00691
G1 X147.020 Y109.206 E0.00828
G1 X147.190 Y109.327 E0.00741
G1 X147.432 Y109.601 E0.01298
G1 X147.564 Y109.879 E0.01093
G1 X147.618 Y110.134 E0.00925
G1 X147.609 Y110.483 E0.01237
G1 X147.519 Y110.775 E0.01087
G1 X147.389 Y110.998 E0.00918
G1 X147.187 Y111.214 E0.01050
G1 X147.091 Y111.285 E0.00425
G1 X147.048 Y111.589 F10800.000
G1 F8640
G1 X146.800 Y111.436 E-0.07560
G1 X146.628 Y111.482 E-0.04108
G1 X146.403 Y111.505 E-0.05232
G1 X143.843 Y111.503 E-0.59100
G1 E-0.04000 F2100.00000
G1 Z0.800 F10800.000
G1 X139.869 Y99.139
G1 Z0.200
G1 E0.80000 F2100.00000
G1 F900
G1 X139.707 Y99.044 E0.00665
G1 X139.507 Y98.885 E0.00908
G1 X139.321 Y98.639 E0.01095
G1 X139.200 Y98.355 E0.01096
G1 X139.155 Y98.050 E0.01094
G1 X139.180 Y97.786 E0.00942
G1 X139.290 Y97.455 E0.01238
G1 X139.467 Y97.198 E0.01109
G1 X139.697 Y96.997 E0.01083
G1 X139.881 Y96.897 E0.00745
G1 X140.159 Y96.806 E0.01039
G1 X140.380 Y96.785 E0.00789
G1 X146.406 Y96.785 E0.21400
G1 X146.699 Y96.822 E0.01049
G1 X146.987 Y96.936 E0.01102
G1 X147.237 Y97.118 E0.01097
G1 X147.402 Y97.313 E0.00907
G1 X147.560 Y97.614 E0.01208
G1 X147.622 Y97.908 E0.01066
G1 X147.618 Y98.163 E0.00906
G1 X147.533 Y98.491 E0.01204
G1 X147.412 Y98.716 E0.00906
G1 X147.214 Y98.943 E0.01069
G1 X146.929 Y99.129 E0.01210
G1 X146.689 Y99.220 E0.00912
G1 X146.405 Y99.255 E0.01014
G1 X140.328 Y99.253 E0.21582
G1 X140.050 Y99.208 E0.00999
G1 X139.925 Y99.160 E0.00477
G1 X139.716 Y99.247 F10800.000
G1 F8640
G1 X139.707 Y99.044 E-0.05698
G1 X139.507 Y98.885 E-0.05907
G1 X139.321 Y98.639 E-0.07121
G1 X139.200 Y98.355 E-0.07129
G1 X139.155 Y98.050 E-0.07114
G1 X139.180 Y97.786 E-0.06124
G1 X139.290 Y97.455 E-0.08046
G1 X139.467 Y97.198 E-0.07212
G1 X139.697 Y96.997 E-0.07042
G1 X139.881 Y96.897 E-0.04843
G1 X140.159 Y96.806 E-0.06753
G1 X140.288 Y96.793 E-0.03012
G1 E-0.04000 F2100.00000
G1 Z0.800 F10800.000
G1 X147.490 Y99.273
G1 Z0.200
G1 E0.80000 F2100.00000
G1 F900
G1 X147.491 Y109.023 E0.34624
G1 X147.236 Y108.836 E0.01122
G1 X146.957 Y108.705 E0.01095
G1 X146.693 Y108.633 E0.00972
G1 X146.322 Y108.608 E0.01322
G1 X140.359 Y108.608 E0.21174
G1 X140.085 Y108.635 E0.00976
G1 X139.839 Y108.700 E0.00905
G1 X139.500 Y108.861 E0.01334
G1 X139.168 Y109.136 E0.01530
G1 X138.911 Y109.500 E0.01582
G1 X138.760 Y109.948 E0.01681
G1 X138.725 Y110.302 E0.01262
G1 X138.780 Y110.699 E0.01424
G1 X138.929 Y111.070 E0.01420
G1 X139.141 Y111.371 E0.01307
G1 X139.371 Y111.585 E0.01116
G1 X139.662 Y111.765 E0.01214
G1 X139.874 Y111.852 E0.00815
G1 X140.244 Y111.928 E0.01340
G1 X146.424 Y111.932 E0.21948
G1 X146.706 Y111.904 E0.01006
G1 X146.949 Y111.838 E0.00894
G1 X147.262 Y111.689 E0.01231
G1 X147.491 Y111.515 E0.01023
G1 X147.491 Y112.537 E0.03630
G1 X147.261 Y112.345 E0.01063
G1 X146.808 Y112.155 E0.01746
G1 X146.470 Y112.109 E0.01210
G1 X140.329 Y112.108 E0.21810
G1 X139.995 Y112.149 E0.01192
G1 X139.706 Y112.248 E0.01087
G1 X139.414 Y112.415 E0.01192
G1 X139.146 Y112.647 E0.01260
G1 X138.900 Y112.995 E0.01513
G1 X138.751 Y113.429 E0.01630
G1 X138.711 Y113.793 E0.01303
G1 X138.768 Y114.206 E0.01481
G1 X138.928 Y114.593 E0.01486
G1 X139.177 Y114.927 E0.01480
G1 X139.463 Y115.158 E0.01304
G1 X139.875 Y115.361 E0.01632
G1 X140.272 Y115.431 E0.01432
G1 X146.512 Y115.429 E0.22161
G1 X146.807 Y115.383 E0.01058
G1 X147.153 Y115.253 E0.01315
G1 X147.492 Y115.012 E0.01475
G1 X147.492 Y117.481 E0.08768
G1 X147.351 Y117.374 E0.00627
G1 X146.492 Y116.991 E0.03342
G1 X145.571 Y116.823 E0.03323
G1 X145.303 Y116.868 E0.00964
G1 X144.993 Y116.854 E0.01102
G1 X144.688 Y116.912 E0.01103
G1 X144.477 Y116.889 E0.00753
G1 X144.061 Y116.805 E0.01509
G1 X143.593 Y116.846 E0.01667
G1 X143.158 Y116.921 E0.01570
G1 X142.561 Y116.848 E0.02134
G1 X141.777 Y116.922 E0.02797
G1 X141.453 Y116.803 E0.01225
G1 X140.613 Y116.853 E0.02987
G1 X140.168 Y116.920 E0.01601
G1 X139.514 Y116.836 E0.02340
G1 X139.229 Y116.880 E0.01024
G1 X138.704 Y116.874 E0.01866
G1 X138.619 Y116.909 E0.00325
G1 X138.118 Y116.826 E0.01801
G1 X137.378 Y116.861 E0.02632
G1 X137.142 Y116.915 E0.00859
G1 X136.622 Y116.859 E0.01857
G1 X135.726 Y116.887 E0.03185
G1 X135.651 Y116.913 E0.00283
G1 X135.348 Y116.876 E0.01083
G1 X134.624 Y116.859 E0.02572
G1 X134.164 Y116.940 E0.01657
G1 X133.278 Y116.830 E0.03171
G1 X132.644 Y116.922 E0.02276
G1 X132.396 Y116.886 E0.00891
G1 X131.545 Y116.818 E0.03032
G1 X131.147 Y116.926 E0.01466
G1 X130.301 Y116.822 E0.03027
G1 X129.665 Y116.923 E0.02284
G1 X129.432 Y116.877 E0.00844
G1 X128.568 Y116.844 E0.03072
G1 X128.104 Y116.904 E0.01660
G1 X127.964 Y116.880 E0.00503
G1 X127.108 Y116.862 E0.03044
G1 X126.754 Y116.910 E0.01268
G1 X126.157 Y116.845 E0.02132
G1 X125.831 Y116.852 E0.01157
G1 X125.188 Y116.931 E0.02303
G1 X124.473 Y116.831 E0.02562
G1 X124.077 Y116.866 E0.01411
G1 X123.653 Y116.935 E0.01525
G1 X122.731 Y116.854 E0.03290
G1 X122.216 Y116.923 E0.01845
G1 X122.062 Y116.886 E0.00563
G1 X121.109 Y116.814 E0.03393
G1 X120.680 Y116.912 E0.01563
G1 X120.431 Y116.855 E0.00908
G1 X119.801 Y116.822 E0.02240
G1 X118.858 Y116.992 E0.03402
G1 X117.994 Y117.405 E0.03399
G1 X117.743 Y117.577 E0.01081
G1 X115.903 Y117.562 E0.06535
G1 X114.178 Y117.374 E0.06161
G1 X112.496 Y116.949 E0.06160
G1 X112.313 Y116.886 E0.00688
G1 X110.849 Y116.238 E0.05685
G1 X110.048 Y115.804 E0.03236
G1 X109.431 Y115.436 E0.02550
G1 X107.949 Y114.249 E0.06744
G1 X107.329 Y113.649 E0.03062
G1 X106.251 Y112.384 E0.05903
G1 X105.714 Y111.585 E0.03418
G1 X104.912 Y110.065 E0.06106
G1 X104.323 Y108.377 E0.06346
G1 X103.990 Y106.762 E0.05858
G1 X103.867 Y105.240 E0.05421
G1 X104.044 Y102.834 E0.08569
G1 X104.558 Y100.857 E0.07253
G1 X105.196 Y99.416 E0.05596
G1 X105.630 Y98.615 E0.03236
G1 X105.999 Y97.998 E0.02550
G1 X107.186 Y96.516 E0.06744
G1 X107.785 Y95.896 E0.03062
G1 X109.050 Y94.818 E0.05902
G1 X109.859 Y94.275 E0.03458
G1 X111.353 Y93.486 E0.06002
G1 X113.520 Y92.791 E0.08080
G1 X114.876 Y92.507 E0.04920
G1 X116.091 Y92.440 E0.04322
G1 X117.642 Y92.428 E0.05509
G1 X118.084 Y92.650 E0.01757
G1 X118.193 Y92.730 E0.00479
G1 X118.989 Y93.041 E0.03036
G1 X119.182 Y93.097 E0.00712
G1 X119.521 Y93.111 E0.01207
G1 X120.194 Y93.184 E0.02404
G1 X120.703 Y93.082 E0.01843
G1 X121.055 Y93.129 E0.01260
G1 X121.654 Y93.161 E0.02131
G1 X122.236 Y93.079 E0.02086
G1 X122.686 Y93.146 E0.01615
G1 X122.976 Y93.155 E0.01031
G1 X123.603 Y93.108 E0.02234
G1 X123.702 Y93.085 E0.00360
G1 X124.039 Y93.144 E0.01214
G1 X124.848 Y93.144 E0.02873
G1 X125.209 Y93.073 E0.01308
G1 X125.728 Y93.182 E0.01884
G1 X126.504 Y93.120 E0.02764
G1 X126.705 Y93.072 E0.00734
G1 X127.125 Y93.140 E0.01510
G1 X127.313 Y93.133 E0.00667
G1 X127.994 Y93.178 E0.02427
G1 X128.232 Y93.088 E0.00903
G1 X128.628 Y93.167 E0.01432
G1 X129.066 Y93.140 E0.01557
G1 X129.287 Y93.162 E0.00791
G1 X129.709 Y93.072 E0.01532
G1 X130.416 Y93.182 E0.02541
G1 X131.141 Y93.082 E0.02601
G1 X131.602 Y93.145 E0.01650
G1 X132.439 Y93.129 E0.02973
G1 X132.696 Y93.087 E0.00925
G1 X133.071 Y93.137 E0.01345
G1 X133.759 Y93.134 E0.02442
G1 X134.196 Y93.077 E0.01563
G1 X134.789 Y93.161 E0.02128
G1 X135.222 Y93.173 E0.01540
G1 X135.762 Y93.083 E0.01945
G1 X136.005 Y93.152 E0.00896
G1 X136.756 Y93.139 E0.02667
G1 X137.179 Y93.070 E0.01523
G1 X137.499 Y93.127 E0.01153
G1 X138.296 Y93.157 E0.02834
G1 X138.751 Y93.091 E0.01632
G1 X138.998 Y93.130 E0.00888
G1 X139.645 Y93.153 E0.02300
G1 X140.181 Y93.072 E0.01925
G1 X140.774 Y93.168 E0.02134
G1 X141.465 Y93.134 E0.02457
G1 X141.691 Y93.079 E0.00823
G1 X142.172 Y93.176 E0.01742
G1 X143.177 Y93.086 E0.03586
G1 X143.484 Y93.095 E0.01090
G1 X143.892 Y93.165 E0.01471
G1 X144.562 Y93.121 E0.02382
G1 X144.745 Y93.076 E0.00669
G1 X145.263 Y93.149 E0.01860
G1 X146.418 Y93.032 E0.04119
G1 X147.313 Y92.649 E0.03460
G1 X147.489 Y92.514 E0.00787
G1 X147.490 Y96.773 E0.15126
G1 X147.195 Y96.559 E0.01294
G1 X146.806 Y96.405 E0.01486
G1 X146.433 Y96.358 E0.01336
G1 X140.359 Y96.358 E0.21568
G1 X140.071 Y96.385 E0.01030
G1 X139.711 Y96.503 E0.01346
G1 X139.451 Y96.645 E0.01051
G1 X139.145 Y96.912 E0.01441
G1 X138.904 Y97.263 E0.01514
G1 X138.760 Y97.697 E0.01624
G1 X138.725 Y98.062 E0.01300
G1 X138.786 Y98.471 E0.01471
G1 X138.948 Y98.855 E0.01478
G1 X139.199 Y99.185 E0.01474
G1 X139.465 Y99.397 E0.01207
G1 X139.684 Y99.525 E0.00901
G1 X139.939 Y99.622 E0.00969
G1 X140.293 Y99.681 E0.01275
G1 X146.431 Y99.682 E0.21798
G1 X146.792 Y99.638 E0.01289
G1 X147.124 Y99.512 E0.01261
G1 X147.440 Y99.306 E0.01341
G1 F8640
G1 X147.457 Y102.597 E-0.76000
G1 E-0.04000 F2100.00000
G1 Z0.800 F10800.000
G1 X147.745 Y92.031
G1 Z0.200
G1 E0.80000 F2100.00000
G1 F900
G1 X147.864 Y92.230 E0.00823
G1 X147.916 Y92.400 E0.00634
G1 X147.919 Y117.606 E0.89510
G1 X147.802 Y117.915 E0.01173
G1 X147.686 Y118.009 E0.00531
G1 X147.489 Y118.014 E0.00697
G1 X147.130 Y117.743 E0.01599
G1 X146.372 Y117.403 E0.02951
G1 X145.568 Y117.256 E0.02900
G1 X145.329 Y117.297 E0.00861
G1 X145.036 Y117.283 E0.01042
G1 X144.867 Y117.326 E0.00619
G1 X144.682 Y117.341 E0.00661
G1 X144.412 Y117.311 E0.00966
G1 X144.037 Y117.235 E0.01358
G1 X143.648 Y117.270 E0.01385
G1 X143.168 Y117.352 E0.01730
G1 X142.555 Y117.278 E0.02192
G1 X141.721 Y117.356 E0.02976
G1 X141.389 Y117.235 E0.01253
G1 X140.658 Y117.278 E0.02602
G1 X140.172 Y117.352 E0.01744
G1 X139.519 Y117.267 E0.02339
G1 X139.259 Y117.307 E0.00935
G1 X138.785 Y117.302 E0.01684
G1 X138.668 Y117.350 E0.00448
G1 X138.094 Y117.254 E0.02069
G1 X137.437 Y117.286 E0.02336
G1 X137.168 Y117.348 E0.00979
G1 X136.606 Y117.287 E0.02007
G1 X135.806 Y117.311 E0.02841
G1 X135.699 Y117.350 E0.00405
G1 X135.317 Y117.302 E0.01366
G1 X134.657 Y117.287 E0.02345
G1 X134.175 Y117.372 E0.01735
G1 X133.280 Y117.261 E0.03204
G1 X132.782 Y117.326 E0.01785
G1 X132.676 Y117.358 E0.00390
G1 X132.348 Y117.310 E0.01177
G1 X131.585 Y117.249 E0.02719
G1 X131.178 Y117.360 E0.01498
G1 X130.305 Y117.253 E0.03123
G1 X129.833 Y117.320 E0.01694
G1 X129.681 Y117.361 E0.00557
G1 X129.383 Y117.303 E0.01079
G1 X128.587 Y117.273 E0.02828
G1 X128.202 Y117.322 E0.01379
G1 X128.151 Y117.346 E0.00199
G1 X127.923 Y117.306 E0.00821
G1 X127.132 Y117.290 E0.02809
G1 X126.701 Y117.349 E0.01546
G1 X126.617 Y117.316 E0.00320
G1 X126.142 Y117.272 E0.01693
G1 X125.862 Y117.278 E0.00995
G1 X125.184 Y117.361 E0.02426
G1 X124.462 Y117.260 E0.02588
G1 X124.131 Y117.290 E0.01182
G1 X123.670 Y117.365 E0.01659
G1 X122.740 Y117.284 E0.03313
G1 X122.193 Y117.357 E0.01960
G1 X121.995 Y117.309 E0.00724
G1 X121.141 Y117.244 E0.03041
G1 X120.680 Y117.350 E0.01681
G1 X120.372 Y117.279 E0.01123
G1 X119.828 Y117.251 E0.01932
G1 X118.990 Y117.403 E0.03024
G1 X118.208 Y117.776 E0.03078
G1 X117.874 Y118.005 E0.01440
G1 X115.878 Y117.989 E0.07089
G1 X114.102 Y117.795 E0.06343
G1 X112.375 Y117.359 E0.06328
G1 X112.157 Y117.284 E0.00816
G1 X110.660 Y116.622 E0.05811
G1 X109.836 Y116.176 E0.03329
G1 X109.187 Y115.787 E0.02686
G1 X107.666 Y114.570 E0.06918
G1 X107.017 Y113.942 E0.03206
G1 X105.910 Y112.643 E0.06063
G1 X105.347 Y111.805 E0.03586
G1 X104.519 Y110.236 E0.06300
G1 X103.914 Y108.504 E0.06512
G1 X103.860 Y108.307 E0.00728
G1 X103.567 Y106.823 E0.05371
G1 X103.466 Y105.735 E0.03879
G1 X103.439 Y105.236 E0.01775
G1 X103.621 Y102.764 E0.08805
G1 X104.154 Y100.716 E0.07514
G1 X104.812 Y99.228 E0.05780
G1 X105.259 Y98.403 E0.03329
G1 X105.647 Y97.754 E0.02686
G1 X106.865 Y96.234 E0.06919
G1 X107.492 Y95.585 E0.03206
