; generated by PrusaSlicer 2.0.0+win64 on 2020-12-10 at 09:23:06

; 

; external perimeters extrusion width = 0.60mm
; perimeters extrusion width = 0.50mm
; infill extrusion width = 0.50mm
; solid infill extrusion width = 0.50mm
; top infill extrusion width = 0.45mm
; first layer extrusion width = 0.42mm

M73 P0 R74
M73 Q0 S74
M201 X1000 Y1000 Z1000 E5000 ; sets maximum accelerations, mm/sec^2
M203 X200 Y200 Z12 E120 ; sets maximum feedrates, mm/sec
M204 P1250 R1250 T1250 ; sets acceleration (P, T) and retract acceleration (R), mm/sec^2
M205 X8.00 Y8.00 Z0.40 E1.50 ; sets the jerk limits, mm/sec
M205 S0 T0 ; sets the minimum extruding and travel feed rate, mm/sec
M107
G90 ; use absolute coordinates
M83 ; extruder relative mode
M104 S215 ; set extruder temp
M140 S60 ; set bed temp
M190 S60 ; wait for bed temp
M109 S215 ; wait for extruder temp
G28 W ; home all without mesh bed level
G80 ; mesh bed leveling
G1 Y-3.0 F1000.0 ; go outside print area
G92 E0.0
G1 X60.0 E9.0 F1000.0 ; intro line
M73 Q0 S74
M73 P0 R74
G1 X100.0 E12.5 F1000.0 ; intro line
G92 E0.0
M221 S95
M900 K30 ; Filament gcode
G21 ; set units to millimeters
G90 ; use absolute coordinates
M83 ; use relative distances for extrusion
;BEFORE_LAYER_CHANGE
G92 E0.0
;0.2


G1 E-0.80000 F2100.00000
G1 Z0.600 F10800.000
;AFTER_LAYER_CHANGE
;0.2
G1 X179.324 Y141.878
G1 Z0.200
G1 E0.80000 F2100.00000
M204 S1000
G1 F1200
G1 X178.348 Y142.057 E0.03111
G1 X147.032 Y142.057 E0.98187
G1 X93.813 Y140.542 E1.66933
G1 X92.001 Y140.370 E0.05706
G1 X90.626 Y140.094 E0.04397
G1 X89.221 Y139.685 E0.04591
G1 X87.368 Y138.905 E0.06303
G1 X85.849 Y138.076 E0.05424
G1 X84.249 Y136.964 E0.06111
G1 X83.106 Y135.954 E0.04783
G1 X81.865 Y134.594 E0.05772
G1 X80.915 Y133.353 E0.04900
G1 X80.179 Y132.170 E0.04368
G1 X79.167 Y130.045 E0.07381
G1 X78.773 Y128.932 E0.03700
G1 X78.416 Y127.505 E0.04612
G1 X78.075 Y125.069 E0.07715
G1 X76.708 Y86.979 E1.19504
G1 X76.895 Y85.013 E0.06192
G1 X77.167 Y83.659 E0.04332
G1 X77.551 Y82.321 E0.04365
G1 X78.352 Y80.398 E0.06531
G1 X79.380 Y78.560 E0.06603
G1 X80.307 Y77.254 E0.05023
G1 X81.313 Y76.116 E0.04761
G1 X82.647 Y74.896 E0.05669
G1 X84.145 Y73.769 E0.05878
G1 X85.472 Y72.980 E0.04840
G1 X87.263 Y72.161 E0.06173
G1 X89.352 Y71.515 E0.06856
G1 X90.919 Y71.222 E0.05001
G1 X92.124 Y71.076 E0.03803
G1 X93.918 Y71.046 E0.05628
G1 X123.778 Y71.043 E0.93623
G1 X177.872 Y72.486 E1.69668
G1 X178.503 Y72.587 E0.02004
G1 X179.091 Y72.818 E0.01979
G1 X179.665 Y73.200 E0.02164
G1 X180.122 Y73.668 E0.02050
G1 X180.474 Y74.202 E0.02008
G1 X180.754 Y74.857 E0.02230
G1 X180.994 Y76.241 E0.04406
G1 X181.589 Y113.001 E1.15274
G1 X181.581 Y138.318 E0.79380
G1 X181.466 Y139.224 E0.02861
G1 X181.184 Y140.092 E0.02862
G1 X180.762 Y140.804 E0.02597
G1 X180.203 Y141.381 E0.02518
G1 X179.376 Y141.848 E0.02979
G1 F8640
G1 X178.348 Y142.057 E-0.24226
G1 X176.105 Y142.057 E-0.51774
G1 E-0.04000 F2100.00000
G1 Z0.800 F10800.000
G1 X177.581 Y101.714
G1 Z0.200
G1 E0.80000 F2100.00000
G1 F1200
G1 X150.883 Y101.714 E0.83709
G1 X151.030 Y101.580 E0.00624
G1 X151.418 Y101.117 E0.01895
G1 X151.600 Y100.831 E0.01060
G1 X151.807 Y100.411 E0.01471
G1 X151.993 Y99.819 E0.01946
G1 X152.064 Y99.355 E0.01471
G1 X152.078 Y99.034 E0.01009
G1 X152.064 Y98.709 E0.01019
G1 X151.992 Y98.245 E0.01470
G1 X151.807 Y97.657 E0.01935
G1 X151.598 Y97.233 E0.01482
G1 X151.418 Y96.951 E0.01049
G1 X151.021 Y96.478 E0.01935
G1 X150.549 Y96.081 E0.01936
G1 X150.263 Y95.900 E0.01060
G1 X149.854 Y95.698 E0.01431
G1 X149.542 Y95.585 E0.01039
G1 X149.087 Y95.474 E0.01471
G1 X148.468 Y95.420 E0.01946
G1 X148.000 Y95.451 E0.01471
G1 X147.671 Y95.509 E0.01048
G1 X147.083 Y95.695 E0.01935
G1 X146.535 Y95.980 E0.01935
G1 X146.261 Y96.171 E0.01049
G1 X145.906 Y96.483 E0.01482
G1 X145.509 Y96.956 E0.01935
G1 X145.264 Y97.360 E0.01482
G1 X145.123 Y97.663 E0.01049
G1 X144.938 Y98.249 E0.01926
G1 X144.867 Y98.713 E0.01471
G1 X144.853 Y99.047 E0.01048
G1 X144.906 Y99.655 E0.01915
G1 X145.018 Y100.114 E0.01482
G1 X145.128 Y100.417 E0.01009
G1 X145.266 Y100.711 E0.01019
G1 X145.509 Y101.112 E0.01470
G1 X145.902 Y101.580 E0.01914
G1 X146.038 Y101.705 E0.00580
G1 X145.361 Y101.666 E0.02128
G1 X144.811 Y101.606 E0.01735
G1 X143.721 Y101.413 E0.03468
G1 X142.653 Y101.127 E0.03468
G1 X141.613 Y100.749 E0.03468
G1 X140.611 Y100.281 E0.03468
G1 X139.653 Y99.728 E0.03468
G1 X138.747 Y99.094 E0.03468
G1 X138.316 Y98.748 E0.01732
G1 X137.875 Y98.359 E0.01842
G1 X137.113 Y97.596 E0.03380
G1 X136.731 Y97.158 E0.01823
G1 X136.075 Y96.302 E0.03383
G1 X135.484 Y95.374 E0.03449
G1 X135.218 Y94.889 E0.01735
G1 X134.751 Y93.886 E0.03468
G1 X134.372 Y92.847 E0.03468
G1 X134.218 Y92.317 E0.01732
G1 X134.080 Y91.745 E0.01842
G1 X133.893 Y90.683 E0.03383
G1 X133.834 Y90.139 E0.01715
G1 X133.786 Y89.034 E0.03468
G1 X133.798 Y88.481 E0.01735
G1 X133.894 Y87.379 E0.03468
G1 X134.086 Y86.289 E0.03468
G1 X134.372 Y85.221 E0.03468
G1 X134.751 Y84.181 E0.03468
G1 X135.218 Y83.180 E0.03466
G1 X135.502 Y82.665 E0.01842
G1 X136.082 Y81.756 E0.03383
G1 X136.752 Y80.883 E0.03449
G1 X137.117 Y80.467 E0.01735
G1 X137.500 Y80.068 E0.01735
G1 X138.315 Y79.320 E0.03468
G1 X138.746 Y78.975 E0.01732
G1 X139.221 Y78.628 E0.01842
G1 X140.131 Y78.050 E0.03383
G1 X141.107 Y77.542 E0.03449
G1 X141.613 Y77.319 E0.01735
G1 X142.653 Y76.941 E0.03468
G1 X143.721 Y76.654 E0.03468
G1 X144.264 Y76.546 E0.01735
G1 X145.361 Y76.402 E0.03468
G1 X146.030 Y76.366 E0.02101
G1 X145.793 Y76.602 E0.01048
G1 X145.425 Y77.082 E0.01895
G1 X145.258 Y77.371 E0.01049
G1 X145.070 Y77.798 E0.01462
G1 X144.940 Y78.246 E0.01462
G1 X144.882 Y78.575 E0.01049
G1 X144.855 Y79.192 E0.01936
G1 X144.937 Y79.813 E0.01966
G1 X145.069 Y80.264 E0.01471
G1 X145.197 Y80.573 E0.01049
G1 X145.504 Y81.104 E0.01926
G1 X145.798 Y81.470 E0.01471
G1 X146.025 Y81.697 E0.01008
G1 X146.271 Y81.904 E0.01008
G1 X146.664 Y82.167 E0.01482
G1 X147.218 Y82.425 E0.01916
G1 X147.541 Y82.526 E0.01060
G1 X148.001 Y82.618 E0.01470
G1 X148.611 Y82.644 E0.01914
G1 X148.944 Y82.615 E0.01049
G1 X149.407 Y82.523 E0.01482
G1 X149.993 Y82.309 E0.01956
G1 X150.536 Y81.996 E0.01966
G1 X150.902 Y81.702 E0.01471
G1 X151.134 Y81.470 E0.01028
G1 X151.422 Y81.111 E0.01442
G1 X151.601 Y80.829 E0.01049
G1 X151.862 Y80.270 E0.01936
G1 X152.024 Y79.664 E0.01966
G1 X152.075 Y79.198 E0.01471
G1 X152.075 Y78.863 E0.01049
G1 X151.994 Y78.254 E0.01926
G1 X151.863 Y77.804 E0.01471
G1 X151.735 Y77.495 E0.01049
G1 X151.427 Y76.963 E0.01926
G1 X151.134 Y76.598 E0.01471
G1 X150.900 Y76.365 E0.01034
G1 X177.581 Y76.358 E0.83657
G1 X177.618 Y76.565 E0.00659
G1 X177.618 Y101.503 E0.78191
G1 X177.601 Y101.658 E0.00489
G1 X177.838 Y102.022 F10800.000
G1 F1200
G1 X177.746 Y102.082 E0.00346
G1 X177.697 Y102.091 E0.00156
G1 X149.516 Y102.091 E0.88359
G1 X149.961 Y101.903 E0.01517
G1 X150.263 Y101.724 E0.01101
G1 X150.544 Y101.513 E0.01101
G1 X150.757 Y101.318 E0.00903
G1 X151.113 Y100.893 E0.01740
G1 X151.270 Y100.646 E0.00917
G1 X151.456 Y100.270 E0.01316
G1 X151.625 Y99.733 E0.01765
G1 X151.689 Y99.318 E0.01316
G1 X151.701 Y99.034 E0.00892
G1 X151.688 Y98.746 E0.00903
G1 X151.624 Y98.331 E0.01316
G1 X151.456 Y97.798 E0.01754
G1 X151.269 Y97.418 E0.01327
G1 X151.113 Y97.174 E0.00907
G1 X150.754 Y96.746 E0.01754
G1 X150.325 Y96.386 E0.01754
G1 X150.078 Y96.229 E0.00917
G1 X149.706 Y96.046 E0.01302
G1 X149.433 Y95.947 E0.00910
G1 X149.025 Y95.847 E0.01316
G1 X148.465 Y95.798 E0.01765
G1 X148.046 Y95.826 E0.01316
G1 X147.761 Y95.876 E0.00906
G1 X147.227 Y96.044 E0.01754
G1 X146.731 Y96.303 E0.01754
G1 X146.494 Y96.468 E0.00907
G1 X146.176 Y96.748 E0.01327
G1 X145.817 Y97.176 E0.01754
G1 X145.597 Y97.538 E0.01327
G1 X145.475 Y97.800 E0.00907
G1 X145.307 Y98.335 E0.01758
G1 X145.243 Y98.750 E0.01316
G1 X145.230 Y99.038 E0.00906
G1 X145.279 Y99.593 E0.01747
G1 X145.379 Y100.005 E0.01327
G1 X145.477 Y100.272 E0.00892
G1 X145.599 Y100.533 E0.00903
G1 X145.817 Y100.892 E0.01316
G1 X146.175 Y101.318 E0.01747
G1 X146.387 Y101.513 E0.00903
G1 X146.665 Y101.722 E0.01091
G1 X146.970 Y101.903 E0.01113
G1 X147.416 Y102.091 E0.01516
G1 X145.896 Y102.079 E0.04765
G1 X144.761 Y101.979 E0.03572
G1 X144.198 Y101.893 E0.01786
G1 X143.086 Y101.646 E0.03572
G1 X142.539 Y101.487 E0.01786
G1 X141.469 Y101.097 E0.03572
G1 X140.437 Y100.616 E0.03572
G1 X139.450 Y100.046 E0.03572
G1 X138.517 Y99.393 E0.03572
G1 X138.073 Y99.037 E0.01785
G1 X137.617 Y98.634 E0.01907
G1 X136.838 Y97.854 E0.03457
G1 X136.439 Y97.397 E0.01900
G1 X135.769 Y96.521 E0.03458
G1 X135.158 Y95.562 E0.03565
G1 X134.884 Y95.063 E0.01786
G1 X134.402 Y94.031 E0.03572
G1 X134.013 Y92.960 E0.03572
G1 X133.853 Y92.414 E0.01785
G1 X133.711 Y91.822 E0.01907
G1 X133.520 Y90.736 E0.03458
G1 X133.458 Y90.172 E0.01779
G1 X133.408 Y89.034 E0.03572
G1 X133.421 Y88.464 E0.01786
G1 X133.520 Y87.330 E0.03572
G1 X133.718 Y86.208 E0.03572
G1 X134.013 Y85.107 E0.03572
G1 X134.402 Y84.037 E0.03572
G1 X134.884 Y83.005 E0.03571
G1 X135.178 Y82.472 E0.01907
G1 X135.771 Y81.543 E0.03458
G1 X136.463 Y80.641 E0.03565
G1 X136.839 Y80.212 E0.01786
G1 X137.644 Y79.407 E0.03572
G1 X138.073 Y79.031 E0.01786
G1 X138.517 Y78.675 E0.01785
G1 X139.008 Y78.317 E0.01907
G1 X139.939 Y77.725 E0.03458
G1 X140.947 Y77.200 E0.03565
G1 X141.469 Y76.970 E0.01786
G1 X142.539 Y76.581 E0.03572
G1 X143.640 Y76.286 E0.03572
G1 X144.198 Y76.175 E0.01786
G1 X144.761 Y76.088 E0.01786
G1 X145.894 Y75.989 E0.03564
G1 X147.389 Y75.989 E0.04686
G1 X147.101 Y76.101 E0.00969
G1 X146.847 Y76.232 E0.00895
G1 X146.565 Y76.416 E0.01056
G1 X146.281 Y76.648 E0.01149
G1 X146.077 Y76.851 E0.00904
G1 X145.740 Y77.292 E0.01740
G1 X145.595 Y77.542 E0.00907
G1 X145.425 Y77.927 E0.01320
G1 X145.308 Y78.331 E0.01320
G1 X145.257 Y78.616 E0.00907
G1 X145.233 Y79.175 E0.01754
G1 X145.307 Y79.735 E0.01772
G1 X145.425 Y80.138 E0.01316
G1 X145.535 Y80.405 E0.00907
G1 X145.816 Y80.891 E0.01758
G1 X146.079 Y81.218 E0.01316
G1 X146.498 Y81.602 E0.01782
G1 X146.850 Y81.837 E0.01327
G1 X147.355 Y82.073 E0.01747
G1 X147.634 Y82.160 E0.00917
G1 X148.046 Y82.242 E0.01316
G1 X148.602 Y82.266 E0.01747
G1 X148.890 Y82.241 E0.00907
G1 X149.305 Y82.159 E0.01327
G1 X149.833 Y81.966 E0.01761
G1 X150.323 Y81.683 E0.01772
G1 X150.650 Y81.421 E0.01316
G1 X150.853 Y81.218 E0.00899
G1 X151.115 Y80.891 E0.01313
G1 X151.270 Y80.648 E0.00907
G1 X151.506 Y80.140 E0.01754
G1 X151.652 Y79.594 E0.01772
G1 X151.698 Y79.177 E0.01316
G1 X151.698 Y78.888 E0.00907
G1 X151.624 Y78.332 E0.01758
G1 X151.507 Y77.929 E0.01316
G1 X151.396 Y77.662 E0.00907
G1 X151.115 Y77.177 E0.01758
G1 X150.853 Y76.850 E0.01316
G1 X150.651 Y76.648 E0.00894
G1 X150.408 Y76.446 E0.00992
G1 X150.142 Y76.267 E0.01004
G1 X149.834 Y76.102 E0.01095
G1 X149.554 Y75.988 E0.00949
G1 X177.720 Y75.981 E0.88312
G1 X177.799 Y76.016 E0.00273
G1 X177.900 Y76.131 E0.00479
G1 X177.973 Y76.328 E0.00659
G1 X177.995 Y76.545 E0.00683
G1 X177.995 Y101.523 E0.78316
G1 X177.972 Y101.740 E0.00686
G1 X177.873 Y101.973 E0.00794
G1 X177.731 Y101.996 F10800.000
G1 F8640
G1 X177.746 Y102.082 E-0.03866
G1 X177.697 Y102.091 E-0.01151
G1 X174.622 Y102.091 E-0.70983
G1 E-0.04000 F2100.00000
G1 Z0.800 F10800.000
G1 X177.505 Y77.247
G1 Z0.200
G1 E0.80000 F2100.00000
G1 F1200
G1 X176.899 Y76.641 E0.02690
G1 X176.365 Y76.641 E0.01676
G1 X177.335 Y77.611 E0.04307
G1 X177.335 Y78.145 E0.01677
G1 X175.832 Y76.641 E0.06678
G1 X175.298 Y76.641 E0.01676
G1 X177.335 Y78.679 E0.09048
G1 X177.335 Y79.213 E0.01677
G1 X174.764 Y76.641 E0.11419
G1 X174.230 Y76.641 E0.01676
G1 X177.335 Y79.747 E0.13789
G1 X177.335 Y80.281 E0.01677
G1 X173.696 Y76.642 E0.16160
G1 X173.162 Y76.642 E0.01676
G1 X177.335 Y80.815 E0.18530
G1 X177.335 Y81.349 E0.01677
G1 X172.628 Y76.642 E0.20901
G1 X172.094 Y76.642 E0.01676
G1 X177.335 Y81.883 E0.23271
G1 X177.335 Y82.417 E0.01677
G1 X171.561 Y76.642 E0.25642
G1 X171.027 Y76.642 E0.01676
G1 X177.335 Y82.951 E0.28012
G1 X177.335 Y83.485 E0.01677
G1 X170.493 Y76.642 E0.30382
G1 X169.959 Y76.643 E0.01676
G1 X177.335 Y84.019 E0.32753
G1 X177.335 Y84.553 E0.01677
G1 X169.425 Y76.643 E0.35123
G1 X168.891 Y76.643 E0.01676
G1 X177.335 Y85.087 E0.37494
G1 X177.335 Y85.621 E0.01677
G1 X168.357 Y76.643 E0.39864
G1 X167.824 Y76.643 E0.01676
G1 X177.335 Y86.155 E0.42235
G1 X177.335 Y86.689 E0.01677
G1 X167.290 Y76.643 E0.44605
G1 X166.756 Y76.643 E0.01676
G1 X177.335 Y87.223 E0.46976
G1 X177.335 Y87.757 E0.01677
G1 X166.222 Y76.644 E0.49346
G1 X165.688 Y76.644 E0.01676
G1 X177.335 Y88.291 E0.51717
G1 X177.335 Y88.825 E0.01677
G1 X165.154 Y76.644 E0.54087
G1 X164.620 Y76.644 E0.01676
G1 X177.335 Y89.359 E0.56458
G1 X177.335 Y89.893 E0.01677
G1 X164.087 Y76.644 E0.58828
G1 X163.553 Y76.644 E0.01676
G1 X177.335 Y90.427 E0.61198
G1 X177.335 Y90.961 E0.01677
G1 X163.019 Y76.644 E0.63569
G1 X162.485 Y76.645 E0.01676
G1 X177.335 Y91.495 E0.65939
G1 X177.335 Y92.029 E0.01677
G1 X161.951 Y76.645 E0.68310
G1 X161.417 Y76.645 E0.01676
G1 X177.335 Y92.563 E0.70680
G1 X177.335 Y93.097 E0.01677
G1 X160.883 Y76.645 E0.73051
G1 X160.350 Y76.645 E0.01676
G1 X177.335 Y93.631 E0.75421
G1 X177.335 Y94.165 E0.01677
G1 X159.816 Y76.645 E0.77792
M73 Q1 S73
G1 X159.282 Y76.645 E0.01676
G1 X177.335 Y94.699 E0.80162
M73 P1 R73
G1 X177.335 Y95.233 E0.01677
G1 X158.748 Y76.646 E0.82533
G1 X158.214 Y76.646 E0.01676
G1 X177.335 Y95.767 E0.84903
G1 X177.335 Y96.301 E0.01677
G1 X157.680 Y76.646 E0.87274
G1 X157.146 Y76.646 E0.01676
G1 X177.335 Y96.835 E0.89644
G1 X177.335 Y97.369 E0.01677
G1 X156.612 Y76.646 E0.92015
G1 X156.079 Y76.646 E0.01676
G1 X177.335 Y97.903 E0.94385
G1 X177.335 Y98.437 E0.01677
G1 X155.545 Y76.646 E0.96755
G1 X155.011 Y76.647 E0.01676
G1 X177.335 Y98.971 E0.99126
G1 X177.335 Y99.505 E0.01677
G1 X154.477 Y76.647 E1.01496
G1 X153.943 Y76.647 E0.01676
G1 X177.335 Y100.039 E1.03867
G1 X177.335 Y100.573 E0.01677
G1 X153.409 Y76.647 E1.06237
G1 X152.875 Y76.647 E0.01676
G1 X177.335 Y101.107 E1.08608
G1 X177.335 Y101.431 E0.01018
G1 X177.126 Y101.431 E0.00658
G1 X152.342 Y76.647 E1.10047
G1 X151.808 Y76.647 E0.01676
G1 X176.592 Y101.431 E1.10047
G1 X176.058 Y101.431 E0.01677
G1 X151.980 Y77.353 E1.06912
G1 X152.130 Y77.710 E0.01215
G1 X152.265 Y78.173 E0.01514
G1 X175.524 Y101.431 E1.03273
G1 X174.990 Y101.431 E0.01677
G1 X152.351 Y78.793 E1.00522
G1 X152.346 Y79.322 E0.01661
G1 X174.456 Y101.431 E0.98173
G1 X173.922 Y101.431 E0.01677
G1 X152.283 Y79.792 E0.96083
G1 X152.170 Y80.214 E0.01370
G1 X173.388 Y101.431 E0.94212
G1 X172.854 Y101.431 E0.01677
G1 X152.021 Y80.599 E0.92503
G1 X151.851 Y80.963 E0.01262
G1 X172.320 Y101.431 E0.90885
G1 X171.786 Y101.431 E0.01677
G1 X151.642 Y81.288 E0.89441
G1 X151.405 Y81.584 E0.01193
G1 X171.252 Y101.431 E0.88126
G1 X170.718 Y101.431 E0.01677
G1 X151.145 Y81.859 E0.86907
G1 X150.855 Y82.102 E0.01190
G1 X170.184 Y101.431 E0.85825
G1 X169.650 Y101.431 E0.01677
G1 X150.539 Y82.321 E0.84856
G1 X150.201 Y82.516 E0.01227
G1 X169.116 Y101.431 E0.83987
G1 X168.582 Y101.431 E0.01677
G1 X149.823 Y82.672 E0.83294
G1 X149.424 Y82.808 E0.01322
G1 X168.048 Y101.431 E0.82693
G1 X167.514 Y101.431 E0.01677
G1 X148.978 Y82.896 E0.82302
G1 X148.617 Y82.927 E0.01139
G1 X148.469 Y82.921 E0.00463
G1 X166.980 Y101.431 E0.82190
G1 X166.446 Y101.431 E0.01677
G1 X147.900 Y82.886 E0.82346
G1 X147.470 Y82.801 E0.01376
G1 X147.194 Y82.714 E0.00910
G1 X165.912 Y101.431 E0.83111
G1 X165.378 Y101.431 E0.01677
G1 X141.589 Y77.642 E1.05629
G1 X141.224 Y77.812 E0.01262
G1 X164.844 Y101.431 E1.04875
G1 X164.310 Y101.431 E0.01677
G1 X140.860 Y77.982 E1.04121
G1 X140.509 Y78.165 E0.01243
G1 X163.776 Y101.431 E1.03310
G1 X163.242 Y101.431 E0.01677
G1 X140.170 Y78.360 E1.02443
M73 Q2 S72
M73 P2 R72
G1 X139.844 Y78.567 E0.01215
G1 X162.708 Y101.431 E1.01521
G1 X162.174 Y101.431 E0.01677
G1 X139.517 Y78.775 E1.00600
G1 X139.201 Y78.993 E0.01206
G1 X161.640 Y101.431 E0.99633
G1 X161.106 Y101.431 E0.01677
G1 X138.893 Y79.219 E0.98629
G1 X138.597 Y79.457 E0.01193
G1 X160.572 Y101.431 E0.97573
G1 X160.038 Y101.431 E0.01677
G1 X138.312 Y79.706 E0.96465
G1 X138.034 Y79.962 E0.01187
G1 X159.504 Y101.431 E0.95331
G1 X158.970 Y101.431 E0.01677
G1 X137.755 Y80.217 E0.94197
